/* XPM */
static char * coletable_xpm[] = {
"48 48 477 2",
"  	c #5A6988",
". 	c #3A4466",
"+ 	c #262B44",
"@ 	c #596886",
"# 	c #596887",
"$ 	c #4F5D78",
"% 	c #404A5B",
"& 	c #424B5D",
"* 	c #4C5972",
"= 	c #566582",
"- 	c #53617D",
"; 	c #323B45",
"> 	c #463C2E",
", 	c #5E4D39",
"' 	c #504638",
") 	c #3E434D",
"! 	c #505D78",
"~ 	c #5A6987",
"{ 	c #596786",
"] 	c #444E61",
"^ 	c #37322A",
"/ 	c #413729",
"( 	c #745A42",
"_ 	c #8D6E52",
": 	c #8A6D56",
"< 	c #68584E",
"[ 	c #394365",
"} 	c #48566D",
"| 	c #303437",
"1 	c #544132",
"2 	c #4D3E2E",
"3 	c #4B3F2E",
"4 	c #8E6F53",
"5 	c #AC8669",
"6 	c #AB876E",
"7 	c #61554F",
"8 	c #54637F",
"9 	c #3A4365",
"0 	c #2E374F",
"a 	c #354C39",
"b 	c #34442C",
"c 	c #544231",
"d 	c #5C4734",
"e 	c #564633",
"f 	c #574835",
"g 	c #7B624A",
"h 	c #98785F",
"i 	c #69584C",
"j 	c #505E79",
"k 	c #363F5E",
"l 	c #273634",
"m 	c #385534",
"n 	c #3C5936",
"o 	c #413E2B",
"p 	c #614A38",
"q 	c #7B5F46",
"r 	c #7F654B",
"s 	c #775F47",
"t 	c #64523F",
"u 	c #3B4047",
"v 	c #556481",
"w 	c #3A4465",
"x 	c #2F3952",
"y 	c #3D5E3C",
"z 	c #3F643B",
"A 	c #4C6D49",
"B 	c #546F4F",
"C 	c #424330",
"D 	c #594733",
"E 	c #6D553F",
"F 	c #6C553F",
"G 	c #4D453C",
"H 	c #4C5973",
"I 	c #5A6887",
"J 	c #576684",
"K 	c #52617C",
"L 	c #4E5C75",
"M 	c #323C54",
"N 	c #283240",
"O 	c #385836",
"P 	c #679462",
"Q 	c #698566",
"R 	c #859E82",
"S 	c #86A782",
"T 	c #658261",
"U 	c #6C7E66",
"V 	c #698064",
"W 	c #39484A",
"X 	c #586786",
"Y 	c #52607B",
"Z 	c #42525F",
"` 	c #3B5146",
" .	c #577357",
"..	c #486D45",
"+.	c #3A5B38",
"@.	c #253524",
"#.	c #2A3925",
"$.	c #547D4F",
"%.	c #85B081",
"&.	c #7D987A",
"*.	c #6D856B",
"=.	c #92AC8F",
"-.	c #92AB8F",
";.	c #697D66",
">.	c #424F60",
",.	c #586785",
"'.	c #465467",
").	c #3F6045",
"!.	c #598754",
"~.	c #8AB286",
"{.	c #94BC91",
"].	c #649A5E",
"^.	c #3F623A",
"/.	c #2B3122",
"(.	c #2D2D21",
"_.	c #34402A",
":.	c #4F7B4A",
"<.	c #7FAF7A",
"[.	c #7BAB75",
"}.	c #9FBC9C",
"|.	c #60825C",
"1.	c #334146",
"2.	c #3F4B5D",
"3.	c #3D5C3D",
"4.	c #53824D",
"5.	c #70A86A",
"6.	c #89BE84",
"7.	c #75AD6F",
"8.	c #5B9156",
"9.	c #2F3C28",
"0.	c #342D22",
"a.	c #312D21",
"b.	c #363225",
"c.	c #40412F",
"d.	c #455D39",
"e.	c #62895E",
"f.	c #86A482",
"g.	c #486050",
"h.	c #3F4D5E",
"i.	c #536454",
"j.	c #50644D",
"k.	c #365233",
"l.	c #466E42",
"m.	c #629B5C",
"n.	c #71B16B",
"o.	c #578A51",
"p.	c #2C4129",
"q.	c #2E3324",
"r.	c #393124",
"s.	c #3A3326",
"t.	c #433C2D",
"u.	c #5B4D3C",
"v.	c #564939",
"w.	c #303B34",
"x.	c #505D75",
"y.	c #4D5A73",
"z.	c #49634B",
"A.	c #96B892",
"B.	c #85AF81",
"C.	c #5C8F56",
"D.	c #517F4C",
"E.	c #3B5C38",
"F.	c #4A6F47",
"G.	c #568852",
"H.	c #3B5F39",
"I.	c #385735",
"J.	c #343E29",
"K.	c #3F372A",
"L.	c #473C2E",
"M.	c #524636",
"N.	c #3F3A2C",
"O.	c #5F765D",
"P.	c #6A7C7B",
"Q.	c #576683",
"R.	c #394364",
"S.	c #2D3B45",
"T.	c #739570",
"U.	c #9BBC98",
"V.	c #638D60",
"W.	c #467544",
"X.	c #447042",
"Y.	c #315731",
"Z.	c #425A42",
"`.	c #638060",
" +	c #3D5C3B",
".+	c #365734",
"++	c #426540",
"@+	c #53684E",
"#+	c #454435",
"$+	c #4A4332",
"%+	c #2C3325",
"&+	c #576D54",
"*+	c #758E72",
"=+	c #394755",
"-+	c #374162",
";+	c #2E393B",
">+	c #8CA28A",
",+	c #769176",
"'+	c #316135",
")+	c #2D6734",
"!+	c #306D37",
"~+	c #35763C",
"{+	c #4B8F51",
"]+	c #82AD83",
"^+	c #768973",
"/+	c #314D31",
"(+	c #385D38",
"_+	c #5B7858",
":+	c #3E543B",
"<+	c #526450",
"[+	c #4E6D4F",
"}+	c #31402B",
"|+	c #444D3A",
"1+	c #2F393B",
"2+	c #384263",
"3+	c #353F5E",
"4+	c #36413E",
"5+	c #97AB95",
"6+	c #4A624A",
"7+	c #284F2C",
"8+	c #2B5A30",
"9+	c #2D6033",
"0+	c #316937",
"a+	c #3D8143",
"b+	c #559C5A",
"c+	c #89B489",
"d+	c #6B7F6B",
"e+	c #597E5B",
"f+	c #5A885D",
"g+	c #518855",
"h+	c #88B489",
"i+	c #6AA56E",
"j+	c #366539",
"k+	c #3E3B2B",
"l+	c #3C382D",
"m+	c #293240",
"n+	c #384262",
"o+	c #333C5A",
"p+	c #505D53",
"q+	c #91A690",
"r+	c #3F543F",
"s+	c #2A442B",
"t+	c #2F4E30",
"u+	c #335534",
"v+	c #355937",
"w+	c #385F3A",
"x+	c #3B623C",
"y+	c #648464",
"z+	c #81997F",
"A+	c #506C50",
"B+	c #6F9F72",
"C+	c #5A925D",
"D+	c #538755",
"E+	c #497C4B",
"F+	c #3E653F",
"G+	c #404C39",
"H+	c #454031",
"I+	c #303028",
"J+	c #424C5D",
"K+	c #313A56",
"L+	c #536156",
"M+	c #738671",
"N+	c #354B35",
"O+	c #2A452B",
"P+	c #2C482D",
"Q+	c #315032",
"R+	c #355737",
"S+	c #3C613D",
"T+	c #416941",
"U+	c #517951",
"V+	c #7F9F7E",
"W+	c #556E55",
"X+	c #456045",
"Y+	c #5D805D",
"Z+	c #4E7A4E",
"`+	c #4C7B4C",
" @	c #628461",
".@	c #6A806A",
"+@	c #2A3024",
"@@	c #2D2E22",
"#@	c #46433E",
"$@	c #2D364F",
"%@	c #2C3B30",
"&@	c #344833",
"*@	c #2B422B",
"=@	c #2A432A",
"-@	c #2B462C",
";@	c #2B462D",
">@	c #2F4E32",
",@	c #375B39",
"'@	c #3B603C",
")@	c #426842",
"!@	c #779876",
"~@	c #7F9E7E",
"{@	c #354D35",
"]@	c #688168",
"^@	c #688A67",
"/@	c #4E7B4E",
"(@	c #769675",
"_@	c #6B836B",
":@	c #232D20",
"<@	c #2A2D21",
"[@	c #474135",
"}@	c #4B566D",
"|@	c #3F4B5F",
"1@	c #4A594B",
"2@	c #536552",
"3@	c #2E442E",
"4@	c #294029",
"5@	c #2D492F",
"6@	c #315235",
"7@	c #385C39",
"8@	c #3B5F3C",
"9@	c #567956",
"0@	c #719470",
"a@	c #355035",
"b@	c #496048",
"c@	c #5E7D5D",
"d@	c #4E784E",
"e@	c #88A687",
"f@	c #4E624E",
"g@	c #232D26",
"h@	c #343225",
"i@	c #2F322D",
"j@	c #4A5870",
"k@	c #586684",
"l@	c #3A4558",
"m@	c #455546",
"n@	c #4B5C4A",
"o@	c #2C432D",
"p@	c #29432B",
"q@	c #2C492E",
"r@	c #2D4A2F",
"s@	c #2E4E31",
"t@	c #315134",
"u@	c #355836",
"v@	c #496A49",
"w@	c #6C8B6B",
"x@	c #3F633F",
"y@	c #2A432C",
"z@	c #365738",
"A@	c #567D56",
"B@	c #859F84",
"C@	c #364444",
"D@	c #3D495C",
"E@	c #303433",
"F@	c #37352C",
"G@	c #424D5F",
"H@	c #54627F",
"I@	c #384354",
"J@	c #445344",
"K@	c #3F513E",
"L@	c #2A422A",
"M@	c #29422A",
"N@	c #2B472D",
"O@	c #2D4B30",
"P@	c #2E4D30",
"Q@	c #2F4F32",
"R@	c #315233",
"S@	c #3C5E3D",
"T@	c #4B6C4B",
"U@	c #3E633E",
"V@	c #2C462D",
"W@	c #335434",
"X@	c #86A384",
"Y@	c #607461",
"Z@	c #4A576E",
"`@	c #515F7B",
" #	c #2F383D",
".#	c #333225",
"+#	c #3C392E",
"@#	c #474644",
"##	c #414750",
"$#	c #4E5B75",
"%#	c #394457",
"&#	c #495749",
"*#	c #4D5D4C",
"=#	c #283D28",
"-#	c #273E27",
";#	c #283F28",
">#	c #2B452C",
",#	c #2F5032",
"'#	c #38593A",
")#	c #406541",
"!#	c #2E492F",
"~#	c #628162",
"{#	c #778F76",
"]#	c #434F5C",
"^#	c #3A4554",
"/#	c #353939",
"(#	c #333B42",
"_#	c #3B3C39",
":#	c #3A3F40",
"<#	c #46526A",
"[#	c #26322E",
"}#	c #516350",
"|#	c #384A38",
"1#	c #243925",
"2#	c #253B25",
"3#	c #2C472D",
"4#	c #305033",
"5#	c #486649",
"6#	c #567557",
"7#	c #2F4C30",
"8#	c #324E32",
"9#	c #5F7A5F",
"0#	c #4D5C5C",
"a#	c #586685",
"b#	c #52607D",
"c#	c #53617E",
"d#	c #556380",
"e#	c #293433",
"f#	c #647563",
"g#	c #6E806D",
"h#	c #324732",
"i#	c #284129",
"j#	c #29432A",
"k#	c #324E33",
"l#	c #587058",
"m#	c #486248",
"n#	c #263A26",
"o#	c #2F4A33",
"p#	c #394C4F",
"q#	c #53627E",
"r#	c #455268",
"s#	c #212F26",
"t#	c #354235",
"u#	c #627261",
"v#	c #586957",
"w#	c #415340",
"x#	c #375339",
"y#	c #60765F",
"z#	c #798E77",
"A#	c #3B4C3B",
"B#	c #222E28",
"C#	c #3D495A",
"D#	c #4A5670",
"E#	c #2B363A",
"F#	c #233424",
"G#	c #293828",
"H#	c #60705F",
"I#	c #71836F",
"J#	c #5E6F5C",
"K#	c #596B57",
"L#	c #667A65",
"M#	c #6C806A",
"N#	c #637862",
"O#	c #425243",
"P#	c #242E34",
"Q#	c #4A5770",
"R#	c #566482",
"S#	c #46536B",
"T#	c #2D393F",
"U#	c #243627",
"V#	c #243725",
"W#	c #415140",
"X#	c #526250",
"Y#	c #576956",
"Z#	c #637461",
"`#	c #222E29",
" $	c #293245",
".$	c #36405F",
"+$	c #4A5771",
"@$	c #374352",
"#$	c #283934",
"$$	c #26382A",
"%$	c #223425",
"&$	c #222F27",
"*$	c #2C373F",
"=$	c #384353",
"-$	c #313A55",
";$	c #47536B",
">$	c #394555",
",$	c #33404A",
"'$	c #435064",
")$	c #54627E",
"!$	c #566481",
"                                          . . .                   . . .                   . + + ",
"                                          . . .                   . . .                   . + + ",
"                                          . . .                   . . .                   . . + ",
"                                          . . .                   . . .                   . . . ",
"                                          . . .                   . . .                   . . . ",
"                                          . . .                   . . .                   . . . ",
"                                          . . .                   . . .                   . . . ",
"                                          . . .       @ @         . . .                   . . . ",
"                                          . . .   # $ % & * =                             . . . ",
"                                          . . .   - ; > , ' ) ! ~                         . . . ",
"                                          . . . { ] ^ / ( _ : < *                         . . . ",
"                                          . . [ } | 1 2 3 4 5 6 7 8                       . . . ",
"                                          . 9 0 a b c d e f g h i j                       . . . ",
"                                          . k l m n o p q r s t u v                       . . . ",
"                                          w x y z A B C D E F G H I                       . . . ",
"                                  # J K L M N O P Q R S T U V W X                         . . . ",
"                              # Y Z `  ...+.@.#.$.%.&.*.=.-.;.>.  . . .                   . . . ",
"                            ,.'.).!.~.{.].^./.(._.:.<.[.}.|.1.=   . . .                   . . . ",
"                          ,.2.3.4.5.6.7.8.9.0.a.b.c.d.e.f.g.K     . . .                   . . . ",
"                        X h.i.j.k.l.m.n.o.p.q.r.s.t.u.v.w.x.~     . . .                   . . . ",
"                        y.z.A.B.C.D.E.F.G.H.I.J.K.L.M.N.O.P.Q.  . . . . .             . . . . . ",
". . . . . . . . . . . R.S.T.U.V.W.X.Y.Z.`. +.+++@+#+$+%+&+*+=+w . . . . . . . . . . . . . . . . ",
". . . . . . . . . . . -+;+>+,+'+)+!+~+{+]+^+/+(+_+:+<+[+}+|+1+2+. . . . . . . . . . . . . . . . ",
". . . . . . . . . . . 3+4+5+6+7+8+9+0+a+b+c+d+e+f+g+h+i+j+k+l+m+n+. . . . . . . . . . . . . . . ",
"          . . . . . . o+p+q+r+s+t+u+v+w+x+y+z+A+B+C+D+E+F+G+H+I+J+@                   . . . . . ",
"            . . . . w K+L+M+N+O+P+Q+R+S+T+U+V+W+X+Y+Z+`+ @.@+@@@#@j                       . . . ",
"            . . . . [ $@%@&@*@=@-@;@>@,@'@)@!@~@{@]@^@/@(@_@:@<@[@}@                      . . . ",
"            . . . . X |@1@2@3@4@-@-@5@6@7@8@9@0@a@b@c@d@e@f@g@h@i@j@                      . . . ",
"            . . .   k@l@m@n@o@p@O+q@r@s@t@u@v@w@x@y@z@A@B@C@D@E@F@G@H@,.                  . . . ",
"            . .     J I@J@K@L@=@M@N@O@P@Q@R@S@T@U@V@W@X@Y@Z@`@ #.#+#@###$#I               . . . ",
". . . . . .         J %#&#*#=#-#;#>#r@>@Q@,#'#)#8@!#~#{#]#J H@^#/#(#_#:#L I               . . . ",
". . . . . .         ,.<#[#}#|#1#2#s+3#P+P@4#5#6#7#8#9#0#=   a#b#b#c#`@d#                  . . . ",
". . . . .           # H e#f#g#h#i#j#M@-@q@k#l#m#n#o#p#q#      #     #                     . . . ",
"+ + . .             @ r#s#t#u#v#w#*@=@r@x#y#z#A#B#C#H@                                    . . . ",
"+ . .               X D#E#F#G#H#I#J#K#L#M#N#O#P#Q#,.                                      . . . ",
". . .                 R#S#T#U#V#W#X#Y#Z#*#`# $.$                                          . . . ",
"                        = +$@$#$$$%$&$*$=$-$R..                                           . . . ",
"                          ,.b#;$>$,$'$)$J w . .                                           . . . ",
"                              X !$R##     . . .                                           . . . ",
"                                          . . .                                           . . . ",
"                                          . . .                                           . . . ",
"                                          . . .                                           . . . ",
"                                          . . .                                           . . . ",
"                                          . . .                                           . . . ",
"                                        . . . . .                                       . . . . ",
". . . . . . . . . . . . . . . . . . . . . . . . . . . . . . . . . . . . . . . . . . . . . . + + ",
"+ + + + + . . . . . . . . . . . . . . . . . . . . . . . . . . . . . + . . . . . + + + + + + + + ",
"+ + + + + + . . . . . . . . . . . . . . . . . . . . . . . . . . . + + + . . . + + + + + + + + + "};
