/* XPM */
static char * enemy_b_xpm[] = {
"48 48 404 2",
"  	c #5A6988",
". 	c #3A4466",
"+ 	c #262B44",
"@ 	c #5F5463",
"# 	c #6C6F85",
"$ 	c #D19845",
"% 	c #B88F68",
"& 	c #D19743",
"* 	c #E0A244",
"= 	c #C19260",
"- 	c #666785",
"; 	c #A56C6B",
"> 	c #E5B14D",
", 	c #F3BA3D",
"' 	c #D99B46",
") 	c #797382",
"! 	c #F3C159",
"~ 	c #FED754",
"{ 	c #F2C64B",
"] 	c #C68E54",
"^ 	c #7E858D",
"/ 	c #FEF4AC",
"( 	c #FEE575",
"_ 	c #C8A166",
": 	c #5B6988",
"< 	c #5F6A87",
"[ 	c #CC995A",
"} 	c #D69E51",
"| 	c #B99069",
"1 	c #987573",
"2 	c #E0AF58",
"3 	c #FEE272",
"4 	c #FDD355",
"5 	c #BF9063",
"6 	c #7B7481",
"7 	c #B78E67",
"8 	c #E9A83B",
"9 	c #CE932D",
"0 	c #9B7243",
"a 	c #3D344E",
"b 	c #2F334D",
"c 	c #2C334C",
"d 	c #444F66",
"e 	c #46526A",
"f 	c #596887",
"g 	c #AA816C",
"h 	c #F3B237",
"i 	c #F6B83C",
"j 	c #CD985A",
"k 	c #906C74",
"l 	c #696B7F",
"m 	c #8D766D",
"n 	c #DFA037",
"o 	c #DFA036",
"p 	c #8F6627",
"q 	c #341B22",
"r 	c #64352F",
"s 	c #6A4D22",
"t 	c #6A501E",
"u 	c #5A441E",
"v 	c #26222B",
"w 	c #515F7B",
"x 	c #57617E",
"y 	c #596582",
"z 	c #757282",
"A 	c #B18C6C",
"B 	c #E1A344",
"C 	c #EEAA33",
"D 	c #8E7B7B",
"E 	c #5C6A88",
"F 	c #E1A445",
"G 	c #A37426",
"H 	c #332725",
"I 	c #57423B",
"J 	c #54403B",
"K 	c #54403A",
"L 	c #544041",
"M 	c #79604C",
"N 	c #E8B140",
"O 	c #EEB53E",
"P 	c #CF9E43",
"Q 	c #534349",
"R 	c #1C181E",
"S 	c #4B221E",
"T 	c #5B4B5D",
"U 	c #D09B56",
"V 	c #C09263",
"W 	c #7A7481",
"X 	c #ECAA34",
"Y 	c #907D7A",
"Z 	c #88797E",
"` 	c #D99F4E",
" .	c #EAA938",
"..	c #A7782D",
"+.	c #3D2E2F",
"@.	c #533F3B",
"#.	c #574346",
"$.	c #987649",
"%.	c #D9A742",
"&.	c #9C7949",
"*.	c #A0805A",
"=.	c #CBAC66",
"-.	c #E9CA67",
";.	c #D59D37",
">.	c #966341",
",.	c #4B3C46",
"'.	c #343C50",
").	c #D19B57",
"!.	c #BE9163",
"~.	c #626B87",
"{.	c #8B7A7C",
"].	c #CA985B",
"^.	c #AC896E",
"/.	c #776F79",
"(.	c #B68129",
"_.	c #E19933",
":.	c #A47037",
"<.	c #4B3839",
"[.	c #9B7743",
"}.	c #BF9348",
"|.	c #BA8E46",
"1.	c #735B4B",
"2.	c #6B5656",
"3.	c #A18A62",
"4.	c #DCC16B",
"5.	c #FBD65F",
"6.	c #AD8C53",
"7.	c #594746",
"8.	c #4C3F3D",
"9.	c #434D64",
"0.	c #CC9144",
"a.	c #DDAF55",
"b.	c #AB945E",
"c.	c #3D4566",
"d.	c #A27A56",
"e.	c #988077",
"f.	c #4F5C78",
"g.	c #1D1416",
"h.	c #9C5731",
"i.	c #935C39",
"j.	c #71513B",
"k.	c #C3923A",
"l.	c #CE9A42",
"m.	c #6B564D",
"n.	c #6C5752",
"o.	c #8A7662",
"p.	c #EACC69",
"q.	c #B69956",
"r.	c #84684B",
"s.	c #65514B",
"t.	c #2C2327",
"u.	c #B27625",
"v.	c #EEBF40",
"w.	c #F0C64E",
"x.	c #414866",
"y.	c #1E1618",
"z.	c #34262C",
"A.	c #B17732",
"B.	c #C28237",
"C.	c #B67B37",
"D.	c #C2843D",
"E.	c #67534D",
"F.	c #6B564E",
"G.	c #D09F44",
"H.	c #CA9B45",
"I.	c #614D4D",
"J.	c #55413E",
"K.	c #2A1D1D",
"L.	c #A57626",
"M.	c #E2A33C",
"N.	c #3E4666",
"O.	c #505D79",
"P.	c #191216",
"Q.	c #372A2D",
"R.	c #65452F",
"S.	c #966532",
"T.	c #CA8837",
"U.	c #C98736",
"V.	c #D58F35",
"W.	c #BF8137",
"X.	c #574341",
"Y.	c #6A554C",
"Z.	c #69544D",
"`.	c #D09F45",
" +	c #C6973F",
".+	c #56423F",
"++	c #54403C",
"@+	c #302424",
"#+	c #5B4C53",
"$+	c #72555F",
"%+	c #4E5B76",
"&+	c #564958",
"*+	c #7C402B",
"=+	c #4A312F",
"-+	c #784A31",
";+	c #9B6132",
">+	c #A87131",
",+	c #A97337",
"'+	c #CC8935",
")+	c #BE8036",
"!+	c #5F4B44",
"~+	c #604C45",
"{+	c #5B4745",
"]+	c #C7903E",
"^+	c #BD893A",
"/+	c #463532",
"(+	c #37303B",
"_+	c #2D3550",
":+	c #292F46",
"<+	c #562F23",
"[+	c #9C5135",
"}+	c #714431",
"|+	c #9A5C33",
"1+	c #9C5C33",
"2+	c #41302F",
"3+	c #433238",
"4+	c #A67137",
"5+	c #B87C37",
"6+	c #79543A",
"7+	c #56413B",
"8+	c #BD7F36",
"9+	c #B67A37",
"0+	c #493633",
"a+	c #301F29",
"b+	c #2A2F47",
"c+	c #221A1B",
"d+	c #392827",
"e+	c #B86C35",
"f+	c #8C5432",
"g+	c #473537",
"h+	c #956739",
"i+	c #D89134",
"j+	c #64483B",
"k+	c #573A35",
"l+	c #56282D",
"m+	c #282F47",
"n+	c #4B2423",
"o+	c #9F5335",
"p+	c #C07036",
"q+	c #8C5532",
"r+	c #413030",
"s+	c #573D31",
"t+	c #7C5430",
"u+	c #C88635",
"v+	c #8B603A",
"w+	c #60463B",
"x+	c #C88636",
"y+	c #9D6B38",
"z+	c #A46F38",
"A+	c #C38337",
"B+	c #58423B",
"C+	c #A0613A",
"D+	c #90552E",
"E+	c #291C29",
"F+	c #3F3449",
"G+	c #552724",
"H+	c #824630",
"I+	c #B36437",
"J+	c #844C32",
"K+	c #49342F",
"L+	c #9F6A30",
"M+	c #A97236",
"N+	c #AB7339",
"O+	c #AD7538",
"P+	c #78543A",
"Q+	c #7C5637",
"R+	c #A66E31",
"S+	c #995E38",
"T+	c #985C36",
"U+	c #734529",
"V+	c #242734",
"W+	c #49354A",
"X+	c #4C2521",
"Y+	c #372626",
"Z+	c #9F5237",
"`+	c #7B4333",
" @	c #43312F",
".@	c #674130",
"+@	c #AE7331",
"@@	c #C98632",
"#@	c #C28233",
"$@	c #553E38",
"%@	c #4C3A39",
"&@	c #473535",
"*@	c #573930",
"=@	c #C07136",
"-@	c #794B32",
";@	c #271E24",
">@	c #282935",
",@	c #2A3048",
"'@	c #211A1B",
")@	c #A15337",
"!@	c #7C4433",
"~@	c #4C352F",
"{@	c #BD6F36",
"]@	c #834F32",
"^@	c #583A30",
"/@	c #77482E",
"(@	c #271D1F",
"_@	c #272935",
":@	c #53617E",
"<@	c #3A4155",
"[@	c #26191A",
"}@	c #502F29",
"|@	c #884934",
"1@	c #8A4A34",
"2@	c #845032",
"3@	c #563830",
"4@	c #B26238",
"5@	c #693925",
"6@	c #2C2E3D",
"7@	c #4C5874",
"8@	c #556381",
"9@	c #46516B",
"0@	c #394156",
"a@	c #221F26",
"b@	c #643629",
"c@	c #824634",
"d@	c #844834",
"e@	c #844734",
"f@	c #8F5333",
"g@	c #975A33",
"h@	c #965A32",
"i@	c #955A34",
"j@	c #684231",
"k@	c #3E2E2E",
"l@	c #482D2C",
"m@	c #843A2E",
"n@	c #573F4D",
"o@	c #414A62",
"p@	c #515E7B",
"q@	c #4D5975",
"r@	c #323849",
"s@	c #24232D",
"t@	c #5B3228",
"u@	c #9A4F33",
"v@	c #A85638",
"w@	c #AE6236",
"x@	c #B56B35",
"y@	c #BD6E36",
"z@	c #4D332D",
"A@	c #3C2C2D",
"B@	c #402F2E",
"C@	c #452F2D",
"D@	c #452C2A",
"E@	c #3F2726",
"F@	c #4C333D",
"G@	c #4D526A",
"H@	c #4F5B78",
"I@	c #383E51",
"J@	c #1B1516",
"K@	c #271917",
"L@	c #A25336",
"M@	c #733D2E",
"N@	c #69392C",
"O@	c #A45437",
"P@	c #432B28",
"Q@	c #332526",
"R@	c #322426",
"S@	c #322526",
"T@	c #512723",
"U@	c #5B2821",
"V@	c #5A2F31",
"W@	c #4D5874",
"X@	c #4F5B77",
"Y@	c #4A5670",
"Z@	c #48536D",
"`@	c #47526B",
" #	c #4B2C2B",
".#	c #361E1A",
"+#	c #2E1919",
"@#	c #461F1E",
"##	c #572821",
"$#	c #3B1E1B",
"%#	c #1F1617",
"&#	c #281818",
"*#	c #552720",
"=#	c #51475B",
"-#	c #4F536D",
";#	c #4F546E",
">#	c #515F7C",
",#	c #596786",
"'#	c #54627F",
")#	c #4E5A76",
"!#	c #4D5974",
"~#	c #3E475D",
"{#	c #3B4359",
"]#	c #2C2F45",
"^#	c #483447",
"/#	c #373046",
"(#	c #3D4459",
"_#	c #524759",
":#	c #4F546D",
"<#	c #525F7C",
"[#	c #576583",
"}#	c #505D7A",
"|#	c #343C5B",
"1#	c #4E5B77",
"2#	c #586685",
"3#	c #353C5B",
"4#	c #53607D",
"5#	c #5A6987",
"6#	c #586786",
"7#	c #394365",
"                                          . . .                   . . .                   . + + ",
"                                          . . .                   . . .                   . + + ",
"                                          . . .                   . . .                   . . + ",
"                                          . . .                   . . .                   . . . ",
"                                          . . .                   . . .                   . . . ",
"                                          . . .                   . . @ #                 . . . ",
"                                          . . .                   . . $ %                 . . . ",
"                                          . . .                   . . & * =               . . . ",
"                                          . . .                   - ; > , '               . . . ",
"                                          . . .                   ) ! ~ { ]               . . . ",
"                                          . . .                   ^ / ( _ :               . . . ",
"                                  < [ } | . . .                 1 2 3 4 5                 . . . ",
"                                6 7 8 9 0 a b c d e f           g h i j k                 . . . ",
"                            6 l m n o p q r s t u v w x y     z A B C D                   . . . ",
"                          E F G H I J K L M N O P Q R S T     U V W X Y                   . . . ",
"                        Z `  ...+.@.@.#.$.%.&.*.=.-.;.>.,.'.f ).!.~.{.].^.                . . . ",
"                        /.(._.:.<.@.@.[.}.|.1.2.3.4.5.6.7.8.9.0.a.b.c.d.e.                . . . ",
"                        f.g.h.i.j.@.@.k.l.m.m.m.n.o.p.q.r.s.t.u.v.w.x..                   . . . ",
"                        f.y.z.A.B.@.@.C.D.E.m.m.m.m.F.G.H.I.J.K.L.M.N..                   . . . ",
"                        O.P.Q.R.S.T.U.V.W.X.Y.m.m.m.Z.`. +.+++@+#+$+. .                   . . . ",
"                      %+&+*+=+-+;+>+,+'+)+++!+~+~+~+{+]+^+@.@./+(+_+. . .             . . . . . ",
". . . . . . . . . . . :+<+[+}+|+1+2+3+4+5+6+7+@.@.@.@.8+9+@.@.@.0+a+. . . . . . . . . . . . . . ",
". . . . . . . . . . . b+c+d+e+f+2+2+2+g+h+i+j+@.@.@.@.)+C.@.@.@.k+l+. . . . . . . . . . . . . . ",
". . . . . . . . . . . m+n+o+p+q+2+2+2+r+s+t+u+v+@.w+x+y+z+A+B+C+D+E+. . . . . . . . . . . . . . ",
"          . . . . . . F+G+H+I+J+2+2+2+2+2+K+L+M+N+N+O+P+Q+R+S+T+U+V+                  . . . . . ",
"            . . . . . W+X+Y+Z+`+2+2+2+2+2+ @.@+@@@#@$@%@&@*@=@-@;@>@                      . . . ",
"            . . . . . ,@'@d+)@!@2+2+2+2+2+~@{@]@2+2+2+2+2+^@=@/@(@_@                      . . . ",
"            . . . .   :@<@[@}@|@1@2+2+2+2+~@{@2@2+2+2+2+2+3@4@5@6@7@                      . . . ",
"            . . .     8@9@0@a@b@c@d@e@f@g@h@i@j@2+2+2+2+k@l@m@n@o@p@                      . . . ",
"            . .       :@q@q@r@s@t@u@v@w@x@y@z@A@B@B@k@C@D@E@F@G@q@H@                      . . . ",
". . . . . .           :@q@q@q@I@J@K@L@M@N@O@P@Q@R@S@Q@T@U@V@W@q@q@X@                      . . . ",
". . . . . .           f 8@q@q@Y@Z@`@ #.#+#@###$#%#&#*#=#-#;#q@q@>#,#                      . . . ",
". . . . .               ,#'#)#q@q@!#~#{#{#]#^#/#{#(#_#:#q@q@q@<#[#                        . . . ",
"+ + . .                     <#}#f.q@q@q@q@|#|#|#q@q@q@q@1#}#}#2#                          . . . ",
"+ . .                           [#q@q@q@q@3#3#3#q@q@q@q@4#                                . . . ",
". . .                           5#6#6#6#6#7#7#7#6#6#6#6#f                                 . . . ",
"                                          . . .                                           . . . ",
"                                          . . .                                           . . . ",
"                                          . . .                                           . . . ",
"                                          . . .                                           . . . ",
"                                          . . .                                           . . . ",
"                                          . . .                                           . . . ",
"                                          . . .                                           . . . ",
"                                          . . .                                           . . . ",
"                                        . . . . .                                       . . . . ",
". . . . . . . . . . . . . . . . . . . . . . . . . . . . . . . . . . . . . . . . . . . . . . + + ",
"+ + + + + . . . . . . . . . . . . . . . . . . . . . . . . . . . . . + . . . . . + + + + + + + + ",
"+ + + + + + . . . . . . . . . . . . . . . . . . . . . . . . . . . + + + . . . + + + + + + + + + "};
