/* XPM */
static char * enemy_l_xpm[] = {
"48 48 432 2",
"  	c #5A6988",
". 	c #3A4466",
"+ 	c #636C86",
"@ 	c #747283",
"# 	c #262B44",
"$ 	c #8C7B7C",
"% 	c #A08374",
"& 	c #7E7580",
"* 	c #B88F68",
"= 	c #C19362",
"- 	c #606987",
"; 	c #D29B55",
"> 	c #B98F67",
", 	c #5C6A88",
"' 	c #626B87",
") 	c #D89B42",
"! 	c #ECA933",
"~ 	c #B78E68",
"{ 	c #907C7A",
"] 	c #E5A640",
"^ 	c #404666",
"/ 	c #6E6882",
"( 	c #D18B47",
"_ 	c #F9CD4A",
": 	c #F2B73B",
"< 	c #E1A342",
"[ 	c #C4945E",
"} 	c #88797D",
"| 	c #3C4566",
"1 	c #977775",
"2 	c #B87E61",
"3 	c #C38D67",
"4 	c #FCE589",
"5 	c #FED757",
"6 	c #F8C846",
"7 	c #F4BD3E",
"8 	c #CF9451",
"9 	c #83635C",
"0 	c #D9AB5A",
"a 	c #F9CE5A",
"b 	c #FADC7C",
"c 	c #FFF096",
"d 	c #FBD256",
"e 	c #FBCF49",
"f 	c #E8BE54",
"g 	c #AD8269",
"h 	c #556481",
"i 	c #556381",
"j 	c #586481",
"k 	c #5A6481",
"l 	c #3F4161",
"m 	c #3C4161",
"n 	c #D5923B",
"o 	c #FAC240",
"p 	c #FEE578",
"q 	c #FEF09D",
"r 	c #FCCA3F",
"s 	c #E09E3D",
"t 	c #DE9A3F",
"u 	c #AB846D",
"v 	c #576583",
"w 	c #1C1516",
"x 	c #161416",
"y 	c #4B221D",
"z 	c #5B2821",
"A 	c #532220",
"B 	c #D6972F",
"C 	c #EDAA33",
"D 	c #717183",
"E 	c #4F5C78",
"F 	c #232432",
"G 	c #4E3C42",
"H 	c #D8A53B",
"I 	c #9A7436",
"J 	c #543B37",
"K 	c #543E39",
"L 	c #533D39",
"M 	c #442E2D",
"N 	c #CE8D32",
"O 	c #AF7632",
"P 	c #5E3728",
"Q 	c #593633",
"R 	c #746D81",
"S 	c #EAC45B",
"T 	c #E4AF49",
"U 	c #E3A443",
"V 	c #CA985B",
"W 	c #4A5771",
"X 	c #333545",
"Y 	c #715C44",
"Z 	c #DEC168",
"` 	c #B38E4E",
" .	c #83674A",
"..	c #5C4A44",
"+.	c #533F3B",
"@.	c #4A3A3A",
"#.	c #7E5233",
"$.	c #9A5E33",
"%.	c #87502D",
"&.	c #57412B",
"*.	c #CC995B",
"=.	c #F2BF43",
"-.	c #F2B438",
";.	c #CE9A58",
">.	c #8F7C7B",
",.	c #4C5873",
"'.	c #434150",
").	c #5E4D47",
"!.	c #9C8664",
"~.	c #FEDE6D",
"{.	c #917B5B",
"].	c #6B564F",
"^.	c #665149",
"/.	c #5C4842",
"(.	c #493736",
"_.	c #9C5E36",
":.	c #A36032",
"<.	c #6A4B2C",
"[.	c #EAA634",
"}.	c #B97824",
"|.	c #BA8855",
"1.	c #988077",
"2.	c #303748",
"3.	c #493734",
"4.	c #766158",
"5.	c #9C8864",
"6.	c #FEE670",
"7.	c #C7BA75",
"8.	c #85765C",
"9.	c #6B564D",
"0.	c #68534B",
"a.	c #58443F",
"b.	c #523E3B",
"c.	c #A36639",
"d.	c #B36F33",
"e.	c #7D4F32",
"f.	c #BF7C31",
"g.	c #412B1C",
"h.	c #4D5974",
"i.	c #5A6887",
"j.	c #323748",
"k.	c #52423C",
"l.	c #6F5B4E",
"m.	c #897D58",
"n.	c #FFFF98",
"o.	c #FFFF91",
"p.	c #B4AE68",
"q.	c #6A554D",
"r.	c #54403C",
"s.	c #59423B",
"t.	c #B17737",
"u.	c #D58D35",
"v.	c #AD6235",
"w.	c #2F2226",
"x.	c #1F1719",
"y.	c #4A5770",
"z.	c #596887",
"A.	c #5A3034",
"B.	c #4C3433",
"C.	c #4D3F43",
"D.	c #A8A054",
"E.	c #FDFD9C",
"F.	c #FFFFFD",
"G.	c #FFFFAA",
"H.	c #B2AC5A",
"I.	c #54403D",
"J.	c #C58435",
"K.	c #A57038",
"L.	c #533C37",
"M.	c #48332F",
"N.	c #402F2E",
"O.	c #352627",
"P.	c #231C21",
"Q.	c #434E65",
"R.	c #2D1F28",
"S.	c #A8632A",
"T.	c #E2CA56",
"U.	c #F1F0B5",
"V.	c #FFFFF3",
"W.	c #FFFFFF",
"X.	c #FFFFAD",
"Y.	c #B1AC5A",
"Z.	c #69554D",
"`.	c #533F3C",
" +	c #C98735",
".+	c #503C3A",
"++	c #4D3A37",
"@+	c #41302F",
"#+	c #382929",
"$+	c #2D2C36",
"%+	c #3E485E",
"&+	c #1E1D26",
"*+	c #88532F",
"=+	c #B6A14B",
"-+	c #D4D39B",
";+	c #FFFFD5",
">+	c #FFFFD4",
",+	c #FEF087",
"'+	c #D2AE49",
")+	c #926143",
"!+	c #594743",
"~+	c #57413A",
"{+	c #AC7437",
"]+	c #A87238",
"^+	c #7F583A",
"/+	c #513D3A",
"(+	c #392A2A",
"_+	c #2F2324",
":+	c #322F3A",
"<+	c #424D64",
"[+	c #1E1E25",
"}+	c #483735",
"|+	c #533F3A",
"1+	c #8C8449",
"2+	c #DFDB65",
"3+	c #F4E263",
"4+	c #CE9944",
"5+	c #C08037",
"6+	c #A86C36",
"7+	c #946537",
"8+	c #996838",
"9+	c #DA9234",
"0+	c #80593A",
"a+	c #3B2C2B",
"b+	c #362728",
"c+	c #372525",
"d+	c #3E272B",
"e+	c #3A4465",
"f+	c #1E1D25",
"g+	c #6E6344",
"h+	c #776D49",
"i+	c #6D6145",
"j+	c #674738",
"k+	c #DA8D34",
"l+	c #6E4D39",
"m+	c #9A6939",
"n+	c #D38D35",
"o+	c #DC9334",
"p+	c #81593A",
"q+	c #49302D",
"r+	c #522D27",
"s+	c #542726",
"t+	c #18151D",
"u+	c #E0E07B",
"v+	c #FFFF8C",
"w+	c #DDDB7B",
"x+	c #694B38",
"y+	c #71503A",
"z+	c #5B433B",
"A+	c #D99134",
"B+	c #814634",
"C+	c #954D33",
"D+	c #18151E",
"E+	c #19161D",
"F+	c #5D583C",
"G+	c #AA7C47",
"H+	c #DB9A43",
"I+	c #CC8635",
"J+	c #6E4E3A",
"K+	c #CA8735",
"L+	c #8E6239",
"M+	c #DA9134",
"N+	c #493738",
"O+	c #433130",
"P+	c #9F5F33",
"Q+	c #935630",
"R+	c #472B28",
"S+	c #2D2224",
"T+	c #211E28",
"U+	c #363F5F",
"V+	c #90552E",
"W+	c #854E33",
"X+	c #775031",
"Y+	c #8B5E31",
"Z+	c #8D6139",
"`+	c #B07738",
" @	c #BC7E37",
".@	c #BB7E38",
"+@	c #986939",
"@@	c #B57A38",
"#@	c #B07138",
"$@	c #A66336",
"%@	c #A56234",
"&@	c #8E5632",
"*@	c #67412F",
"=@	c #3A2A2B",
"-@	c #312325",
";@	c #1C1617",
">@	c #353E5E",
",@	c #2C324B",
"'@	c #915338",
")@	c #7C482E",
"!@	c #3B2C2D",
"~@	c #423130",
"{@	c #4B3936",
"]@	c #453336",
"^@	c #926233",
"/@	c #BE7C33",
"(@	c #CA8234",
"_@	c #A87131",
":@	c #4C3836",
"<@	c #9B6932",
"[@	c #B97334",
"}@	c #B56A35",
"|@	c #985B33",
"1@	c #995B33",
"2@	c #9B5D33",
"3@	c #664130",
"4@	c #3F2E2E",
"5@	c #342425",
"6@	c #42201C",
"7@	c #56617D",
"8@	c #514A60",
"9@	c #3D2D37",
"0@	c #342728",
"a@	c #8A5232",
"b@	c #AF6735",
"c@	c #AB6534",
"d@	c #674130",
"e@	c #4C322E",
"f@	c #5E342A",
"g@	c #532620",
"h@	c #555D78",
"i@	c #2E2426",
"j@	c #40302F",
"k@	c #47322F",
"l@	c #8E5532",
"m@	c #AD6734",
"n@	c #47332F",
"o@	c #9A5C33",
"p@	c #C07136",
"q@	c #B66B35",
"r@	c #49332F",
"s@	c #42302F",
"t@	c #6C3E32",
"u@	c #A35436",
"v@	c #211717",
"w@	c #424C64",
"x@	c #586685",
"y@	c #4A5670",
"z@	c #231A1B",
"A@	c #352727",
"B@	c #3C2A2E",
"C@	c #A26135",
"D@	c #AD6634",
"E@	c #8C5432",
"F@	c #633F30",
"G@	c #553930",
"H@	c #A56233",
"I@	c #BA6B37",
"J@	c #8E4636",
"K@	c #372624",
"L@	c #1D1516",
"M@	c #46506A",
"N@	c #4D5975",
"O@	c #53607E",
"P@	c #566583",
"Q@	c #3E475D",
"R@	c #201618",
"S@	c #4F2722",
"T@	c #6C4230",
"U@	c #634031",
"V@	c #473430",
"W@	c #AC6634",
"X@	c #BE7036",
"Y@	c #B86D35",
"Z@	c #B06835",
"`@	c #A96434",
" #	c #6F4531",
".#	c #854F2D",
"+#	c #673D2A",
"@#	c #532F2A",
"##	c #2F2425",
"$#	c #47526C",
"%#	c #52607D",
"&#	c #576684",
"*#	c #495570",
"=#	c #3C4459",
"-#	c #51475C",
";#	c #3C313D",
">#	c #2C2022",
",#	c #3B2624",
"'#	c #573229",
")#	c #8E5634",
"!#	c #915834",
"~#	c #905733",
"{#	c #8C5231",
"]#	c #874934",
"^#	c #B96937",
"/#	c #74442C",
"(#	c #332526",
"_#	c #312324",
":#	c #2A2024",
"<#	c #3B4358",
"[#	c #4A5671",
"}#	c #586684",
"|#	c #515E7B",
"1#	c #4D5976",
"2#	c #3D465C",
"3#	c #3C3848",
"4#	c #4F2E3B",
"5#	c #2F2127",
"6#	c #2D2126",
"7#	c #2B1F23",
"8#	c #452721",
"9#	c #994D32",
"0#	c #894030",
"a#	c #552C26",
"b#	c #2D2021",
"c#	c #2E272F",
"d#	c #343C4E",
"e#	c #505C79",
"f#	c #4E5B77",
"g#	c #343C5A",
"h#	c #1F1E29",
"i#	c #1D1C25",
"j#	c #23242D",
"k#	c #24242D",
"l#	c #2C252E",
"m#	c #4E2C32",
"n#	c #27242E",
"o#	c #33394B",
"p#	c #4E5A77",
"q#	c #566482",
"r#	c #4F5B77",
"s#	c #343C5B",
"t#	c #586785",
"u#	c #596886",
"v#	c #53617E",
"w#	c #596786",
"x#	c #384162",
"y#	c #576584",
"                                          . . .                   . . .             + @   . # # ",
"                                          . . .                   . . .                   . # # ",
"                                          . . .             $ %   . . .                   . . # ",
"                                          . . .           & * =   . . .                   . . . ",
"                                          . . .         - ; > , ' . . .                   . . . ",
"                                          . . .         ) ! ~ { ] ^ . .                   . . . ",
"                                          . . .     / ( _ : < [ } | . .                   . . . ",
"                                          . . . 1 2 3 4 5 6 7 8   . . .                   . . . ",
"                                          . . 9 0 a b c d e f g                           . . . ",
"                                h i j k k l m n o p q r s t u                             . . . ",
"                              v w x y z z z A B C C C ! D                                 . . . ",
"                            E F G H I J K L M N O P Q R S T U V                           . . . ",
"                          W X Y Z `  ...+.+.@.#.$.%.&.*.=.-.;.>.                          . . . ",
"                        ,.'.).!.~.{.].^./.+.+.(._.:.<.[.}.|.1.                            . . . ",
"                        2.3.4.5.6.7.8.9.0.a.+.b.c.d.e.f.g.h.                              . . . ",
"                      i.j.k.l.m.n.o.p.9.9.q.r.s.t.u.v.w.x.y.z.                            . . . ",
"                    i.A.B.C.D.E.F.G.H.9.9.q.I.J.K.L.M.N.O.P.Q.    . . .                   . . . ",
"                    i.R.S.T.U.V.W.X.Y.Z.0.a.`. +K..+++@+@+#+$+%+  . . .                   . . . ",
"                    i.&+*+=+-+;+>+,+'+)+!+~+{+]+^++./+@+@+(+_+:+<+. . .                   . . . ",
"                    i.[+}+|+1+2+3+4+5+6+7+8+9+0++.+./+@+@+a+b+c+d+e+. .                   . . . ",
"                    i.f+g+h+i+j+k+l++.m+n+n+o+p++.+./+@+@+@+q+r+s+e+. . .             . . . . . ",
". . . . . . . . . . e+t+u+v+w+x+o+y++.+.+.z+A+p++.+./+@+@+@+B+C+D+e+. . . . . . . . . . . . . . ",
". . . . . . . . . . e+E+F+G+H+I+J+K+L++.+.z+M+0++.N+O+@+@+P+Q+R+S+T+U+. . . . . . . . . . . . . ",
". . . . . . . . . . e+D+V+W+X+Y++.Z+`+ @ @.@+@@@#@$@%@%@%@&@*@=@-@;@>@. . . . . . . . . . . . . ",
"          . . . . . . ,@'@)@!@~@{@]@^@/@(@_@:@<@[@}@|@1@2@3@@+4@5@6@7@                . . . . . ",
"            . . . . . . 8@9@0@@+@+@+@+a@b@@+@+@+1@c@d@@+@+@+@+e@f@g@h@                    . . . ",
"            . . . . . .   Q.i@j@@+@+k@l@m@@+@+n@o@p@q@r@s@k@r@t@u@v@w@x@                  . . . ",
"            . . . .       z.y@z@A@B@C@2@n@@+@+D@E@r@F@p@G@H@I@J@K@L@M@N@O@                . . . ",
"            . . .           P@Q@R@S@T@U@@+V@W@X@Y@Z@`@ #c@.#+#@###L@$#N@%#                . . . ",
"            . .             &#*#=#-#;#>#,#'#)#!#!#~#{#]#^#/#(#_#:#<#[#N@%#                . . . ",
". . . . . .                 }#|#1#N@2#j.3#4#5#6#6#7#8#9#0#a#b#c#d#N@N@e#i                 . . . ",
". . . . . .                   z.f#N@N@N@N@g#h#i#j#k#l#m#n#j#j#o#N@N@p#q#                  . . . ",
". . . . .                         r#N@N@N@s#s#s#N@N@N@N@N@N@N@N@N@N@t#                    . . . ",
"# # . .                           u#u#v#N@s#s#s#N@N@N@N@N@N@N@e#u#w#                      . . . ",
"# . .                                 t#q#x#x#x#q#q#q#q#q#q#q#y#                          . . . ",
". . .                                     . . .                                           . . . ",
"                                          . . .                                           . . . ",
"                                          . . .                                           . . . ",
"                                          . . .                                           . . . ",
"                                          . . .                                           . . . ",
"                                          . . .                                           . . . ",
"                                          . . .                                           . . . ",
"                                          . . .                                           . . . ",
"                                          . . .                                           . . . ",
"                                        . . . . .                                       . . . . ",
". . . . . . . . . . . . . . . . . . . . . . . . . . . . . . . . . . . . . . . . . . . . . . # # ",
"# # # # # . . . . . . . . . . . . . . . . . . . . . . . . . . . . . # . . . . . # # # # # # # # ",
"# # # # # # . . . . . . . . . . . . . . . . . . . . . . . . . . . # # # . . . # # # # # # # # # "};
