/* XPM */
static char * enemy_f_xpm[] = {
"48 48 478 2",
"  	c #5A6988",
". 	c #3A4466",
"+ 	c #262B44",
"@ 	c #646C86",
"# 	c #B38C6B",
"$ 	c #8B7B7C",
"% 	c #6B6E85",
"& 	c #8D7B7B",
"* 	c #E8A73C",
"= 	c #AF8A6D",
"- 	c #A98870",
"; 	c #ECA936",
"> 	c #F0AB33",
", 	c #AA886F",
"' 	c #A97F6C",
") 	c #F4B338",
"! 	c #F9C744",
"~ 	c #DEA952",
"{ 	c #AA6D65",
"] 	c #937476",
"^ 	c #D7A356",
"/ 	c #FACF4A",
"( 	c #FDDD67",
"_ 	c #DCB973",
": 	c #6F7084",
"< 	c #F5C547",
"[ 	c #FFEF91",
"} 	c #E7DFA4",
"| 	c #5C6A88",
"1 	c #5B6988",
"2 	c #6D6D84",
"3 	c #EBAF40",
"4 	c #FEDB60",
"5 	c #F8D767",
"6 	c #D89E4B",
"7 	c #826F7C",
"8 	c #887A7E",
"9 	c #DCA14B",
"0 	c #DDA14A",
"a 	c #B08B6C",
"b 	c #636986",
"c 	c #AA7868",
"d 	c #DFA951",
"e 	c #F6B93C",
"f 	c #EDAA33",
"g 	c #8D767A",
"h 	c #4A5670",
"i 	c #444E66",
"j 	c #2C334C",
"k 	c #2B324C",
"l 	c #3B344D",
"m 	c #785E5B",
"n 	c #B48128",
"o 	c #E1A231",
"p 	c #D79E50",
"q 	c #A9886F",
"r 	c #636C86",
"s 	c #BF9263",
"t 	c #ECA937",
"u 	c #E1A242",
"v 	c #9A8177",
"w 	c #596684",
"x 	c #586481",
"y 	c #566481",
"z 	c #2F3343",
"A 	c #45341D",
"B 	c #5C451C",
"C 	c #5A441D",
"D 	c #643C27",
"E 	c #4F2329",
"F 	c #211719",
"G 	c #C78E2F",
"H 	c #E3A335",
"I 	c #DC9F3D",
"J 	c #68697D",
"K 	c #6A6C82",
"L 	c #707084",
"M 	c #C29362",
"N 	c #D99F4E",
"O 	c #686D85",
"P 	c #D39C54",
"Q 	c #BC9166",
"R 	c #5B4F63",
"S 	c #4B2427",
"T 	c #1D1B24",
"U 	c #392D40",
"V 	c #AF8641",
"W 	c #EAB239",
"X 	c #EAB23A",
"Y 	c #AF8645",
"Z 	c #533E47",
"` 	c #4E3A37",
" .	c #614839",
"..	c #62493B",
"+.	c #63493A",
"@.	c #272126",
"#.	c #B58231",
"$.	c #D09B57",
"%.	c #676D86",
"&.	c #BE9264",
"*.	c #B68E69",
"=.	c #988077",
"-.	c #D69E51",
";.	c #C19462",
">.	c #586785",
",.	c #3F4960",
"'.	c #4F404D",
").	c #85563E",
"!.	c #BA812B",
"~.	c #D3B45D",
"{.	c #D3B265",
"].	c #BA935B",
"^.	c #AE864E",
"/.	c #C09545",
"(.	c #B78E46",
"_.	c #614C4A",
":.	c #54403F",
"<.	c #533F3B",
"[.	c #513E3A",
"}.	c #2E2227",
"|.	c #BC872E",
"1.	c #E5A541",
"2.	c #C59560",
"3.	c #7E7580",
"4.	c #696E85",
"5.	c #CD9959",
"6.	c #9A8176",
"7.	c #6D7385",
"8.	c #9B8F7C",
"9.	c #E0A84D",
"0.	c #BD8B55",
"a.	c #4D5873",
"b.	c #3E3434",
"c.	c #514143",
"d.	c #A17D50",
"e.	c #F8CB54",
"f.	c #F1D268",
"g.	c #C6AC68",
"h.	c #715D5E",
"i.	c #6B5650",
"j.	c #B28845",
"k.	c #CD9D45",
"l.	c #A17D4B",
"m.	c #69503F",
"n.	c #523E3B",
"o.	c #433236",
"p.	c #BB8235",
"q.	c #E5A032",
"r.	c #D0952D",
"s.	c #755F5C",
"t.	c #978C7D",
"u.	c #FDD34C",
"v.	c #F7BF3E",
"w.	c #B47322",
"x.	c #241C21",
"y.	c #66524B",
"z.	c #6C564D",
"A.	c #A28A57",
"B.	c #FEDE6D",
"C.	c #B49D69",
"D.	c #75605A",
"E.	c #6B564D",
"F.	c #97754A",
"G.	c #EEB53F",
"H.	c #8D6B3B",
"I.	c #503D3B",
"J.	c #9F6039",
"K.	c #AB6430",
"L.	c #1B1416",
"M.	c #333C5A",
"N.	c #94837B",
"O.	c #F7BE3F",
"P.	c #A8802B",
"Q.	c #644022",
"R.	c #4D3C3B",
"S.	c #624F4C",
"T.	c #B68C47",
"U.	c #CEA048",
"V.	c #9C8456",
"W.	c #7C6753",
"X.	c #6B564F",
"Y.	c #936D49",
"Z.	c #E19C35",
"`.	c #855F3A",
" +	c #61473B",
".+	c #C38338",
"++	c #9B6534",
"@+	c #502D2C",
"#+	c #1C1516",
"$+	c #7A7080",
"%+	c #BA8360",
"&+	c #634532",
"*+	c #342627",
"=+	c #56423E",
"-+	c #5B4646",
";+	c #C59642",
">+	c #D8A543",
",+	c #65514A",
"'+	c #8E6541",
")+	c #DC9334",
"!+	c #A96B37",
"~+	c #925738",
"{+	c #955B38",
"]+	c #AF7432",
"^+	c #815730",
"/+	c #32262B",
"(+	c #596887",
"_+	c #576584",
":+	c #313545",
"<+	c #40312E",
"[+	c #58443D",
"}+	c #695D44",
"|+	c #C9A343",
"1+	c #DAAD46",
"2+	c #69544B",
"3+	c #69554C",
"4+	c #6A554C",
"5+	c #5C4843",
"6+	c #835A37",
"7+	c #E4A537",
"8+	c #E6A93B",
"9+	c #DDA23F",
"0+	c #6B4A31",
"a+	c #45322F",
"b+	c #432E2C",
"c+	c #3B221C",
"d+	c #373B57",
"e+	c #394364",
"f+	c #343D5B",
"g+	c #181921",
"h+	c #483735",
"i+	c #523E3A",
"j+	c #6D5F46",
"k+	c #EFEF81",
"l+	c #FBF97F",
"m+	c #E3DE6D",
"n+	c #55413D",
"o+	c #54403C",
"p+	c #764839",
"q+	c #DB8D34",
"r+	c #FBEA6B",
"s+	c #FEFB7E",
"t+	c #FDF481",
"u+	c #CD8B42",
"v+	c #664030",
"w+	c #613931",
"x+	c #A45436",
"y+	c #59312A",
"z+	c #2A3049",
"A+	c #3E3D5B",
"B+	c #4A231F",
"C+	c #513B37",
"D+	c #6C6041",
"E+	c #F8F77F",
"F+	c #FFFFC6",
"G+	c #F4F4CC",
"H+	c #CDCA5E",
"I+	c #7D743B",
"J+	c #7E4039",
"K+	c #BF9136",
"L+	c #F1D95C",
"M+	c #FEF9CC",
"N+	c #FFFFC7",
"O+	c #FAF87E",
"P+	c #A0763B",
"Q+	c #8A5332",
"R+	c #955733",
"S+	c #78402F",
"T+	c #43261F",
"U+	c #282D44",
"V+	c #403C5A",
"W+	c #52251F",
"X+	c #724937",
"Y+	c #6A483B",
"Z+	c #6C603F",
"`+	c #F8F779",
" @	c #FFFFE1",
".@	c #FFFFF5",
"+@	c #FFFFB9",
"@@	c #B8B573",
"#@	c #7C7245",
"$@	c #56403A",
"%@	c #7A5239",
"&@	c #C49742",
"*@	c #FBD871",
"=@	c #FFFFBA",
"-@	c #F7F778",
";@	c #605833",
">@	c #9E5E33",
",@	c #B36A35",
"'@	c #5E352B",
")@	c #311C1D",
"!@	c #282E44",
"~@	c #1D1516",
"{@	c #AD6630",
"]@	c #9F6038",
"^@	c #6C6040",
"/@	c #F8F77A",
"(@	c #FFFFE0",
"_@	c #FFFFFF",
":@	c #FFFFBB",
"<@	c #CDCB60",
"[@	c #604237",
"}@	c #CD8133",
"|@	c #F9E25C",
"1@	c #615833",
"2@	c #9D5D33",
"3@	c #C07037",
"4@	c #A95738",
"5@	c #522624",
"6@	c #3D465C",
"7@	c #663F2C",
"8@	c #945A35",
"9@	c #AD6E39",
"0@	c #948A49",
"a@	c #DDDDA1",
"b@	c #FFFFC1",
"c@	c #FFFFBF",
"d@	c #F6D781",
"e@	c #DEAC44",
"f@	c #BD7B35",
"g@	c #875830",
"h@	c #91803E",
"i@	c #B9B87F",
"j@	c #8B8749",
"k@	c #4B3D30",
"l@	c #8F5034",
"m@	c #A55A35",
"n@	c #64382C",
"o@	c #552823",
"p@	c #544A5D",
"q@	c #2C2126",
"r@	c #8C5532",
"s@	c #BC6F35",
"t@	c #53372F",
"u@	c #A6A34D",
"v@	c #D2D15E",
"w@	c #D0CF5D",
"x@	c #B2883E",
"y@	c #AC6B31",
"z@	c #AF7531",
"A@	c #734930",
"B@	c #543830",
"C@	c #77713D",
"D@	c #41302F",
"E@	c #894934",
"F@	c #974F35",
"G@	c #332526",
"H@	c #462320",
"I@	c #514A5D",
"J@	c #505E7A",
"K@	c #201C23",
"L@	c #251D21",
"M@	c #88512F",
"N@	c #BC6F36",
"O@	c #533830",
"P@	c #4B3E33",
"Q@	c #685439",
"R@	c #CA873F",
"S@	c #936237",
"T@	c #42302F",
"U@	c #49322F",
"V@	c #944E35",
"W@	c #322425",
"X@	c #201C20",
"Y@	c #3E495F",
"Z@	c #48536D",
"`@	c #24242F",
" #	c #7A4229",
".#	c #AD5E37",
"+#	c #523730",
"@#	c #ABA960",
"##	c #F5F486",
"$#	c #FDF787",
"%#	c #B2AB60",
"&#	c #4C3330",
"*#	c #9D5237",
"=#	c #7E4433",
"-#	c #422825",
";#	c #211718",
">#	c #3B4358",
",#	c #53617F",
"'#	c #586786",
")#	c #4D5975",
"!#	c #3F485F",
"~#	c #623F4A",
"{#	c #81392D",
"]#	c #452C2B",
"^#	c #3E2E2E",
"/#	c #86814D",
"(#	c #BEBC6A",
"_#	c #BDBB6A",
":#	c #A88D4F",
"<#	c #975631",
"[#	c #985B33",
"}#	c #8A4D34",
"|#	c #854834",
"1#	c #814533",
"2#	c #583026",
"3#	c #262630",
"4#	c #3B4359",
"5#	c #47516B",
"6#	c #546280",
"7#	c #4E4D64",
"8#	c #4D3038",
"9#	c #3D2625",
"0#	c #432B2A",
"a#	c #452F2D",
"b#	c #402F2F",
"c#	c #3D2D2D",
"d#	c #3B2B2C",
"e#	c #38292B",
"f#	c #9A5630",
"g#	c #BE7137",
"h#	c #AE5D37",
"i#	c #A35436",
"j#	c #954D33",
"k#	c #3B2624",
"l#	c #24242D",
"m#	c #353C4E",
"n#	c #53607D",
"o#	c #4E5671",
"p#	c #5A2D2D",
"q#	c #5B2921",
"r#	c #542823",
"s#	c #332527",
"t#	c #332326",
"u#	c #8A4932",
"v#	c #9B5135",
"w#	c #392927",
"x#	c #995035",
"y#	c #87462E",
"z#	c #1F1616",
"A#	c #1E1516",
"B#	c #3D455A",
"C#	c #52607D",
"D#	c #566483",
"E#	c #4F5C78",
"F#	c #4D5874",
"G#	c #514F66",
"H#	c #514E64",
"I#	c #524559",
"J#	c #512722",
"K#	c #331C1B",
"L#	c #29191A",
"M#	c #4E2621",
"N#	c #582823",
"O#	c #502421",
"P#	c #5B2F21",
"Q#	c #583E46",
"R#	c #424C64",
"S#	c #424B63",
"T#	c #49546E",
"U#	c #54617F",
"V#	c #54627F",
"W#	c #505C79",
"X#	c #4F546E",
"Y#	c #563E4B",
"Z#	c #3D3949",
"`#	c #323849",
" $	c #2A2839",
".$	c #4E2F3C",
"+$	c #3A2B3A",
"@$	c #313748",
"#$	c #3F495F",
"$$	c #4E5A77",
"%$	c #525F7C",
"&$	c #556381",
"*$	c #343C5B",
"=$	c #515E7A",
"-$	c #515F7C",
";$	c #4E5A76",
">$	c #576684",
",$	c #596886",
"'$	c #566583",
")$	c #374061",
"!$	c #374060",
"~$	c #5A6987",
"                                          . . .                   . . .                   . + + ",
"                                          . . .                   . . .                   . + + ",
"                                          . . .                   . . .                   . . + ",
"                                          . . .                   . . .                   . . . ",
"                                          . . .                   . . .                   . . . ",
"              @ # $                       . . .                   . . .                   . . . ",
"            % & * =                       . . .                   . . .                   . . . ",
"            - ; > ,                       . . .                   . . .                   . . . ",
"            ' ) ! ~ {                     . . .                                           . . . ",
"            ] ^ / ( _                     . . .                                           . . . ",
"              : < [ } | 1                 . . . 1 | | 1                                   . . . ",
"              2 3 4 5 6 7                 . . . 8 9 0 a                                   . . . ",
"              b c d e f g             h i j k l m n o p q r                               . . . ",
"                  s t u v %     w x y z A B C D E F G H I J K L                           . . . ",
"                  M N O P Q     R S T U V W X Y Z `  ...+.@.#.$.                          . . . ",
"              %.&.*.=.  -.;.>.,.'.).!.~.{.].^./.(._.:.<.[.}.|.1.2.3.                      . . . ",
"              4.5.6.7.8.9.0.a.b.c.d.e.f.g.h.i.j.k.l.m.<.n.o.p.q.r.s.. .                   . . . ",
"                    t.u.v.w.x.y.z.A.B.C.D.E.E.E.F.G.H.<.<.I.J.K.L.M.. .                   . . . ",
"                    N.O.P.Q.R.S.T.U.V.W.X.E.E.E.Y.Z.`.<. +.+++@+#+M.. .                   . . . ",
"                    $+%+&+*+=+-+;+>+E.E.E.E.E.,+'+)+!+~+{+]+^+/+#+M.. .                   . . . ",
"                    (+_+:+<+[+}+|+1+2+3+3+3+4+5+6+)+7+8+9+0+a+b+c+d+e+. .             . . . . . ",
". . . . . . . . . . f+g+h+i+j+k+l+m+n+n+n+n+n+o+p+q+r+s+t+u+v+w+x+y+z+. . . . . . . . . . . . . ",
". . . . . . . . . . A+B+C+<.D+E+F+G+H+I+<.<.<.J+K+L+M+N+O+P+Q+R+S+T+U+. . . . . . . . . . . . . ",
". . . . . . . . . . V+W+X+Y+Z+`+ @.@+@@@#@$@%@&@*@=@.@ @-@;@>@,@'@)@!@. . . . . . . . . . . . . ",
"          . . . . . M.~@{@]@^@/@(@_@_@:@<@[@}@|@:@_@_@(@`+1@2@3@4@5@6@                . . . . . ",
"            . . . . M.#+7@8@9@0@a@b@c@d@e@f@g@h@i@c@b@a@j@k@l@m@n@o@p@                    . . . ",
"            . . . . M.#+q@r@s@t@u@v@w@x@y@z@A@B@C@w@v@u@D@D@E@F@G@H@I@                    . . . ",
"            . . . . J@K@L@M@N@O@D@D@D@D@P@Q@R@S@D@D@D@D@T@U@E@V@W@X@Y@                    . . . ",
"            . . .   >.Z@`@ #.#+#D@D@D@D@@###$#%#D@D@D@D@&#*#=#-#;#>#,#                    . . . ",
"            . .     '#)#!#~#{#]#^#D@D@D@/#(#_#:#<#[#}#|#|#1#2#3#4#5#6#                    . . . ",
". . . . . .         _+)#)#7#8#9#0#a#^#b#c#d#e#f#g#,@h#i#j#k#l#m#)#)#n#                    . . . ",
". . . . . .         _+)#)#)#o#p#q#r#s#*+*+*+t#u#v#w#x#y#z#A#B#)#)#)#C#                    . . . ",
". . . . .           (+D#E#)#F#G#H#I#J#K#F L#M#N#O#;#P#Q#R#S#T#)#)#U#>.                    . . . ",
"+ + . .                 V#W#)#)#)#X#Y#Z#`# $.$+$`#`#@$#$)#)#)#$$%$>.                      . . . ",
"+ . .                     &$)#)#)#)#)#)#)#*$*$*$)#)#)#)#)#)#)#=$                          . . . ",
". . .                     (+>.'#-$)#)#)#)#*$*$*$)#)#)#)#;$>$'#,$                          . . . ",
"                                '$U#U#U#U#)$)$!$U#U#U#U#6#~$                              . . . ",
"                                          . . .                                           . . . ",
"                                          . . .                                           . . . ",
"                                          . . .                                           . . . ",
"                                          . . .                                           . . . ",
"                                          . . .                                           . . . ",
"                                          . . .                                           . . . ",
"                                          . . .                                           . . . ",
"                                        . . . . .                                       . . . . ",
". . . . . . . . . . . . . . . . . . . . . . . . . . . . . . . . . . . . . . . . . . . . . . + + ",
"+ + + + + . . . . . . . . . . . . . . . . . . . . . . . . . . . . . + . . . . . + + + + + + + + ",
"+ + + + + + . . . . . . . . . . . . . . . . . . . . . . . . . . . + + + . . . + + + + + + + + + "};
