/* XPM */
static char * enemy_r_xpm[] = {
"48 48 436 2",
"  	c #767282",
". 	c #E3A443",
"+ 	c #86787E",
"@ 	c #636C86",
"# 	c #5A6988",
"$ 	c #3A4466",
"% 	c #262B44",
"& 	c #E5A640",
"* 	c #9B8176",
"= 	c #747283",
"- 	c #A08374",
"; 	c #8C7B7C",
"> 	c #C19362",
", 	c #B88F68",
"' 	c #7E7580",
") 	c #626B87",
"! 	c #5C6A88",
"~ 	c #B98F67",
"{ 	c #D29B55",
"] 	c #606987",
"^ 	c #5E6A87",
"/ 	c #907C7A",
"( 	c #B78E68",
"_ 	c #ECA933",
": 	c #D89B42",
"< 	c #5B6988",
"[ 	c #88797D",
"} 	c #C4945E",
"| 	c #E1A342",
"1 	c #F2B73B",
"2 	c #F9CD4A",
"3 	c #D18B47",
"4 	c #6E6882",
"5 	c #CF9451",
"6 	c #F4BD3E",
"7 	c #F8C846",
"8 	c #FED757",
"9 	c #FCE589",
"0 	c #C38D67",
"a 	c #B87E61",
"b 	c #8D6458",
"c 	c #AD8269",
"d 	c #E8BE54",
"e 	c #FBCF49",
"f 	c #FBD256",
"g 	c #FFF096",
"h 	c #FADC7C",
"i 	c #F9CE5A",
"j 	c #D7A64C",
"k 	c #83635C",
"l 	c #AB846D",
"m 	c #DE9A3F",
"n 	c #E09E3D",
"o 	c #FCCA3F",
"p 	c #FEF09D",
"q 	c #FEE578",
"r 	c #FAC240",
"s 	c #D5923B",
"t 	c #3C4161",
"u 	c #5A6481",
"v 	c #586481",
"w 	c #556381",
"x 	c #556481",
"y 	c #717183",
"z 	c #EDAA33",
"A 	c #D6972F",
"B 	c #532220",
"C 	c #5B2821",
"D 	c #4B221D",
"E 	c #161416",
"F 	c #1C1516",
"G 	c #576583",
"H 	c #CA985B",
"I 	c #E4AF49",
"J 	c #EAC45B",
"K 	c #746D81",
"L 	c #593633",
"M 	c #5E3728",
"N 	c #AF7632",
"O 	c #CE8D32",
"P 	c #442E2D",
"Q 	c #533D39",
"R 	c #543E39",
"S 	c #543B37",
"T 	c #9A7436",
"U 	c #D8A53B",
"V 	c #4E3C42",
"W 	c #232432",
"X 	c #4F5C78",
"Y 	c #8F7C7B",
"Z 	c #CE9A58",
"` 	c #F2B438",
" .	c #F2BF43",
"..	c #CC995B",
"+.	c #57412B",
"@.	c #87502D",
"#.	c #9A5E33",
"$.	c #7E5233",
"%.	c #4A3A3A",
"&.	c #533F3B",
"*.	c #5C4A44",
"=.	c #83674A",
"-.	c #B38E4E",
";.	c #DEC168",
">.	c #715C44",
",.	c #333545",
"'.	c #4A5771",
").	c #988077",
"!.	c #BA8855",
"~.	c #B97824",
"{.	c #EAA634",
"].	c #6A4B2C",
"^.	c #A36032",
"/.	c #9C5E36",
"(.	c #493736",
"_.	c #5C4842",
":.	c #665149",
"<.	c #6B564F",
"[.	c #917B5B",
"}.	c #FEDE6D",
"|.	c #9C8664",
"1.	c #5E4D47",
"2.	c #434150",
"3.	c #4C5873",
"4.	c #4D5974",
"5.	c #412B1C",
"6.	c #BF7C31",
"7.	c #7D4F32",
"8.	c #B36F33",
"9.	c #A36639",
"0.	c #523E3B",
"a.	c #58443F",
"b.	c #68534B",
"c.	c #6B564D",
"d.	c #85765C",
"e.	c #C7BA75",
"f.	c #FEE670",
"g.	c #9C8864",
"h.	c #766158",
"i.	c #493734",
"j.	c #202435",
"k.	c #596887",
"l.	c #4A5770",
"m.	c #1F1719",
"n.	c #2F2226",
"o.	c #AD6235",
"p.	c #D58D35",
"q.	c #B17737",
"r.	c #59423B",
"s.	c #54403C",
"t.	c #6A554D",
"u.	c #B4AE68",
"v.	c #FFFF91",
"w.	c #FFFF98",
"x.	c #897D58",
"y.	c #6F5B4E",
"z.	c #52423C",
"A.	c #232436",
"B.	c #3B4365",
"C.	c #434E65",
"D.	c #231C21",
"E.	c #352627",
"F.	c #402F2E",
"G.	c #48332F",
"H.	c #533C37",
"I.	c #A57038",
"J.	c #C58435",
"K.	c #54403D",
"L.	c #B2AC5A",
"M.	c #FFFFAA",
"N.	c #FFFFFD",
"O.	c #FDFD9C",
"P.	c #A8A054",
"Q.	c #4D3F43",
"R.	c #4C3333",
"S.	c #58292B",
"T.	c #3B4465",
"U.	c #3E485E",
"V.	c #2D2C36",
"W.	c #382929",
"X.	c #41302F",
"Y.	c #4D3A37",
"Z.	c #503C3A",
"`.	c #C98735",
" +	c #533F3C",
".+	c #69554D",
"++	c #B1AC5A",
"@+	c #FFFFAD",
"#+	c #FFFFFF",
"$+	c #FFFFF3",
"%+	c #F1F0B5",
"&+	c #E2CA56",
"*+	c #A8632A",
"=+	c #2A1821",
"-+	c #3A4465",
";+	c #424D64",
">+	c #322F3A",
",+	c #2F2324",
"'+	c #392A2A",
")+	c #513D3A",
"!+	c #7F583A",
"~+	c #A87238",
"{+	c #AC7437",
"]+	c #57413A",
"^+	c #594743",
"/+	c #926143",
"(+	c #D2AE49",
"_+	c #FEF087",
":+	c #FFFFD4",
"<+	c #FFFFD5",
"[+	c #D4D39B",
"}+	c #B6A14B",
"|+	c #88532F",
"1+	c #18151E",
"2+	c #3C2124",
"3+	c #372525",
"4+	c #362728",
"5+	c #3B2C2B",
"6+	c #80593A",
"7+	c #DA9234",
"8+	c #996838",
"9+	c #946537",
"0+	c #A86C36",
"a+	c #C08037",
"b+	c #CE9944",
"c+	c #F4E263",
"d+	c #DFDB65",
"e+	c #8C8449",
"f+	c #533F3A",
"g+	c #483735",
"h+	c #18161D",
"i+	c #542726",
"j+	c #522D27",
"k+	c #49302D",
"l+	c #81593A",
"m+	c #DC9334",
"n+	c #D38D35",
"o+	c #9A6939",
"p+	c #6E4D39",
"q+	c #DA8D34",
"r+	c #674738",
"s+	c #6D6145",
"t+	c #776D49",
"u+	c #6E6344",
"v+	c #18151D",
"w+	c #954D33",
"x+	c #814634",
"y+	c #D99134",
"z+	c #5B433B",
"A+	c #71503A",
"B+	c #694B38",
"C+	c #DDDB7B",
"D+	c #FFFF8C",
"E+	c #E0E07B",
"F+	c #363F5F",
"G+	c #211E28",
"H+	c #2D2224",
"I+	c #472B28",
"J+	c #935630",
"K+	c #9F5F33",
"L+	c #433130",
"M+	c #493738",
"N+	c #DA9134",
"O+	c #8E6239",
"P+	c #CA8735",
"Q+	c #6E4E3A",
"R+	c #CC8635",
"S+	c #DB9A43",
"T+	c #AA7C47",
"U+	c #5D583C",
"V+	c #1E1E25",
"W+	c #5A6887",
"X+	c #353E5E",
"Y+	c #1C1617",
"Z+	c #312325",
"`+	c #3A2A2B",
" @	c #67412F",
".@	c #8E5632",
"+@	c #A56234",
"@@	c #A66336",
"#@	c #B07138",
"$@	c #B57A38",
"%@	c #986939",
"&@	c #BB7E38",
"*@	c #BC7E37",
"=@	c #B07738",
"-@	c #8D6139",
";@	c #8B5E31",
">@	c #775031",
",@	c #854E33",
"'@	c #90552E",
")@	c #1D1D26",
"!@	c #3B3F5E",
"~@	c #42201C",
"{@	c #342425",
"]@	c #3F2E2E",
"^@	c #664130",
"/@	c #9B5D33",
"(@	c #995B33",
"_@	c #985B33",
":@	c #B56A35",
"<@	c #B97334",
"[@	c #9B6932",
"}@	c #4C3836",
"|@	c #A87131",
"1@	c #CA8234",
"2@	c #BE7C33",
"3@	c #926233",
"4@	c #453336",
"5@	c #4B3936",
"6@	c #423130",
"7@	c #3B2C2D",
"8@	c #7C482E",
"9@	c #925841",
"0@	c #434D65",
"a@	c #555D78",
"b@	c #532620",
"c@	c #5E342A",
"d@	c #4C322E",
"e@	c #674130",
"f@	c #AB6534",
"g@	c #AF6735",
"h@	c #8A5232",
"i@	c #342728",
"j@	c #3D2D37",
"k@	c #514A60",
"l@	c #586685",
"m@	c #424C64",
"n@	c #211717",
"o@	c #A35436",
"p@	c #6C3E32",
"q@	c #49332F",
"r@	c #47322F",
"s@	c #42302F",
"t@	c #B66B35",
"u@	c #C07136",
"v@	c #9A5C33",
"w@	c #47332F",
"x@	c #AD6734",
"y@	c #8E5532",
"z@	c #40302F",
"A@	c #2E2426",
"B@	c #53607E",
"C@	c #4D5975",
"D@	c #46506A",
"E@	c #1D1516",
"F@	c #372624",
"G@	c #8E4636",
"H@	c #BA6B37",
"I@	c #A56233",
"J@	c #553930",
"K@	c #633F30",
"L@	c #8C5432",
"M@	c #AD6634",
"N@	c #A26135",
"O@	c #3C2A2E",
"P@	c #352727",
"Q@	c #231A1B",
"R@	c #4A5670",
"S@	c #52607D",
"T@	c #47526C",
"U@	c #2F2425",
"V@	c #532F2A",
"W@	c #673D2A",
"X@	c #854F2D",
"Y@	c #6F4531",
"Z@	c #A96434",
"`@	c #B06835",
" #	c #B86D35",
".#	c #BE7036",
"+#	c #AC6634",
"@#	c #473430",
"##	c #634031",
"$#	c #6C4230",
"%#	c #4F2722",
"&#	c #201618",
"*#	c #3E475D",
"=#	c #566583",
"-#	c #4A5671",
";#	c #3B4358",
">#	c #2A2024",
",#	c #312324",
"'#	c #332526",
")#	c #74442C",
"!#	c #B96937",
"~#	c #874934",
"{#	c #8C5231",
"]#	c #905733",
"^#	c #915834",
"/#	c #8E5634",
"(#	c #573229",
"_#	c #3B2624",
":#	c #2C2022",
"<#	c #3C313D",
"[#	c #51475C",
"}#	c #3C4459",
"|#	c #495570",
"1#	c #576684",
"2#	c #505C79",
"3#	c #343C4E",
"4#	c #2E272F",
"5#	c #2D2021",
"6#	c #552C26",
"7#	c #894030",
"8#	c #994D32",
"9#	c #452721",
"0#	c #2B1F23",
"a#	c #2D2126",
"b#	c #2F2127",
"c#	c #553C49",
"d#	c #3C3848",
"e#	c #323748",
"f#	c #3D465C",
"g#	c #4D5976",
"h#	c #515E7B",
"i#	c #586684",
"j#	c #566482",
"k#	c #4E5A77",
"l#	c #33394B",
"m#	c #23242D",
"n#	c #27242E",
"o#	c #4E2C32",
"p#	c #2C252E",
"q#	c #24242D",
"r#	c #1D1C25",
"s#	c #1F1E29",
"t#	c #4C5874",
"u#	c #4E5B77",
"v#	c #586785",
"w#	c #343C5B",
"x#	c #4F5B77",
"y#	c #596786",
"z#	c #596886",
"A#	c #53617E",
"B#	c #576584",
"C#	c #384162",
"  . + @ # # # # # # # # # # # # # # # # # $ $ $ # # # # # # # # # $ $ $ # # # # # # # # # $ % % ",
"# # & * # # # # # # # # # # # # # # # # # $ $ $ # # # # # # # # # $ $ $ # # # # # # # # # $ % % ",
"# # = @ # # # # # # # # # # # # # # # # # $ $ $ # # # # # # # # # $ $ $ # # # # # # # # # $ $ % ",
"# # # # # # # # # # # # # # # # # # # # # $ $ $ # # # # # # # # # $ $ $ # # # # # # # # # $ $ $ ",
"# # # # # # # # # # # # # # - ; # # # # # $ $ $ # # # # # # # # # $ $ $ # # # # # # # # # $ $ $ ",
"# # # # # # # # # # # # # # > , ' # # # # $ $ $ # # # # # # # # # $ $ $ # # # # # # # # # $ $ $ ",
"# # # # # # # # # # # # # ) ! ~ { ] # # # $ $ $ # # # # # # # # # $ $ $ # # # # # # # # # $ $ $ ",
"# # # # # # # # # # # # ^ & / ( _ : # # # $ $ $ # # # # # # # # # $ $ $ # # # # # # # # # $ $ $ ",
"# # # # # # # # # # # # < [ } | 1 2 3 4 # $ $ $ # # # # # # # # # # # # # # # # # # # # # $ $ $ ",
"# # # # # # # # # # # # # # 5 6 7 8 9 0 a b $ $ # # # # # # # # # # # # # # # # # # # # # $ $ $ ",
"# # # # # # # # # # # # # # c d e f g h i j k $ # # # # # # # # # # # # # # # # # # # # # $ $ $ ",
"# # # # # # # # # # # # # # # l m n o p q r s t u u u v w x # # # # # # # # # # # # # # # $ $ $ ",
"# # # # # # # # # # # # # # # # # y _ z z z A B C C C D E F G # # # # # # # # # # # # # # $ $ $ ",
"# # # # # # # # # # # # # # H . I J K L M N O P Q R S T U V W X # # # # # # # # # # # # # $ $ $ ",
"# # # # # # # # # # # # # # Y Z `  ...+.@.#.$.%.&.&.*.=.-.;.>.,.'.# # # # # # # # # # # # $ $ $ ",
"# # # # # # # # # # # # # # # ).!.~.{.].^./.(.&.&._.:.<.[.}.|.1.2.3.# # # # # # # # # # # $ $ $ ",
"# # # # # # # # # # # # # # # # 4.5.6.7.8.9.0.&.a.b.c.d.e.f.g.h.i.j.$ $ # # # # # # # # # $ $ $ ",
"# # # # # # # # # # # # # # # k.l.m.n.o.p.q.r.s.t.c.c.u.v.w.x.y.z.A.B.$ # # # # # # # # # $ $ $ ",
"# # # # # # # # # # # # # # # C.D.E.F.G.H.I.J.K.t.c.c.L.M.N.O.P.Q.R.S.T.# # # # # # # # # $ $ $ ",
"# # # # # # # # # # # # # # U.V.W.X.X.Y.Z.I.`. +a.b..+++@+#+$+%+&+*+=+-+# # # # # # # # # $ $ $ ",
"# # # # # # # # # # # # # ;+>+,+'+X.X.)+&.!+~+{+]+^+/+(+_+:+<+[+}+|+1+-+$ # # # # # # $ $ $ $ $ ",
"$ $ $ $ $ $ $ $ $ $ $ $ -+2+3+4+5+X.X.)+&.&.6+7+8+9+0+a+b+c+d+e+f+g+h+-+$ $ $ $ $ $ $ $ $ $ $ $ ",
"$ $ $ $ $ $ $ $ $ $ $ $ -+i+j+k+X.X.X.)+&.&.l+m+n+n+o+&.p+q+r+s+t+u+v+-+$ $ $ $ $ $ $ $ $ $ $ $ ",
"$ $ $ $ $ $ $ $ $ $ $ $ -+1+w+x+X.X.X.)+&.&.l+y+z+&.&.&.A+m+B+C+D+E+v+-+$ $ $ $ $ $ $ $ $ $ $ $ ",
"# # # # # $ $ $ $ $ $ F+G+H+I+J+K+X.X.L+M+&.6+N+z+&.&.O+P+Q+R+S+T+U+V+W+# # # # # # # $ $ $ $ $ ",
"# # # # # # $ $ $ $ $ X+Y+Z+`+ @.@+@+@+@@@#@$@%@&@*@*@=@-@&.;@>@,@'@)@W+# # # # # # # # # $ $ $ ",
"# # # # # # $ $ $ $ $ !@~@{@]@X.^@/@(@_@:@<@[@}@|@1@2@3@4@5@6@7@8@9@0@# # # # # # # # # # $ $ $ ",
"# # # # # # $ $ $ $ # a@b@c@d@X.X.X.X.e@f@(@X.X.X.g@h@X.X.X.X.i@j@k@# # # # # # # # # # # $ $ $ ",
"# # # # # # $ $ $ # l@m@n@o@p@q@r@s@q@t@u@v@w@X.X.x@y@r@X.X.z@A@C.# # # # # # # # # # # # $ $ $ ",
"# # # # # # $ $ # B@C@D@E@F@G@H@I@J@u@K@q@L@M@X.X.w@/@N@O@P@Q@R@k.# # # # # # # # # # # # $ $ $ ",
"$ $ $ $ $ $ # # # S@C@T@E@U@V@W@X@f@Y@Z@`@ #.#+#@#X.##$#%#&#*#=## # # # # # # # # # # # # $ $ $ ",
"$ $ $ $ $ $ # # # S@C@-#;#>#,#'#)#!#~#{#]#^#^#/#(#_#:#<#[#}#|#1## # # # # # # # # # # # # $ $ $ ",
"$ $ $ $ $ # # # # w 2#C@C@3#4#5#6#7#8#9#0#a#a#b#c#d#e#f#C@g#h#i## # # # # # # # # # # # # $ $ $ ",
"% % $ $ # # # # # # j#k#C@C@l#m#m#n#o#p#q#r#r#s#t#C@C@C@C@u#k.# # # # # # # # # # # # # # $ $ $ ",
"% $ $ # # # # # # # # v#C@C@C@C@C@C@C@C@C@w#w#w#C@C@C@C@x## # # # # # # # # # # # # # # # $ $ $ ",
"$ $ $ # # # # # # # # # y#z#2#C@C@C@C@C@C@w#w#w#C@C@A#z#z## # # # # # # # # # # # # # # # $ $ $ ",
"# # # # # # # # # # # # # # B#j#j#j#j#j#j#C#C#C#j#j#v## # # # # # # # # # # # # # # # # # $ $ $ ",
"# # # # # # # # # # # # # # # # # # # # # $ $ $ # # # # # # # # # # # # # # # # # # # # # $ $ $ ",
"# # # # # # # # # # # # # # # # # # # # # $ $ $ # # # # # # # # # # # # # # # # # # # # # $ $ $ ",
"# # # # # # # # # # # # # # # # # # # # # $ $ $ # # # # # # # # # # # # # # # # # # # # # $ $ $ ",
"# # # # # # # # # # # # # # # # # # # # # $ $ $ # # # # # # # # # # # # # # # # # # # # # $ $ $ ",
"# # # # # # # # # # # # # # # # # # # # # $ $ $ # # # # # # # # # # # # # # # # # # # # # $ $ $ ",
"# # # # # # # # # # # # # # # # # # # # # $ $ $ # # # # # # # # # # # # # # # # # # # # # $ $ $ ",
"# # # # # # # # # # # # # # # # # # # # # $ $ $ # # # # # # # # # # # # # # # # # # # # # $ $ $ ",
"# # # # # # # # # # # # # # # # # # # # $ $ $ $ $ # # # # # # # # # # # # # # # # # # # $ $ $ $ ",
"$ $ $ $ $ $ $ $ $ $ $ $ $ $ $ $ $ $ $ $ $ $ $ $ $ $ $ $ $ $ $ $ $ $ $ $ $ $ $ $ $ $ $ $ $ $ % % ",
"% % % % % $ $ $ $ $ $ $ $ $ $ $ $ $ $ $ $ $ $ $ $ $ $ $ $ $ $ $ $ $ % $ $ $ $ $ % % % % % % % % ",
"% % % % % % $ $ $ $ $ $ $ $ $ $ $ $ $ $ $ $ $ $ $ $ $ $ $ $ $ $ $ % % % $ $ $ % % % % % % % % % "};
