/* XPM */
static char * floor_xpm[] = {
"48 48 3 1",
" 	c #262B44",
".	c #3A4466",
"+	c #5A6988",
"+++++++++++++++++++++...+++++++++...+++++++++.  ",
"+++++++++++++++++++++...+++++++++...+++++++++.  ",
"+++++++++++++++++++++...+++++++++...+++++++++.. ",
"+++++++++++++++++++++...+++++++++...+++++++++...",
"+++++++++++++++++++++...+++++++++...+++++++++...",
"+++++++++++++++++++++...+++++++++...+++++++++...",
"+++++++++++++++++++++...+++++++++...+++++++++...",
"+++++++++++++++++++++...+++++++++...+++++++++...",
"+++++++++++++++++++++...+++++++++++++++++++++...",
"+++++++++++++++++++++...+++++++++++++++++++++...",
"+++++++++++++++++++++...+++++++++++++++++++++...",
"+++++++++++++++++++++...+++++++++++++++++++++...",
"+++++++++++++++++++++...+++++++++++++++++++++...",
"+++++++++++++++++++++...+++++++++++++++++++++...",
"+++++++++++++++++++++...+++++++++++++++++++++...",
"+++++++++++++++++++++...+++++++++++++++++++++...",
"+++++++++++++++++++++...+++++++++...+++++++++...",
"+++++++++++++++++++++...+++++++++...+++++++++...",
"+++++++++++++++++++++...+++++++++...+++++++++...",
"++++++++++++++++++++.....++++++++...+++++++++...",
"+++++++++++++++++++... ...++++++.....++++++.....",
".....................   ........................",
"....................     .......................",
".....................   ........................",
"+++++.........+++++... ...+++++++++++++++++.....",
"++++++......++++++++.....++++++++++++++++++++...",
"++++++......+++++++++...+++++++++++++++++++++...",
"++++++....+++++++++++...+++++++++++++++++++++...",
"++++++...++++++++++++...+++++++++++++++++++++...",
"++++++..+++++++++++++...+++++++++++++++++++++...",
"......+++++++++++++++...+++++++++++++++++++++...",
"......+++++++++++++++...+++++++++++++++++++++...",
".....++++++++++++++++...+++++++++++++++++++++...",
"  ..+++++++++++++++++...+++++++++++++++++++++...",
" ..++++++++++++++++++...+++++++++++++++++++++...",
"...++++++++++++++++++...+++++++++++++++++++++...",
"+++++++++++++++++++++...+++++++++++++++++++++...",
"+++++++++++++++++++++...+++++++++++++++++++++...",
"+++++++++++++++++++++...+++++++++++++++++++++...",
"+++++++++++++++++++++...+++++++++++++++++++++...",
"+++++++++++++++++++++...+++++++++++++++++++++...",
"+++++++++++++++++++++...+++++++++++++++++++++...",
"+++++++++++++++++++++...+++++++++++++++++++++...",
"+++++++++++++++++++++...+++++++++++++++++++++...",
"++++++++++++++++++++.....+++++++++++++++++++....",
"..............................................  ",
"     ............................. .....        ",
"      ...........................   ...         "};
