/* XPM */
static char * player4_xpm[] = {
"48 48 514 2",
"  	c #5A6988",
". 	c #3A4466",
"+ 	c #262B44",
"@ 	c #505E79",
"# 	c #404F64",
"$ 	c #404E64",
"% 	c #505F7A",
"& 	c #596887",
"* 	c #53627E",
"= 	c #527579",
"- 	c #4E826F",
"; 	c #407766",
"> 	c #43646E",
", 	c #53637F",
"' 	c #3A4465",
") 	c #54627F",
"! 	c #405863",
"~ 	c #6AAC91",
"{ 	c #8BE0B5",
"] 	c #6BCBA3",
"^ 	c #3E8774",
"/ 	c #3B5360",
"( 	c #364160",
"_ 	c #52607D",
": 	c #375157",
"< 	c #6BB494",
"[ 	c #8AE9B9",
"} 	c #6DD2A7",
"| 	c #408A76",
"1 	c #2E4A4F",
"2 	c #35415F",
"3 	c #39505E",
"4 	c #468F7A",
"5 	c #56B793",
"6 	c #4E9F88",
"7 	c #3A6A6B",
"8 	c #384C5B",
"9 	c #5A6987",
"0 	c #556581",
"a 	c #456470",
"b 	c #306259",
"c 	c #2E5A57",
"d 	c #445A6D",
"e 	c #425267",
"f 	c #425167",
"g 	c #34405D",
"h 	c #2E3B53",
"i 	c #586786",
"j 	c #546580",
"k 	c #486B73",
"l 	c #3B6F64",
"m 	c #52667D",
"n 	c #576684",
"o 	c #546380",
"p 	c #3C5660",
"q 	c #4C947F",
"r 	c #5CB895",
"s 	c #3B6664",
"t 	c #495970",
"u 	c #596886",
"v 	c #53627F",
"w 	c #44526A",
"x 	c #425066",
"y 	c #2B374E",
"z 	c #425067",
"A 	c #44536A",
"B 	c #576683",
"C 	c #485D70",
"D 	c #4A8278",
"E 	c #4F9E83",
"F 	c #476671",
"G 	c #546280",
"H 	c #3E5564",
"I 	c #2E5959",
"J 	c #356E69",
"K 	c #43786C",
"L 	c #4B7D6D",
"M 	c #4D7D6C",
"N 	c #457466",
"O 	c #325C57",
"P 	c #32625A",
"Q 	c #35675E",
"R 	c #305759",
"S 	c #3E5464",
"T 	c #4C5F75",
"U 	c #364F59",
"V 	c #576784",
"W 	c #566583",
"X 	c #354856",
"Y 	c #3A8071",
"Z 	c #68C49E",
"` 	c #80DBB1",
" .	c #8BDEB2",
"..	c #8BDDB2",
"+.	c #8CDEB2",
"@.	c #86D9AD",
"#.	c #64BF99",
"$.	c #59B994",
"%.	c #5BB893",
"&.	c #51A38A",
"*.	c #3C6A6A",
"=.	c #354554",
"-.	c #53617E",
";.	c #52617D",
">.	c #3E5868",
",.	c #47A58F",
"'.	c #8DD5A6",
").	c #B1F8BE",
"!.	c #BDFAC0",
"~.	c #B0F6C0",
"{.	c #98F0BF",
"].	c #96EFBE",
"^.	c #8DEABA",
"/.	c #73D7AA",
"(.	c #67CBA1",
"_.	c #61C69D",
":.	c #50A288",
"<.	c #386767",
"[.	c #3D4F62",
"}.	c #546581",
"|.	c #3F5C6B",
"1.	c #46917F",
"2.	c #99E9B9",
"3.	c #C9FEC0",
"4.	c #CEFFC0",
"5.	c #CDFFC0",
"6.	c #BBF9C0",
"7.	c #9DF2BF",
"8.	c #99F1BF",
"9.	c #85E2B3",
"0.	c #6BCFA4",
"a.	c #66CBA1",
"b.	c #60C59C",
"c.	c #51A289",
"d.	c #356461",
"e.	c #405165",
"f.	c #556381",
"g.	c #364B5A",
"h.	c #40A18B",
"i.	c #97ECBB",
"j.	c #CBFEC0",
"k.	c #CCFEC0",
"l.	c #C2FBC0",
"m.	c #A1F2BF",
"n.	c #96EEBE",
"o.	c #8BE5B6",
"p.	c #6ED0A5",
"q.	c #63C99F",
"r.	c #62C69D",
"s.	c #52A38A",
"t.	c #376565",
"u.	c #374758",
"v.	c #566582",
"w.	c #505E7A",
"x.	c #3C5565",
"y.	c #60A88F",
"z.	c #A4E5B4",
"A.	c #CAFEC0",
"B.	c #C4FCC0",
"C.	c #AFF5BF",
"D.	c #9DF1BF",
"E.	c #92ECBB",
"F.	c #72D4A8",
"G.	c #54A98D",
"H.	c #3E776E",
"I.	c #2F4955",
"J.	c #3E5663",
"K.	c #4A9780",
"L.	c #82E0B4",
"M.	c #B8F9BF",
"N.	c #C8FCBE",
"O.	c #B8E8AB",
"P.	c #B9E6AB",
"Q.	c #C1EFB4",
"R.	c #C8FDBF",
"S.	c #B6F8C0",
"T.	c #99F0BF",
"U.	c #90E5B5",
"V.	c #7CD1A3",
"W.	c #65C197",
"X.	c #60C39B",
"Y.	c #5EBF99",
"Z.	c #499180",
"`.	c #2C5052",
" +	c #2D3A52",
".+	c #39485B",
"++	c #3E816E",
"@+	c #69C9A3",
"#+	c #91EDBB",
"$+	c #A7F5BE",
"%+	c #A6EAB8",
"&+	c #88A58E",
"*+	c #748877",
"=+	c #779F81",
"-+	c #9CDFAD",
";+	c #A4F5C0",
">+	c #97EFBF",
",+	c #98EFBF",
"'+	c #96EEBD",
")+	c #85C8A6",
"!+	c #61867D",
"~+	c #4D7A6D",
"{+	c #4A997B",
"]+	c #5EC09A",
"^+	c #4C9784",
"/+	c #305C5B",
"(+	c #2C3E51",
"_+	c #273B46",
":+	c #408B74",
"<+	c #78DDB0",
"[+	c #8CE6B8",
"}+	c #81DAAE",
"|+	c #5CA392",
"1+	c #8B9BA2",
"2+	c #666779",
"3+	c #3B5E60",
"4+	c #45947D",
"5+	c #83DAB1",
"6+	c #93E8B9",
"7+	c #7AC59C",
"8+	c #85A49B",
"9+	c #847F92",
"0+	c #4C5964",
"a+	c #316457",
"b+	c #4FA081",
"c+	c #62C79E",
"d+	c #5DBC97",
"e+	c #50A28E",
"f+	c #469186",
"g+	c #3C7475",
"h+	c #323D57",
"i+	c #586886",
"j+	c #53657F",
"k+	c #315654",
"l+	c #45937A",
"m+	c #77DBAE",
"n+	c #88E2B4",
"o+	c #78B794",
"p+	c #444654",
"q+	c #C2CBD7",
"r+	c #969EB0",
"s+	c #31344C",
"t+	c #263241",
"u+	c #6EAF8C",
"v+	c #8DDFB2",
"w+	c #43685B",
"x+	c #99A0AC",
"y+	c #B6C0CF",
"z+	c #676D81",
"A+	c #1F213F",
"B+	c #264545",
"C+	c #60C19A",
"D+	c #59B393",
"E+	c #56B199",
"F+	c #56B5A4",
"G+	c #4BA199",
"H+	c #203038",
"I+	c #384262",
"J+	c #394365",
"K+	c #2F3D54",
"L+	c #33615A",
"M+	c #5DBE97",
"N+	c #5EC39B",
"O+	c #74D7AA",
"P+	c #88DEB0",
"Q+	c #78BA96",
"R+	c #1D1C34",
"S+	c #4A4D69",
"T+	c #505777",
"U+	c #35385E",
"V+	c #2C3449",
"W+	c #6BAC8A",
"X+	c #8CDEB1",
"Y+	c #406458",
"Z+	c #37384F",
"`+	c #525776",
" @	c #464C6F",
".@	c #2B2D50",
"+@	c #254045",
"@@	c #5AB695",
"#@	c #53A88E",
"$@	c #50A08B",
"%@	c #438576",
"&@	c #1C2834",
"*@	c #384364",
"=@	c #2D3C52",
"-@	c #35655C",
";@	c #60C49C",
">@	c #62C89E",
",@	c #6ACEA3",
"'@	c #77D5A8",
")@	c #7ECEA5",
"!@	c #73AE8E",
"~@	c #303E49",
"{@	c #242744",
"]@	c #394E5B",
"^@	c #68A489",
"/@	c #8ADAAE",
"(@	c #92E8B9",
"_@	c #61B28F",
":@	c #244946",
"<@	c #212A42",
"[@	c #282948",
"}@	c #3E6C69",
"|@	c #4FA382",
"1@	c #59B593",
"2@	c #55AB8F",
"3@	c #52A48B",
"4@	c #50A28A",
"5@	c #4D9F8E",
"6@	c #45938C",
"7@	c #345560",
"8@	c #2D3B52",
"9@	c #35655D",
"0@	c #67CCA2",
"a@	c #77D3A8",
"b@	c #81D6AA",
"c@	c #54866E",
"d@	c #4B7164",
"e@	c #659E81",
"f@	c #8BDBAF",
"g@	c #97EFBE",
"h@	c #92EBBB",
"i@	c #91EABA",
"j@	c #8CE6B7",
"k@	c #6FD2A7",
"l@	c #418A71",
"m@	c #316257",
"n@	c #36695C",
"o@	c #4B9A7C",
"p@	c #5AB693",
"q@	c #53A78C",
"r@	c #51A38B",
"s@	c #51A48C",
"t@	c #54B19D",
"u@	c #56BBAC",
"v@	c #326260",
"w@	c #2E3C54",
"x@	c #34645C",
"y@	c #5FC19A",
"z@	c #6BCEA3",
"A@	c #76D6AA",
"B@	c #83D7AC",
"C@	c #84D7AC",
"D@	c #86D8AC",
"E@	c #92E7B8",
"F@	c #79D8AC",
"G@	c #6ED1A5",
"H@	c #6DD2A6",
"I@	c #65C99F",
"J@	c #5ABA95",
"K@	c #5AB892",
"L@	c #59B490",
"M@	c #57B090",
"N@	c #56AF90",
"O@	c #51A48B",
"P@	c #52A68D",
"Q@	c #57B8A8",
"R@	c #59C3BB",
"S@	c #336564",
"T@	c #44546A",
"U@	c #2D3B51",
"V@	c #315E58",
"W@	c #57AE8F",
"X@	c #62C59E",
"Y@	c #66CBA0",
"Z@	c #82DFB1",
"`@	c #86E2B3",
" #	c #83DCAE",
".#	c #79C59E",
"+#	c #7FD2A8",
"@#	c #84E4B5",
"##	c #68CCA2",
"$#	c #5EC19A",
"%#	c #50A384",
"&#	c #5AB792",
"*#	c #57B091",
"=#	c #51A389",
"-#	c #55AF9A",
";#	c #5CC8C5",
">#	c #5CCCD3",
",#	c #34676A",
"'#	c #2D3A51",
")#	c #2D5454",
"!#	c #4A9381",
"~#	c #5EBF9A",
"{#	c #62C99F",
"]#	c #58B892",
"^#	c #397866",
"/#	c #408A71",
"(#	c #57B892",
"_#	c #5CBE97",
":#	c #5FC39A",
"<#	c #397161",
"[#	c #4E9E80",
"}#	c #5CBB96",
"|#	c #53A88D",
"1#	c #52A78F",
"2#	c #58BDAB",
"3#	c #60D6DF",
"4#	c #60D7EC",
"5#	c #376972",
"6#	c #47576F",
"7#	c #315D58",
"8#	c #4F9E87",
"9#	c #53A68B",
"0#	c #57AF91",
"a#	c #61C59D",
"b#	c #5FC299",
"c#	c #49957A",
"d#	c #2B5550",
"e#	c #2E5852",
"f#	c #2E5952",
"g#	c #3A7362",
"h#	c #53A68C",
"i#	c #54AC93",
"j#	c #56B5A6",
"k#	c #4FA9A2",
"l#	c #305862",
"m#	c #536581",
"n#	c #35415E",
"o#	c #344F5C",
"p#	c #407B6E",
"q#	c #4D9883",
"r#	c #52A68B",
"s#	c #59B392",
"t#	c #60C09A",
"u#	c #63C99E",
"v#	c #5CBC94",
"w#	c #4A987C",
"x#	c #438874",
"y#	c #418272",
"z#	c #468D78",
"A#	c #57B08F",
"B#	c #56AD8F",
"C#	c #58BCB0",
"D#	c #5CCAC8",
"E#	c #4FAEB7",
"F#	c #24363C",
"G#	c #364757",
"H#	c #3F786C",
"I#	c #4E9C88",
"J#	c #54AE96",
"K#	c #5BBB9A",
"L#	c #60C29B",
"M#	c #5EC099",
"N#	c #59B592",
"O#	c #52A589",
"P#	c #509F87",
"Q#	c #50A087",
"R#	c #52A48A",
"S#	c #52A68F",
"T#	c #53AA92",
"U#	c #59BEAF",
"V#	c #5DCBCE",
"W#	c #5DCDD7",
"X#	c #4A9CAB",
"Y#	c #374556",
"Z#	c #556481",
"`#	c #3D4F5F",
" $	c #407B74",
".$	c #53AE9F",
"+$	c #57B5A1",
"@$	c #55AD92",
"#$	c #55AE92",
"$$	c #56AF93",
"%$	c #56B093",
"&$	c #53A88F",
"*$	c #52A68E",
"=$	c #51A58C",
"-$	c #54AF9B",
";$	c #59BDA9",
">$	c #56B8A8",
",$	c #5CCBCF",
"'$	c #5DCFDC",
")$	c #4CA5B1",
"!$	c #416279",
"~$	c #566481",
"{$	c #405E6E",
"]$	c #46948C",
"^$	c #54B1A3",
"/$	c #55B3A0",
"($	c #55B4A1",
"_$	c #56B5A2",
":$	c #56B7A5",
"<$	c #5CCAC7",
"[$	c #60D5E0",
"}$	c #4FA8A2",
"|$	c #50AEB6",
"1$	c #4A9EAB",
"2$	c #405971",
"3$	c #384B5A",
"4$	c #46918A",
"5$	c #59BFB2",
"6$	c #58BFB2",
"7$	c #58BFB1",
"8$	c #58BFB3",
"9$	c #5CCAD0",
"0$	c #5ED0E4",
"a$	c #355F6B",
"b$	c #2A3D45",
"c$	c #3A495A",
"d$	c #556582",
"e$	c #466674",
"f$	c #356B68",
"g$	c #346966",
"h$	c #356967",
"i$	c #356C6F",
"j$	c #3A6E79",
"k$	c #52647F",
"l$	c #566482",
"m$	c #435369",
"n$	c #47576E",
"o$	c #394465",
"                                          . . .                   . . .                   . + + ",
"                                          . . .         @ # $ % & . . .                   . + + ",
"                                          . . .       * = - ; > , ' . .                   . . + ",
"                                          . . .     ) ! ~ { ] ^ / ( . .                   . . . ",
"                                          . . .     _ : < [ } | 1 2 . .                   . . . ",
"                                          . . .     ) 3 4 5 6 7 8 ( . .                   . . . ",
"                                          . . .     9 0 a b c d 0 ' . .                   . . . ",
"                                          . . .       & % e f % & ' g h i                 . . . ",
"                                          . . .           & &   & j k l m n               . . . ",
"                                          . . .                 o p q r s t u             . . . ",
"                                v w x x x y y y z z z A ,       B C D E F % &             . . . ",
"                              G H I J K L M M N O P Q R S o       u T U V                 . . . ",
"                            W X Y Z `  ...+.+.@.#.$.%.&.*.=.W       W -.&                 . . . ",
"                        & ;.>.,.'.).!.~.{.{.{.].^./.(._.:.<.[._ &                         . . . ",
"                      & }.|.1.2.3.4.5.6.7.8.{.{.{.9.0.a.b.c.d.e.f.&                       . . . ",
"                      W g.h.i.j.4.4.4.k.l.m.{.{.{.n.o.p.q.r.s.t.u.v.                      . . . ",
"                    w.x.y.z.A.4.4.4.4.B.C.D.{.{.{.{.E.F.q.q._.G.H.I.g .                   . . . ",
"                & v.J.K.L.M.N.O.P.Q.R.S.T.{.{.{.{.U.V.W.X.q.q.Y.Z.`. +.                   . . . ",
"                n .+++@+#+$+%+&+*+=+-+;+>+{.{.,+'+)+!+~+{+r.q.]+^+/+(+'                   . . . ",
"                W _+:+<+[+}+|+1+2+3+4+5+{.{.{.6+7+8+9+0+a+b+c+d+e+f+g+h+i                 . . . ",
"              i+j+k+l+m+n+o+p+q+r+s+t+u+{.{.{.v+w+x+y+z+A+B+C+D+E+F+G+H+I+            . . . . . ",
". . . . . . J+K+L+M+N+O+P+Q+R+S+T+U+V+W+{.{.{.X+Y+Z+`+ @.@+@C+@@#@$@%@&@*@. . . . . . . . . . . ",
". . . . . . J+=@-@;@>@,@'@)@!@~@{@]@^@/@{.{.{.(@_@:@<@[@}@|@1@2@3@4@5@6@7@g ' . . . . . . . . . ",
". . . . . . J+8@9@;@q.q.0@a@b@c@d@e@f@{.g@h@i@j@k@l@m@n@o@p@q@r@&.s@t@u@v@w@J+. . . . . . . . . ",
"          . J+=@x@y@q.q.q.z@A@B@C@D@E@'+h@F@G@H@I@J@K@L@M@N@O@&.&.P@Q@R@S@T@u         . . . . . ",
"            J+U@V@W@X@q.q.q.Y@Z@`@ #.#+#@###>@$#%#&#_.Y.*#=#&.&.O@-#;#>#,#T@u             . . . ",
"            J+'#)#!#~#c+q.q.q.q.{#]#^#/#(#_#:#L@<#[#}#|#&.&.&.&.1#2#3#4#5#6#u             . . . ",
"            J+U@7#8#9#0#a#q.q.q.q.>@b#c#d#e#f#g#K@p@h#3@&.&.&.&.i#j#k#l#m#i+              . . . ",
"            ' n#o#p#q#r#s#t#q.q.q.q.u#v#w#x#y#z#A#B#&.&.&.&.&.&.C#D#E#F#W                 . . . ",
"            . ' v.G#H#I#J#K#X.X.X.X.L#M#N#O#P#Q#R#O@&.&.s@S#T#U#V#W#X#Y#n                 . . . ",
". . . . . .     & Z#`# $.$+$@$@$@$@$#$$$%$&$*$*$=$s@s@=$-$;$>$,$'$)$!$~$&                 . . . ",
". . . . . .         w.{$]$^$/$/$/$/$/$/$/$($_$_$_$_$_$:$<$[$}$|$1$2$w.                    . . . ",
". . . . .             v.3$4$5$6$6$6$6$6$6$6$6$6$6$6$7$8$9$0$a$b$c$B                       . . . ",
"+ + . .               & d$e$f$g$g$g$g$g$g$g$g$g$g$g$g$h$i$j$k$f.l$&                       . . . ",
"+ . .                   & % e m$m$m$m$m$m$U@U@U@m$m$m$m$m$n$i                             . . . ",
". . .                     9 & & & & & & & o$o$o$& & & & & &                               . . . ",
"                                          . . .                                           . . . ",
"                                          . . .                                           . . . ",
"                                          . . .                                           . . . ",
"                                          . . .                                           . . . ",
"                                          . . .                                           . . . ",
"                                          . . .                                           . . . ",
"                                          . . .                                           . . . ",
"                                          . . .                                           . . . ",
"                                        . . . . .                                       . . . . ",
". . . . . . . . . . . . . . . . . . . . . . . . . . . . . . . . . . . . . . . . . . . . . . + + ",
"+ + + + + . . . . . . . . . . . . . . . . . . . . . . . . . . . . . + . . . . . + + + + + + + + ",
"+ + + + + + . . . . . . . . . . . . . . . . . . . . . . . . . . . + + + . . . + + + + + + + + + "};
