/* XPM */
static char * player_l_xpm[] = {
"48 48 368 2",
"  	c #5A6988",
". 	c #3A4466",
"+ 	c #262B44",
"@ 	c #596887",
"# 	c #5A6987",
"$ 	c #576683",
"% 	c #48586E",
"& 	c #425266",
"* 	c #4A5A72",
"= 	c #576684",
"- 	c #536A7D",
"; 	c #538478",
"> 	c #508876",
", 	c #3C6D69",
"' 	c #53647F",
") 	c #586785",
"! 	c #495771",
"~ 	c #4A7769",
"{ 	c #8ADDB3",
"] 	c #86E5B7",
"^ 	c #4AA385",
"/ 	c #2F4E52",
"( 	c #515F7C",
"_ 	c #48566F",
": 	c #3E7061",
"< 	c #6FCDA5",
"[ 	c #6FD3A8",
"} 	c #46917E",
"| 	c #2D4B4F",
"1 	c #515F7B",
"2 	c #53627E",
"3 	c #456370",
"4 	c #3F8774",
"5 	c #408976",
"6 	c #3B6469",
"7 	c #4A5C73",
"8 	c #566582",
"9 	c #556481",
"0 	c #3E5463",
"a 	c #334B54",
"b 	c #425267",
"c 	c #596886",
"d 	c #53617E",
"e 	c #566583",
"f 	c #576685",
"g 	c #556582",
"h 	c #486371",
"i 	c #3F5F65",
"j 	c #546481",
"k 	c #3A4465",
"l 	c #394465",
"m 	c #44596B",
"n 	c #4C8F7D",
"o 	c #52A087",
"p 	c #3E5564",
"q 	c #46546C",
"r 	c #2E3A53",
"s 	c #2E3A52",
"t 	c #384363",
"u 	c #586685",
"v 	c #465A6D",
"w 	c #478776",
"x 	c #4E9880",
"y 	c #415768",
"z 	c #576583",
"A 	c #53627F",
"B 	c #52607D",
"C 	c #4F6E74",
"D 	c #437466",
"E 	c #2F675D",
"F 	c #32685D",
"G 	c #3B7265",
"H 	c #3A7264",
"I 	c #30575A",
"J 	c #314258",
"K 	c #51607C",
"L 	c #556381",
"M 	c #5A6887",
"N 	c #4C5C75",
"O 	c #415267",
"P 	c #50607A",
"Q 	c #33515B",
"R 	c #28494F",
"S 	c #6BAE8F",
"T 	c #86DCAF",
"U 	c #6ECCA2",
"V 	c #5FC19A",
"W 	c #5FC29A",
"X 	c #60C39B",
"Y 	c #54AA8E",
"Z 	c #325E5D",
"` 	c #2C4B51",
" .	c #354E5C",
"..	c #51627D",
"+.	c #586786",
"@.	c #586684",
"#.	c #4B5872",
"$.	c #4B7975",
"%.	c #6FC5A3",
"&.	c #72CDA8",
"*.	c #86DDB3",
"=.	c #94EDBD",
"-.	c #90ECBB",
";.	c #75D6AA",
">.	c #63CA9F",
",.	c #63C99F",
"'.	c #62C89E",
").	c #4E9C84",
"!.	c #4C9C8E",
"~.	c #4A9990",
"{.	c #406D72",
"].	c #39495A",
"^.	c #45566C",
"/.	c #4D5C77",
"(.	c #4C837E",
"_.	c #84C09A",
":.	c #BCF9BE",
"<.	c #BFFBC0",
"[.	c #AEF5BF",
"}.	c #9BF1BF",
"|.	c #96EFBE",
"1.	c #89E3B4",
"2.	c #72D2A7",
"3.	c #60C299",
"4.	c #5BBDA0",
"5.	c #54B19C",
"6.	c #438A7F",
"7.	c #42877D",
"8.	c #42817E",
"9.	c #4B5D75",
"0.	c #566482",
"a.	c #334453",
"b.	c #58AE93",
"c.	c #A7F0B9",
"d.	c #BEF1B6",
"e.	c #BEF0B5",
"f.	c #B0EFBA",
"g.	c #9AF0BE",
"h.	c #98F0BF",
"i.	c #97EFBE",
"j.	c #89E4B5",
"k.	c #5FBF99",
"l.	c #52A88E",
"m.	c #56B5A3",
"n.	c #54B4A7",
"o.	c #386969",
"p.	c #4E627A",
"q.	c #324251",
"r.	c #70B595",
"s.	c #8CD9AC",
"t.	c #5F836B",
"u.	c #475249",
"v.	c #76B28E",
"w.	c #98EEBE",
"x.	c #97F0BF",
"y.	c #63C89E",
"z.	c #5FC09A",
"A.	c #55AB8E",
"B.	c #52A58D",
"C.	c #55B19E",
"D.	c #56B8AB",
"E.	c #386A69",
"F.	c #495770",
"G.	c #3B525F",
"H.	c #519E82",
"I.	c #5AA284",
"J.	c #374A55",
"K.	c #9DA5B2",
"L.	c #94A9A9",
"M.	c #73AC91",
"N.	c #91E5B7",
"O.	c #94EEBD",
"P.	c #88E4B4",
"Q.	c #65CAA0",
"R.	c #60C39C",
"S.	c #51A38A",
"T.	c #52A68E",
"U.	c #56B19E",
"V.	c #53B2A4",
"W.	c #3F7C7B",
"X.	c #434F66",
"Y.	c #546380",
"Z.	c #2B4B4E",
"`.	c #59B391",
" +	c #4A9679",
".+	c #283747",
"++	c #3A3F5E",
"@+	c #929AAE",
"#+	c #7C8391",
"$+	c #527B6B",
"%+	c #8DDFB2",
"&+	c #96EEBD",
"*+	c #66CBA0",
"=+	c #61C69D",
"-+	c #5BB995",
";+	c #53A88D",
">+	c #55B2A0",
",+	c #50A89A",
"'+	c #3D7C79",
")+	c #32435A",
"!+	c #394364",
"~+	c #364060",
"{+	c #294A4B",
"]+	c #59B491",
"^+	c #4E9E80",
"/+	c #345F59",
"(+	c #343659",
"_+	c #41455E",
":+	c #383E4F",
"<+	c #669E82",
"[+	c #90E2B4",
"}+	c #8EE8B9",
"|+	c #62C79E",
"1+	c #58B393",
"2+	c #52A790",
"3+	c #55B4A2",
"4+	c #51AB9F",
"5+	c #274549",
"6+	c #374161",
"7+	c #28494A",
"8+	c #59B592",
"9+	c #60C29A",
"0+	c #53AA88",
"a+	c #36595E",
"b+	c #253846",
"c+	c #579178",
"d+	c #86DBAE",
"e+	c #91E9BA",
"f+	c #95EEBD",
"g+	c #8CE6B7",
"h+	c #6BCEA3",
"i+	c #63CAA0",
"j+	c #59B594",
"k+	c #51A48C",
"l+	c #55B8AD",
"m+	c #2F6165",
"n+	c #34405E",
"o+	c #284749",
"p+	c #60C49C",
"q+	c #4FA280",
"r+	c #4C9C7D",
"s+	c #67BC96",
"t+	c #7EDAAD",
"u+	c #7FDCAF",
"v+	c #7BDAAD",
"w+	c #72D4A8",
"x+	c #51A48B",
"y+	c #5BC7C2",
"z+	c #53B7C6",
"A+	c #376472",
"B+	c #34415D",
"C+	c #5AB592",
"D+	c #5AB692",
"E+	c #61C39B",
"F+	c #64C99F",
"G+	c #60C09B",
"H+	c #57AF90",
"I+	c #53AA93",
"J+	c #5DCCC6",
"K+	c #61D8E6",
"L+	c #3C7B81",
"M+	c #45546B",
"N+	c #284849",
"O+	c #56AD8C",
"P+	c #56AE8B",
"Q+	c #3A7463",
"R+	c #56B08D",
"S+	c #54AA8D",
"T+	c #53AB95",
"U+	c #5AC2B4",
"V+	c #3E8486",
"W+	c #465F75",
"X+	c #364161",
"Y+	c #284649",
"Z+	c #33635A",
"`+	c #356A5E",
" @	c #40816C",
".@	c #59B590",
"+@	c #5EBF99",
"@@	c #54A98D",
"#@	c #5BC7B9",
"$@	c #5FD3E5",
"%@	c #4B9FAE",
"&@	c #3E5667",
"*@	c #2A4A4D",
"=@	c #449189",
"-@	c #479386",
";@	c #4C9A82",
">@	c #5EBE98",
",@	c #56AE8F",
"'@	c #51A48A",
")@	c #56B3A2",
"!@	c #5FD1D3",
"~@	c #4CA0A2",
"{@	c #374F5D",
"]@	c #3C5262",
"^@	c #4B9891",
"/@	c #51A695",
"(@	c #5DBB96",
"_@	c #5EBE99",
":@	c #5EBF9A",
"<@	c #56AC8F",
"[@	c #55B29F",
"}@	c #5ED1D0",
"|@	c #4BA0A1",
"1@	c #374F5C",
"2@	c #39535F",
"3@	c #448578",
"4@	c #50A28A",
"5@	c #53A990",
"6@	c #52A78D",
"7@	c #52A58B",
"8@	c #53A993",
"9@	c #5AC5B7",
"0@	c #5FD5E6",
"a@	c #4BA2AF",
"b@	c #3C5464",
"c@	c #3C4D5E",
"d@	c #3F8176",
"e@	c #57B9A9",
"f@	c #54AD98",
"g@	c #55B09D",
"h@	c #59C0AE",
"i@	c #5AC4B5",
"j@	c #449499",
"k@	c #476D80",
"l@	c #436173",
"m@	c #47918A",
"n@	c #44897D",
"o@	c #49927E",
"p@	c #52A48A",
"q@	c #56B39E",
"r@	c #57B9A7",
"s@	c #57B9A8",
"t@	c #5BC4B5",
"u@	c #5FD0CB",
"v@	c #60D5DE",
"w@	c #3A787C",
"x@	c #46556C",
"y@	c #3E5364",
"z@	c #374B59",
"A@	c #40716C",
"B@	c #4A927F",
"C@	c #4C9582",
"D@	c #4C9581",
"E@	c #51A99A",
"F@	c #53B0A4",
"G@	c #53B0A5",
"H@	c #54B1A6",
"I@	c #56BAB8",
"J@	c #5AC6D6",
"K@	c #427682",
"L@	c #4E5D77",
"M@	c #485B70",
"N@	c #325356",
"O@	c #2F5152",
"P@	c #2A4D4D",
"Q@	c #2A4D4B",
"R@	c #2C5453",
"S@	c #315A5B",
"T@	c #315C60",
"U@	c #34616C",
"V@	c #51657F",
"W@	c #505F7A",
"X@	c #505E7A",
"Y@	c #343F5C",
"Z@	c #505E79",
"`@	c #505F7B",
"                                          . . .                   . . .                   . + + ",
"                                          . . .                   . . .                   . + + ",
"                                          . . .                   . . .                   . . + ",
"                                          . . .     @ @ #         . . .                   . . . ",
"                                          . . .   $ % & * @       . . .                   . . . ",
"                                          . . . = - ; > , ' )     . . .                   . . . ",
"                                          . . . ! ~ { ] ^ / (     . . .                   . . . ",
"                                          . . . _ : < [ } | 1     . . .                   . . . ",
"                                          . . . 2 3 4 5 6 7 8                             . . . ",
"                                          . . .   9 0 a b c # 9 d                         . . . ",
"                                          . . .     $ e f   g h i j                       . . . ",
"                                  @ @ @ @ k l .           = m n o p $                     . . . ",
"                                d _ q q q r s t           u v w x y z                     . . . ",
"                            A B C D E F G H I J K L M       @ N O @                       . . . ",
"                          P Q R S T U V W X Y Z `  ...+.c     ) @.                        . . . ",
"                        #.$.%.&.*.=.-.;.>.,.'.).!.~.{.].^.@                               . . . ",
"                      /.(._.:.<.[.}.|.1.2.,.,.3.4.5.6.7.8.9.0.    . . .                   . . . ",
"                    c a.b.c.d.e.f.g.h.i.j.,.,.,.k.Y l.m.n.o.p.=   . . .                   . . . ",
"                    c q.r.s.t.u.v.w.h.x.j.,.,.,.y.z.A.B.C.D.E.F.  . . .                   . . . ",
"                  8 G.H.I.: J.K.L.M.N.h.O.P.Q.,.,.R.Y S.T.U.V.W.X.k . .                   . . . ",
"                  Y.Z.`. +.+++@+#+$+%+h.h.&+*+,.,.=+-+;+S.T.>+,+'+)+!+. .             . . . . . ",
". . . . . . . . . ~+{+]+^+/+(+_+:+<+[+h.i.}+Q.,.,.,.|+1+S.S.2+3+4+5+6+. . . . . . . . . . . . . ",
". . . . . . . . . ~+7+8+9+0+a+b+c+d+e+f+g+h+i+,.,.,.'.j+S.S.k+m.l+m+n+k . . . . . . . . . . . . ",
". . . . . . . . . ~+o+8+,.p+q+r+s+t+u+v+w+,.,.,.,.,.'.j+S.S.x+>+y+z+A+B+l . . . . . . . . . . . ",
"          . . . . ~+o+C+,.|+D+E+F+y.,.,.,.,.,.,.,.,.G+H+S.S.S.I+J+K+L+M+c             . . . . . ",
"            . . . ~+N+O+W P+Q+R+,.,.,.,.,.,.,.,.,.V S+S.S.S.S.S.T+U+V+W+=                 . . . ",
"            . . . X+Y+Z+`+ @.@y.,.,.,.,.,.,.,.,.+@@@S.S.S.S.S.S.2+#@$@%@&@e               . . . ",
"            . . . ~+*@=@-@;@3.,.,.,.,.,.,.,.,.>@,@'@S.S.S.S.S.S.k+)@!@~@{@8               . . . ",
"            . . . = ]@^@/@Y (@_@>@>@>@>@>@>@:@<@'@S.S.S.S.S.S.S.k+[@}@|@1@8               . . . ",
"            . .     = 2@3@4@5@6@7@7@7@7@7@7@7@S.S.S.S.S.S.S.S.B.8@9@0@a@b@e               . . . ",
". . . . . .           0.c@d@e@f@S.S.S.S.S.S.S.S.S.S.S.S.S.S.S.g@h@i@j@k@j @               . . . ",
". . . . . .             8 l@m@n@o@S.S.S.S.S.p@q@r@r@r@r@r@r@s@t@u@v@w@x@c                 . . . ",
". . . . .                 8 y@z@A@B@C@C@C@C@D@E@F@G@G@G@G@G@G@H@I@J@K@L@@                 . . . ",
"+ + . .                   @ e e M@N@O@O@O@P@Q@R@S@S@S@S@S@S@S@S@T@U@V@@                   . . . ",
"+ . .                           e W@X@X@X@Y@Y@Y@Z@Z@Z@Z@Z@Z@Z@Z@Z@`@c                     . . . ",
". . .                                     . . .                                           . . . ",
"                                          . . .                                           . . . ",
"                                          . . .                                           . . . ",
"                                          . . .                                           . . . ",
"                                          . . .                                           . . . ",
"                                          . . .                                           . . . ",
"                                          . . .                                           . . . ",
"                                          . . .                                           . . . ",
"                                          . . .                                           . . . ",
"                                        . . . . .                                       . . . . ",
". . . . . . . . . . . . . . . . . . . . . . . . . . . . . . . . . . . . . . . . . . . . . . + + ",
"+ + + + + . . . . . . . . . . . . . . . . . . . . . . . . . . . . . + . . . . . + + + + + + + + ",
"+ + + + + + . . . . . . . . . . . . . . . . . . . . . . . . . . . + + + . . . + + + + + + + + + "};
