/* XPM */
static char * player1_xpm[] = {
"48 48 513 2",
"  	c #5A6988",
". 	c #3A4466",
"+ 	c #262B44",
"@ 	c #586785",
"# 	c #52617D",
"$ 	c #51607B",
"% 	c #53617E",
"& 	c #596886",
"* 	c #596887",
"= 	c #394365",
"- 	c #51627B",
"; 	c #3E5661",
"> 	c #38535A",
", 	c #415866",
"' 	c #546480",
") 	c #5A6987",
"! 	c #53627E",
"~ 	c #495770",
"{ 	c #2F3A54",
"] 	c #2E3A54",
"^ 	c #48566E",
"/ 	c #567B79",
"( 	c #65A48A",
"_ 	c #61A68B",
": 	c #478B79",
"< 	c #3E5665",
"[ 	c #53627F",
"} 	c #576684",
"| 	c #566482",
"1 	c #53637F",
"2 	c #415A6A",
"3 	c #336462",
"4 	c #2F645E",
"5 	c #31665E",
"6 	c #3D685E",
"7 	c #436C61",
"8 	c #66A387",
"9 	c #83DAAD",
"0 	c #7CDBAD",
"a 	c #5ABB96",
"b 	c #325E59",
"c 	c #415065",
"d 	c #47566E",
"e 	c #374758",
"f 	c #38515A",
"g 	c #569B8A",
"h 	c #6BC7A8",
"i 	c #6FCEAD",
"j 	c #77D0AD",
"k 	c #83D3AE",
"l 	c #85D4AD",
"m 	c #83D8AE",
"n 	c #7AD8AB",
"o 	c #71D4A7",
"p 	c #5CBC96",
"q 	c #36685F",
"r 	c #3E4D61",
"s 	c #586684",
"t 	c #495971",
"u 	c #335A59",
"v 	c #377069",
"w 	c #4F9B88",
"x 	c #98DCAD",
"y 	c #B8F6BE",
"z 	c #BAF8BF",
"A 	c #ADF5BF",
"B 	c #9AF0BE",
"C 	c #97EFBE",
"D 	c #92ECBB",
"E 	c #7CDAAD",
"F 	c #70D2A7",
"G 	c #59B894",
"H 	c #35655C",
"I 	c #566583",
"J 	c #46566D",
"K 	c #305A59",
"L 	c #46A386",
"M 	c #73D6AA",
"N 	c #97E9B8",
"O 	c #BEFABE",
"P 	c #CCFEC0",
"Q 	c #CBFEC0",
"R 	c #B8F8C0",
"S 	c #9CF1BF",
"T 	c #98F0BF",
"U 	c #97F0BF",
"V 	c #93ECBC",
"W 	c #80E1B2",
"X 	c #59BA95",
"Y 	c #32615A",
"Z 	c #3C4B5E",
"` 	c #566582",
" .	c #44556A",
"..	c #336461",
"+.	c #479D83",
"@.	c #74D9B0",
"#.	c #A4F3BD",
"$.	c #C3FCC0",
"%.	c #CDFFC0",
"&.	c #CEFFC0",
"*.	c #B9F8C0",
"=.	c #84E4B4",
"-.	c #5BBF98",
";.	c #418174",
">.	c #33585B",
",.	c #43546A",
"'.	c #4A5E73",
").	c #3D6E67",
"!.	c #55A588",
"~.	c #75DCB1",
"{.	c #8EECBD",
"].	c #B1F8C0",
"^.	c #CCFFC0",
"/.	c #C6FCC0",
"(.	c #B1F6C0",
"_.	c #9AF0BF",
":.	c #81E2B3",
"<.	c #62C99F",
"[.	c #57B190",
"}.	c #468577",
"|.	c #2D4A4E",
"1.	c #4E5D78",
"2.	c #5A6887",
"3.	c #345A5A",
"4.	c #53AC8E",
"5.	c #80DFB3",
"6.	c #92EEBE",
"7.	c #AEF6C0",
"8.	c #C8FDBF",
"9.	c #B0F6BF",
"0.	c #9EF1BF",
"a.	c #96EEBE",
"b.	c #7EDDAF",
"c.	c #66CCA1",
"d.	c #5FC29A",
"e.	c #53A488",
"f.	c #305652",
"g.	c #4C5B75",
"h.	c #586685",
"i.	c #3E4C61",
"j.	c #2F5954",
"k.	c #57B894",
"l.	c #86E6B7",
"m.	c #99F0BF",
"n.	c #A9F5BF",
"o.	c #C0FBC0",
"p.	c #BFFBC0",
"q.	c #ADF6BF",
"r.	c #9BF1BF",
"s.	c #7FDDAF",
"t.	c #66CBA1",
"u.	c #62C79E",
"v.	c #5CBA96",
"w.	c #3F796D",
"x.	c #405B68",
"y.	c #33415B",
"z.	c #384263",
"A.	c #596786",
"B.	c #54647F",
"C.	c #3C5660",
"D.	c #3C7A67",
"E.	c #83E3B5",
"F.	c #91EDBC",
"G.	c #8FE5B6",
"H.	c #8ADDB0",
"I.	c #8BE0B2",
"J.	c #95ECBC",
"K.	c #9AF1BF",
"L.	c #95EABB",
"M.	c #8BDEB1",
"N.	c #71C89F",
"O.	c #62C39C",
"P.	c #62C79D",
"Q.	c #61C49C",
"R.	c #4F9D87",
"S.	c #335B5C",
"T.	c #283849",
"U.	c #374161",
"V.	c #52607C",
"W.	c #3C5760",
"X.	c #4B937C",
"Y.	c #58B590",
"Z.	c #62C69E",
"`.	c #70D5A9",
" +	c #73D3A8",
".+	c #6AA88B",
"++	c #4E7E73",
"@+	c #488878",
"#+	c #77C6A1",
"$+	c #95ECBD",
"%+	c #97EEBD",
"&+	c #8AD9AE",
"*+	c #659680",
"=+	c #497868",
"-+	c #4A8F75",
";+	c #5ABB93",
">+	c #60C19A",
",+	c #51A08A",
"'+	c #346161",
")+	c #2A3F4D",
"!+	c #36405F",
"~+	c #4D5C76",
"{+	c #315453",
"]+	c #53A689",
"^+	c #61C69D",
"/+	c #60C79E",
"(+	c #57B38F",
"_+	c #5B9481",
":+	c #7F9A96",
"<+	c #768288",
"[+	c #475060",
"}+	c #5A8F78",
"|+	c #82CDA3",
"1+	c #95EBBB",
"2+	c #95EEBE",
"3+	c #88E1B3",
"4+	c #7ECBA2",
"5+	c #84B69F",
"6+	c #899C9E",
"7+	c #67767A",
"8+	c #375E55",
"9+	c #448C71",
"0+	c #55AB86",
"a+	c #51A38F",
"b+	c #458D83",
"c+	c #3A7774",
"d+	c #344D60",
"e+	c #374160",
"f+	c #4D5B76",
"g+	c #305351",
"h+	c #54A88B",
"i+	c #5FC69D",
"j+	c #519E80",
"k+	c #54696B",
"l+	c #8D9BA2",
"m+	c #8F9AAB",
"n+	c #50556D",
"o+	c #2F3C4A",
"p+	c #558670",
"q+	c #84D8AC",
"r+	c #8BE7B7",
"s+	c #69C69C",
"t+	c #427E69",
"u+	c #7B8B8E",
"v+	c #9BA7AF",
"w+	c #7D8496",
"x+	c #37455A",
"y+	c #273D44",
"z+	c #3B6F59",
"A+	c #51A793",
"B+	c #57BBAC",
"C+	c #50A99F",
"D+	c #325F60",
"E+	c #303C56",
"F+	c #3A4465",
"G+	c #323C59",
"H+	c #2B4F4C",
"I+	c #54A78A",
"J+	c #60C69D",
"K+	c #4E9C7D",
"L+	c #455D5C",
"M+	c #777C8C",
"N+	c #7F879D",
"O+	c #4C5171",
"P+	c #283249",
"Q+	c #39675C",
"R+	c #6DC89E",
"S+	c #74D5A8",
"T+	c #5DBE96",
"U+	c #316C5C",
"V+	c #575969",
"W+	c #848C9B",
"X+	c #6F758F",
"Y+	c #373B5F",
"Z+	c #25323F",
"`+	c #31554C",
" @	c #53AB93",
".@	c #59BFB1",
"+@	c #52AFA5",
"@@	c #31615F",
"#@	c #2E3B53",
"$@	c #284B49",
"%@	c #4E9D84",
"&@	c #60C39C",
"*@	c #62C59D",
"=@	c #53AA87",
"-@	c #396D5C",
";@	c #374957",
">@	c #363654",
",@	c #353D5C",
"'@	c #315058",
")@	c #41816D",
"!@	c #5EBF97",
"~@	c #64CA9F",
"{@	c #60C49B",
"]@	c #4A9378",
"^@	c #385054",
"/@	c #323D50",
"(@	c #323756",
"_@	c #313D5B",
":@	c #325455",
"<@	c #3A6D5E",
"[@	c #53AA92",
"}@	c #59BFAF",
"|@	c #30615F",
"1@	c #323D59",
"2@	c #254045",
"3@	c #417D74",
"4@	c #5BB996",
"5@	c #61C59C",
"6@	c #56AF8B",
"7@	c #376F5E",
"8@	c #1F2C3D",
"9@	c #274449",
"0@	c #499079",
"a@	c #5CBB95",
"b@	c #63C99F",
"c@	c #5EC098",
"d@	c #4D9E80",
"e@	c #244145",
"f@	c #1E283D",
"g@	c #2D5051",
"h@	c #468978",
"i@	c #4E9D85",
"j@	c #54AD98",
"k@	c #58BDAE",
"l@	c #53B2A9",
"m@	c #306261",
"n@	c #323D5A",
"o@	c #243F44",
"p@	c #3D7470",
"q@	c #59B694",
"r@	c #63C89E",
"s@	c #55AC89",
"t@	c #4A987B",
"u@	c #4D9D7E",
"v@	c #5CBD96",
"w@	c #63C89F",
"x@	c #5AB691",
"y@	c #458B76",
"z@	c #3E7D6C",
"A@	c #428773",
"B@	c #4E9E83",
"C@	c #53AA93",
"D@	c #58BDB1",
"E@	c #5DCECE",
"F@	c #57BDC3",
"G@	c #34696F",
"H@	c #45546B",
"I@	c #407A73",
"J@	c #59B493",
"K@	c #61C39C",
"L@	c #5CBD95",
"M@	c #5EBE96",
"N@	c #62C89E",
"O@	c #5BB894",
"P@	c #55AD8D",
"Q@	c #51A389",
"R@	c #50A289",
"S@	c #50A189",
"T@	c #52A28A",
"U@	c #54AA93",
"V@	c #5CC8C0",
"W@	c #5FD2D7",
"X@	c #52B3C4",
"Y@	c #3E6E7A",
"Z@	c #4A5871",
"`@	c #333E5A",
" #	c #264448",
".#	c #448477",
"+#	c #51A289",
"@#	c #56AD90",
"##	c #5CBB96",
"$#	c #4FA283",
"%#	c #4D9B7F",
"&#	c #61C49B",
"*#	c #54AA8B",
"=#	c #448873",
"-#	c #468C76",
";#	c #4F9F87",
">#	c #51A38A",
",#	c #51A58C",
"'#	c #56B4A3",
")#	c #5AC2B7",
"!#	c #4EA8A8",
"~#	c #3E6F86",
"{#	c #4F667F",
"]#	c #576583",
"^#	c #384262",
"/#	c #44586B",
"(#	c #3A6964",
"_#	c #488F7C",
":#	c #56AF91",
"<#	c #5CBC97",
"[#	c #5DBC98",
"}#	c #5AB795",
"|#	c #4D9C82",
"1#	c #468D77",
"2#	c #4B967C",
"3#	c #3D796D",
"4#	c #3C766B",
"5#	c #468E78",
"6#	c #509F87",
"7#	c #53AC97",
"8#	c #5CC7C3",
"9#	c #5DCCCF",
"0#	c #448F93",
"a#	c #394E5E",
"b#	c #546380",
"c#	c #3B4C5F",
"d#	c #396F68",
"e#	c #4E9E8A",
"f#	c #53AA90",
"g#	c #53A78D",
"h#	c #52A58B",
"i#	c #4B9680",
"j#	c #3D7B6B",
"k#	c #387063",
"l#	c #387064",
"m#	c #438876",
"n#	c #4F9F86",
"o#	c #52A68E",
"p#	c #57BAA7",
"q#	c #5DCDD0",
"r#	c #5CC9D3",
"s#	c #408490",
"t#	c #415468",
"u#	c #3F4E63",
"v#	c #396D6C",
"w#	c #50A698",
"x#	c #55AF9C",
"y#	c #52A58D",
"z#	c #468E7A",
"A#	c #448976",
"B#	c #468D79",
"C#	c #4FA087",
"D#	c #51A38B",
"E#	c #53A993",
"F#	c #57BDAD",
"G#	c #55BABC",
"H#	c #4697A5",
"I#	c #476E86",
"J#	c #53647F",
"K#	c #586786",
"L#	c #495871",
"M#	c #3F6B72",
"N#	c #4C9E94",
"O#	c #55B3A3",
"P#	c #55B09C",
"Q#	c #50A188",
"R#	c #51A48B",
"S#	c #52A78F",
"T#	c #55B09A",
"U#	c #58BBAC",
"V#	c #5AC6C5",
"W#	c #52B1B3",
"X#	c #315B63",
"Y#	c #4C5C75",
"Z#	c #3E676E",
"`#	c #48988E",
" $	c #56B9A9",
".$	c #56B29F",
"+$	c #52A890",
"@$	c #53A890",
"#$	c #53A990",
"$$	c #55B19D",
"%$	c #5AC1B5",
"&$	c #5AC1B1",
"*$	c #5BC9C2",
"=$	c #5DCDD8",
"-$	c #53B4C0",
";$	c #355B65",
">$	c #4C5A74",
",$	c #3F6770",
"'$	c #48978E",
")$	c #57B6A6",
"!$	c #57B7A6",
"~$	c #56B7A6",
"{$	c #56B7A5",
"]$	c #5BC4BF",
"^$	c #60D4D7",
"/$	c #56BDB9",
"($	c #4AA0A2",
"_$	c #4A9DA8",
":$	c #4A8E9E",
"<$	c #4C647B",
"[$	c #4D5D76",
"}$	c #3B5F66",
"|$	c #4CA097",
"1$	c #56B8AA",
"2$	c #56B7AA",
"3$	c #59C1C1",
"4$	c #5AC7D7",
"5$	c #4898AB",
"6$	c #345461",
"7$	c #38515F",
"8$	c #475C72",
"9$	c #50627B",
"0$	c #406B71",
"a$	c #39726E",
"b$	c #38716D",
"c$	c #36706C",
"d$	c #397679",
"e$	c #3E7B87",
"f$	c #496E81",
"g$	c #50607C",
"h$	c #556481",
"i$	c #4A5971",
"j$	c #3F4F63",
"k$	c #404F64",
"l$	c #2B394E",
"m$	c #415066",
"n$	c #505F7B",
"                                          . . .                   . . .                   . + + ",
"                                          . . .                   . . .                   . + + ",
"                                          . . .                   . . .                   . . + ",
"                                          . . .                   . . .                   . . . ",
"                                          . . .                   . . .                   . . . ",
"                                          . . .                   . . .                   . . . ",
"                                          . . .   @ # $ % &       . . .                   . . . ",
"                                      * & = = = & - ; > , ' )     . . .                   . . . ",
"                                    * ! ~ { { ] ^ / ( _ : < [ *                           . . . ",
"                                } | 1 2 3 4 5 6 7 8 9 0 a b c }                           . . . ",
"                              } d e f g h i j k l m n o p q r s                           . . . ",
"                            | t u v w x y z A B C D E F G H r s                           . . . ",
"                          I J K L M N O P Q R S T U V W X Y Z `                           . . . ",
"                        |  ...+.@.#.$.%.&.P *.S T T C =.-.;.>.,.I                         . . . ",
"                      I '.).!.~.{.].^.&.%./.(._.T T C :.<.[.}.|.1.2.                      . . . ",
"                    @ d 3.4.5.6.T 7.Q %.8.9.0.T T T a.b.c.d.e.f.g.*                       . . . ",
"                    h.i.j.k.l.C m.n.o.p.q.r.T T T T a.s.t.u.v.w.x.y.z..                   . . . ",
"                  A.B.C.D.a E.F.G.H.I.J.K.T T T T L.M.N.O.P.Q.R.S.T.U..                   . . . ",
"                  V.W.X.Y.Z.`. +.+++@+#+$+T T T %+&+*+=+-+;+>+,+'+)+!+.                   . . . ",
"                2.~+{+]+^+/+(+_+:+<+[+}+|+1+2+3+4+5+6+7+8+9+0+a+b+c+d+e+                  . . . ",
"                2.f+g+h+u.i+j+k+l+m+n+o+p+q+r+s+t+u+v+w+x+y+z+A+B+C+D+E+F+            . . . . . ",
". . . . . . . . . G+H+I+u.J+K+L+M+N+O+P+Q+R+S+T+U+V+W+X+Y+Z+`+ @.@+@@@#@F+. . . . . . . . . . . ",
". . . . . . . . . G+$@%@&@*@=@-@;@>@,@'@)@!@~@{@]@^@/@(@_@:@<@[@}@+@|@#@F+. . . . . . . . . . . ",
". . . . . . . . . 1@2@3@4@^+5@6@7@8@9@0@a@u.b@b@c@d@e@f@g@h@i@j@k@l@m@#@F+. . . . . . . . . . . ",
"          . . . . n@o@p@q@u.b@r@s@t@u@v@w@b@b@b@b@x@y@z@A@B@C@D@E@F@G@H@*             . . . . . ",
"            . . . n@2@I@J@K@u.b@r@u.5@L@M@N@b@u.O@P@Q@R@S@T@U@V@W@X@Y@Z@2.                . . . ",
"            . . . `@ #.#+#@###u.N@N@{@$#%#x@&#*#=#-#;#>#>#,#'#)#!#~#{#]#                  . . . ",
"            . . . ^#/#(#_#;#:#v.<#[#}#|#1#2#2#3#4#5#6#>#,#7#8#9#0#a#b#                    . . . ",
"            . . .   | c#d#e#f#g#h#h#h#;#i#j#k#l#m#n#+#>#o#p#q#r#s#t#|                     . . . ",
"            . .     h.u#v#w#x#y#>#>#>#>#;#z#A#B#C#>#>#D#E#F#G#H#I#J#K#                    . . . ",
". . . . . .         A.L#M#N#O#P#y#>#>#>#>#S@Q#S@Q@R#S#T#U#V#W#X#g.*                       . . . ",
". . . . . .           & Y#Z#`# $.$+$S#S#+$@$#$@$@$$$%$&$*$=$-$;$f+2.                      . . . ",
". . . . .               * >$,$'$)$!$~$~$~${${${$!$]$^$/$($_$:$<$`                         . . . ",
"+ + . .                   K#[$}$|$1$1$1$1$1$1$1$2$3$4$5$6$7$8$@                           . . . ",
"+ . .                       ]#9$0$a$b$b$b$c$c$c$b$d$e$f$g$V.h$2.                          . . . ",
". . .                         @ i$j$k$k$k$l$l$l$k$j$m$n$*                                 . . . ",
"                                * * * * * = = = * * * 2.                                  . . . ",
"                                          . . .                                           . . . ",
"                                          . . .                                           . . . ",
"                                          . . .                                           . . . ",
"                                          . . .                                           . . . ",
"                                          . . .                                           . . . ",
"                                          . . .                                           . . . ",
"                                          . . .                                           . . . ",
"                                        . . . . .                                       . . . . ",
". . . . . . . . . . . . . . . . . . . . . . . . . . . . . . . . . . . . . . . . . . . . . . + + ",
"+ + + + + . . . . . . . . . . . . . . . . . . . . . . . . . . . . . + . . . . . + + + + + + + + ",
"+ + + + + + . . . . . . . . . . . . . . . . . . . . . . . . . . . + + + . . . + + + + + + + + + "};
