/* XPM */
static char * player5_xpm[] = {
"48 48 409 2",
"  	c #5A6988",
". 	c #3A4466",
"+ 	c #262B44",
"@ 	c #586785",
"# 	c #4F5E79",
"$ 	c #4E5C77",
"% 	c #323E5A",
"& 	c #566482",
"* 	c #546380",
"= 	c #294049",
"- 	c #233D40",
"; 	c #223C3F",
"> 	c #243D43",
", 	c #253D43",
"' 	c #243C43",
") 	c #4C5C75",
"! 	c #54637F",
"~ 	c #415166",
"{ 	c #405064",
"] 	c #445369",
"^ 	c #576683",
"/ 	c #52617C",
"( 	c #404F64",
"_ 	c #476E71",
": 	c #5BB196",
"< 	c #5FBA9C",
"[ 	c #60BA9C",
"} 	c #71BE9C",
"| 	c #78C09C",
"1 	c #73BB99",
"2 	c #519D81",
"3 	c #48987D",
"4 	c #51A385",
"5 	c #477873",
"6 	c #404E63",
"7 	c #3F4F63",
"8 	c #4D5C76",
"9 	c #576684",
"0 	c #546A7B",
"a 	c #507265",
"b 	c #4C7165",
"c 	c #416C65",
"d 	c #51667E",
"e 	c #4E6877",
"f 	c #426F65",
"g 	c #376962",
"h 	c #5B9781",
"i 	c #A0EEBB",
"j 	c #A8F7BF",
"k 	c #9EF4BF",
"l 	c #99F1BF",
"m 	c #98F0BF",
"n 	c #96EFBE",
"o 	c #7BDCAE",
"p 	c #6BD2A6",
"q 	c #64CCA1",
"r 	c #4C987D",
"s 	c #305A57",
"t 	c #405768",
"u 	c #566583",
"v 	c #596887",
"w 	c #3B4A5E",
"x 	c #74957D",
"y 	c #BFEDB4",
"z 	c #B1E9B5",
"A 	c #7CCFAC",
"B 	c #326762",
"C 	c #5E937D",
"D 	c #8CDFB4",
"E 	c #82DBB4",
"F 	c #92E2B6",
"G 	c #C6FBBF",
"H 	c #CCFEC0",
"I 	c #CAFEC0",
"J 	c #A8F4BF",
"K 	c #95EFBE",
"L 	c #84E1B3",
"M 	c #63C99F",
"N 	c #60C29A",
"O 	c #5CBA95",
"P 	c #4E9C85",
"Q 	c #376665",
"R 	c #2E404C",
"S 	c #2E414D",
"T 	c #3E4E62",
"U 	c #596886",
"V 	c #324351",
"W 	c #749E80",
"X 	c #C1FBBF",
"Y 	c #AEF2BA",
"Z 	c #7CDBAF",
"` 	c #64AF91",
" .	c #7DC7A1",
"..	c #B0F7BF",
"+.	c #C1FBC0",
"@.	c #CDFFC0",
"#.	c #C6FCC0",
"$.	c #BAF9C0",
"%.	c #A2F3BF",
"&.	c #88E3B5",
"*.	c #60C39C",
"=.	c #4B9780",
"-.	c #376864",
";.	c #3D766B",
">.	c #3B6F68",
",.	c #314157",
"'.	c #52607C",
").	c #5D977F",
"!.	c #96EDBE",
"~.	c #7EDBAE",
"{.	c #69CDA2",
"].	c #92EBBB",
"^.	c #BDFAC0",
"/.	c #CEFFC0",
"(.	c #B7F8C0",
"_.	c #88E3B4",
":.	c #5CBA96",
"<.	c #51A28A",
"[.	c #52A48B",
"}.	c #4A9480",
"|.	c #2C5351",
"1.	c #44536A",
"2.	c #324252",
"3.	c #3F7F6F",
"4.	c #6AD0A8",
"5.	c #81E3B5",
"6.	c #8BE5B6",
"7.	c #96EEBD",
"8.	c #87D5AA",
"9.	c #60987D",
"0.	c #779E7C",
"a.	c #91B98E",
"b.	c #B7F3BC",
"c.	c #ACF6BF",
"d.	c #95EBBB",
"e.	c #6FAF8E",
"f.	c #558F75",
"g.	c #3F7F69",
"h.	c #58B38F",
"i.	c #62C79E",
"j.	c #56AE8F",
"k.	c #51A490",
"l.	c #50AB9F",
"m.	c #468482",
"n.	c #3D4A5F",
"o.	c #556381",
"p.	c #51617C",
"q.	c #3D6464",
"r.	c #418C73",
"s.	c #5EC39A",
"t.	c #84E3B5",
"u.	c #90E9B9",
"v.	c #8DE0B2",
"w.	c #7DB99B",
"x.	c #606570",
"y.	c #3E4150",
"z.	c #355E55",
"A.	c #72C8A8",
"B.	c #89E3B7",
"C.	c #93ECBB",
"D.	c #91EABA",
"E.	c #8EE3B5",
"F.	c #89D5AC",
"G.	c #6A857F",
"H.	c #4F5260",
"I.	c #191933",
"J.	c #489276",
"K.	c #5DBD96",
"L.	c #62C89E",
"M.	c #62C69E",
"N.	c #60C29B",
"O.	c #56AD8F",
"P.	c #53AB95",
"Q.	c #59C0B0",
"R.	c #4DA297",
"S.	c #366867",
"T.	c #4C6177",
"U.	c #556481",
"V.	c #47546D",
"W.	c #2E4D50",
"X.	c #57AE8D",
"Y.	c #60C49C",
"Z.	c #63C89F",
"`.	c #67CCA1",
" +	c #66C49C",
".+	c #407260",
"++	c #89989C",
"@+	c #CBD5E0",
"#+	c #848B9A",
"$+	c #222E44",
"%+	c #1E4346",
"&+	c #6FB592",
"*+	c #97EFBE",
"=+	c #79D8AB",
"-+	c #68CCA2",
";+	c #6CD0A5",
">+	c #559E80",
",+	c #4F6262",
"'+	c #BCC8D1",
")+	c #A8B1BE",
"!+	c #272A4C",
"~+	c #233741",
"{+	c #356A5B",
"]+	c #5DBC98",
"^+	c #52A68C",
"/+	c #51A48A",
"(+	c #51A48B",
"_+	c #52A68E",
":+	c #55B4A2",
"<+	c #56BBAE",
"[+	c #386B6C",
"}+	c #3C495E",
"|+	c #374162",
"1+	c #2E3852",
"2+	c #386362",
"3+	c #448776",
"4+	c #56AC8E",
"5+	c #5EBF99",
"6+	c #5FC199",
"7+	c #2D574F",
"8+	c #686E7A",
"9+	c #A2ABB9",
"0+	c #6F778E",
"a+	c #292E54",
"b+	c #1A1B35",
"c+	c #5D9F81",
"d+	c #83E1B2",
"e+	c #6CCFA4",
"f+	c #468F74",
"g+	c #353747",
"h+	c #959DAA",
"i+	c #8991A4",
"j+	c #383F64",
"k+	c #242845",
"l+	c #2A504C",
"m+	c #56AF8E",
"n+	c #57B091",
"o+	c #51A38A",
"p+	c #56B6A4",
"q+	c #5AC3B5",
"r+	c #4B9D88",
"s+	c #3D7668",
"t+	c #32465A",
"u+	c #35405F",
"v+	c #3A4465",
"w+	c #35415D",
"x+	c #274246",
"y+	c #448475",
"z+	c #51A289",
"A+	c #56AE90",
"B+	c #305E53",
"C+	c #1C2538",
"D+	c #26294A",
"E+	c #333A62",
"F+	c #384462",
"G+	c #1F2B3C",
"H+	c #479276",
"I+	c #62CAA0",
"J+	c #489377",
"K+	c #1B2635",
"L+	c #222542",
"M+	c #2E335A",
"N+	c #3C4568",
"O+	c #2B364F",
"P+	c #294C4B",
"Q+	c #4C9982",
"R+	c #57B7A5",
"S+	c #5BC8BA",
"T+	c #5DCCC1",
"U+	c #51AEA6",
"V+	c #284A4C",
"W+	c #2F3C55",
"X+	c #2E3D54",
"Y+	c #345B5B",
"Z+	c #45826F",
"`+	c #4D9780",
" @	c #5EBE99",
".@	c #62C79D",
"+@	c #5AB691",
"@@	c #458C72",
"#@	c #191A34",
"$@	c #222441",
"%@	c #335758",
"&@	c #53A787",
"*@	c #5DBC95",
"=@	c #52A786",
"-@	c #2B504C",
";@	c #1F213D",
">@	c #252945",
",@	c #3C7369",
"'@	c #49947E",
")@	c #50A189",
"!@	c #53AA93",
"~@	c #58BBAA",
"{@	c #5AC1B2",
"]@	c #5CC8BD",
"^@	c #63DCEA",
"/@	c #57C0CE",
"(@	c #28494B",
"_@	c #39495B",
":@	c #387069",
"<@	c #54B09D",
"[@	c #54AD97",
"}@	c #58B393",
"|@	c #5FC19A",
"1@	c #5FC19B",
"2@	c #50A282",
"3@	c #2B4A3F",
"4@	c #2B493F",
"5@	c #376956",
"6@	c #54AB89",
"7@	c #5CBC96",
"8@	c #61C69D",
"9@	c #468C76",
"0@	c #52A890",
"a@	c #54AD98",
"b@	c #52A891",
"c@	c #55B09B",
"d@	c #5BC5B6",
"e@	c #5DCBC4",
"f@	c #5FD1D3",
"g@	c #64DFF2",
"h@	c #58C2D5",
"i@	c #48576F",
"j@	c #39485A",
"k@	c #3A7772",
"l@	c #59C1B4",
"m@	c #57B7A4",
"n@	c #52A48A",
"o@	c #50A187",
"p@	c #4E9C83",
"q@	c #4F9D83",
"r@	c #49907A",
"s@	c #2D5550",
"t@	c #41826F",
"u@	c #55AA8F",
"v@	c #54A98D",
"w@	c #50A086",
"x@	c #55B29F",
"y@	c #5BC5B7",
"z@	c #5AC3B3",
"A@	c #5AC4B4",
"B@	c #5BC7B7",
"C@	c #61D7DE",
"D@	c #65E2F8",
"E@	c #65E3F9",
"F@	c #58C4D6",
"G@	c #48576E",
"H@	c #476B76",
"I@	c #469089",
"J@	c #50A99B",
"K@	c #57B8A5",
"L@	c #56B7A4",
"M@	c #57BAA9",
"N@	c #59BFAF",
"O@	c #56B9AA",
"P@	c #4BA297",
"Q@	c #41887F",
"R@	c #366963",
"S@	c #376B64",
"T@	c #59BEAE",
"U@	c #5BC7BB",
"V@	c #61D8DB",
"W@	c #5DCED4",
"X@	c #499C94",
"Y@	c #4BA1A7",
"Z@	c #4EABBB",
"`@	c #4FACBC",
" #	c #4C95A5",
".#	c #475C70",
"+#	c #52617D",
"@#	c #53627E",
"##	c #283442",
"$#	c #46918A",
"%#	c #59C1B3",
"&#	c #59C0B3",
"*#	c #46978E",
"=#	c #264547",
"-#	c #58BFB4",
";#	c #5FD3E1",
">#	c #57C3D6",
",#	c #2C4B53",
"'#	c #273A41",
")#	c #263A41",
"!#	c #26393F",
"~#	c #3F4E62",
"{#	c #596786",
"]#	c #54627F",
"^#	c #466A76",
"/#	c #397570",
"(#	c #38726F",
"_#	c #397470",
":#	c #31625F",
"<#	c #274648",
"[#	c #397370",
"}#	c #3C7B81",
"|#	c #407583",
"1#	c #52627E",
"2#	c #53617E",
"3#	c #556482",
"4#	c #283849",
"5#	c #29394A",
"6#	c #3B4B5D",
"7#	c #3C4F60",
"8#	c #3F5464",
"9#	c #2E4554",
"0#	c #2B3E4F",
"a#	c #3A4A5C",
"b#	c #45546A",
"                                          . . .                   . . .                   . + + ",
"                                          . . .                   . . .                   . + + ",
"                                          . . .                   . . .                   . . + ",
"                                          . . .                   . . .                   . . . ",
"                                          . . .                   . . .                   . . . ",
"                                          . . .                   . . .                   . . . ",
"                                          . . .                   . . .                   . . . ",
"                                          . . .                   . . .                   . . . ",
"                                          . . .                                           . . . ",
"                                          . . .                                           . . . ",
"                                          . . .                                           . . . ",
"                                @ # $ $ $ % % % $ $ $ $ &                                 . . . ",
"                                * = - - - ; ; ; - > , ' )                                 . . . ",
"                ! ~ { ] ^ / { ( _ : < [ } | | | 1 2 3 4 5 6 7 8                           . . . ",
"              9 0 a b c d e f g h i j j k l m m n o p q r s s t u u 9                     . . . ",
"            v w x y z A B C D E F G H I J m m m m K L M N O P Q R S T v                   . . . ",
"            U V W X Y Z `  .l ..+.@.#.$.%.m m m m m &.M M M *.=.-.;.>.,.'.                . . . ",
"            U V ).!.~.{.].m m ^././.(.m m m m m m m _.M M M M :.<.[.}.|.1.                . . . ",
"            U 2.3.4.5.6.7.8.9.0.a.b.c.m m m m m d.e.f.g.h.M M i.*.j.k.l.m.n.o.            . . . ",
"          u p.q.r.s.t.u.v.w.x.y.z.A.B.m C.D.D.E.F.G.H.I.J.K.L.M.N.O.P.Q.R.S.T.U.          . . . ",
"          V.W.X.Y.Z.`. +.+++@+#+$+%+&+*+=+-+;+>+,+'+)+!+~+{+N ]+^+/+(+_+:+<+[+}+      . . . . . ",
". . . |+1+2+3+4+5+M M 6+7+8+9+0+a+b+c+d+e+M M f+g+h+i+j+k+l+m+n+o+o+o+o+p+q+r+s+t+u+. . . . . . ",
". . v+w+x+y+o+z+A+L.M 6+B+C+D+E+F+G+H+I+M M M J+K+L+M+N+O+P+Q+o+o+o+o+(+R+S+T+U+V+W+. . . . . . ",
". . X+Y+Z+`+o+o+^+O. @.@+@@@#@$@%@&@*@M M M M *@=@-@;@>@,@'@)@o+o+o+!@~@{@]@^@/@(@W+. . . . . . ",
"    _@:@<@[@o+o+o+o+}@|@1@2@3@4@5@6@7@M.8@8@M.7@6@5@4@3@9@o+o+0@a@b@c@d@e@f@g@h@(@i@  . . . . . ",
"    j@k@l@m@o+o+o+o+/+(+n@o@p@q@r@s@t@u@v@v@u@t@s@r@q@p@w@z+o+x@y@z@A@B@C@D@E@F@V+G@      . . . ",
"    $ H@I@J@K@R+R+R+R+R+L@M@N@Q.O@P@Q@R@S@S@R@Q@P@O@Q.N@M@L@p+T@U@V@W@X@Y@Z@`@ #.#+#      . . . ",
"      @###$#%#&#&#&#&#&#&#&#&#&#&#%#*#=#=#=#=#*#%#&#&#&#&#&#&#&#-#;#>#,#'#)#!#~#          . . . ",
"      {#]#^#/#(#(#(#(#(#(#(#(#(#(#_#:#<#=#=#<#:#_#(#(#(#(#(#(#(#[#}#|#1#2#2#+#3#          . . . ",
"          8 4#5#6#6#6#6#6#6#6#6#6#6#7#8#8#9#9#0#6#6#6#6#6#6#6#6#6#a#b#v                   . . . ",
". . . . . .                               . . .                                           . . . ",
". . . . . .                               . . .                                           . . . ",
". . . . .                                 . . .                                           . . . ",
"+ + . .                                   . . .                                           . . . ",
"+ . .                                     . . .                                           . . . ",
". . .                                     . . .                                           . . . ",
"                                          . . .                                           . . . ",
"                                          . . .                                           . . . ",
"                                          . . .                                           . . . ",
"                                          . . .                                           . . . ",
"                                          . . .                                           . . . ",
"                                          . . .                                           . . . ",
"                                          . . .                                           . . . ",
"                                          . . .                                           . . . ",
"                                        . . . . .                                       . . . . ",
". . . . . . . . . . . . . . . . . . . . . . . . . . . . . . . . . . . . . . . . . . . . . . + + ",
"+ + + + + . . . . . . . . . . . . . . . . . . . . . . . . . . . . . + . . . . . + + + + + + + + ",
"+ + + + + + . . . . . . . . . . . . . . . . . . . . . . . . . . . + + + . . . + + + + + + + + + "};
