/* XPM */
static char * player6_xpm[] = {
"48 48 421 2",
"  	c #5A6988",
". 	c #3A4466",
"+ 	c #262B44",
"@ 	c #596887",
"# 	c #586785",
"$ 	c #596786",
"% 	c #5A6987",
"& 	c #4C5C74",
"* 	c #3B4D5E",
"= 	c #3A4C5C",
"- 	c #46566C",
"; 	c #586786",
"> 	c #546480",
", 	c #527778",
"' 	c #508574",
") 	c #467F6E",
"! 	c #3F6B69",
"~ 	c #50637C",
"{ 	c #576683",
"] 	c #51607C",
"^ 	c #324B52",
"/ 	c #74B897",
"( 	c #8CE3B5",
"_ 	c #77D5AA",
": 	c #4A9E81",
"< 	c #325558",
"[ 	c #47566E",
"} 	c #505F7A",
"| 	c #2A4548",
"1 	c #6AB494",
"2 	c #83E2B3",
"3 	c #70D2A7",
"4 	c #4B9D82",
"5 	c #2D5151",
"6 	c #45546B",
"7 	c #314853",
"8 	c #4B987E",
"9 	c #58B893",
"0 	c #53AB8E",
"a 	c #427C74",
"b 	c #324F57",
"c 	c #43676E",
"d 	c #366C61",
"e 	c #34665F",
"f 	c #3B5A64",
"g 	c #50627B",
"h 	c #566582",
"i 	c #4C5B74",
"j 	c #323D59",
"k 	c #313D58",
"l 	c #4D5C76",
"m 	c #566583",
"n 	c #4E6178",
"o 	c #325150",
"p 	c #345450",
"q 	c #30514C",
"r 	c #27484A",
"s 	c #28494A",
"t 	c #314F55",
"u 	c #4F6079",
"v 	c #596886",
"w 	c #4E5C77",
"x 	c #3B4A5D",
"y 	c #3C4B5E",
"z 	c #517C74",
"A 	c #7CC6A2",
"B 	c #7EC8A4",
"C 	c #75BF9C",
"D 	c #4F9E81",
"E 	c #4B9F82",
"F 	c #50A285",
"G 	c #426F6C",
"H 	c #3B4A5E",
"I 	c #3C4A5E",
"J 	c #404F64",
"K 	c #556481",
"L 	c #53627E",
"M 	c #53637E",
"N 	c #4A6F74",
"O 	c #53816F",
"P 	c #5F816D",
"Q 	c #78B090",
"R 	c #96EDBD",
"S 	c #97EEBE",
"T 	c #91EBBB",
"U 	c #79DBAE",
"V 	c #6BD1A5",
"W 	c #61C59C",
"X 	c #499479",
"Y 	c #396B61",
"Z 	c #396D62",
"` 	c #386B61",
" .	c #35605E",
"..	c #4D6077",
"+.	c #54627F",
"@.	c #384363",
"#.	c #566683",
"$.	c #3E5063",
"%.	c #314850",
"&.	c #345457",
"*.	c #5BA88F",
"=.	c #9AE2B1",
"-.	c #B9E9B2",
";.	c #B2EDB7",
">.	c #99F0BF",
",.	c #98F0BF",
"'.	c #97EFBE",
").	c #93EDBD",
"!.	c #7FDEB0",
"~.	c #64C99F",
"{.	c #5DBE97",
"].	c #5BB994",
"^.	c #5CBA94",
"/.	c #58B290",
"(.	c #488F7C",
"_.	c #34585B",
":.	c #2F4550",
"<.	c #314651",
"[.	c #34425C",
"}.	c #3A4465",
"|.	c #4D5E77",
"1.	c #4A5972",
"2.	c #465B6E",
"3.	c #417B6F",
"4.	c #5BA086",
"5.	c #67AB8E",
"6.	c #65B595",
"7.	c #88C89C",
"8.	c #A5D09E",
"9.	c #A5DEAB",
"0.	c #98EFBE",
"a.	c #96EEBD",
"b.	c #8BE6B7",
"c.	c #79D8AB",
"d.	c #63C99F",
"e.	c #55B18C",
"f.	c #4FA281",
"g.	c #51A584",
"h.	c #55AC8C",
"i.	c #4F9F87",
"j.	c #428274",
"k.	c #418176",
"l.	c #459089",
"m.	c #37646B",
"n.	c #303C56",
"o.	c #2F3B55",
"p.	c #50617B",
"q.	c #2F4A51",
"r.	c #2C494D",
"s.	c #315E58",
"t.	c #4FA988",
"u.	c #7BDAAD",
"v.	c #8BE1B4",
"w.	c #71AC90",
"x.	c #465458",
"y.	c #3D4B49",
"z.	c #5F9378",
"A.	c #93E8B9",
"B.	c #8FE8B9",
"C.	c #6DCFA5",
"D.	c #62C89E",
"E.	c #5FBF98",
"F.	c #4C7F6F",
"G.	c #3A4950",
"H.	c #294145",
"I.	c #3B7667",
"J.	c #4F9E86",
"K.	c #4FA088",
"L.	c #53AC96",
"M.	c #58BFB0",
"N.	c #438C83",
"O.	c #2C5151",
"P.	c #2D5455",
"Q.	c #425E6C",
"R.	c #576684",
"S.	c #4F5F7A",
"T.	c #3A4C5E",
"U.	c #3A4C5D",
"V.	c #364B58",
"W.	c #274347",
"X.	c #356660",
"Y.	c #4A9680",
"Z.	c #5CBE98",
"`.	c #63BF98",
" +	c #639B84",
".+	c #92A9A7",
"++	c #A7B0BB",
"@+	c #565B6B",
"#+	c #3B5B55",
"$+	c #5D947A",
"%+	c #70C49D",
"&+	c #74D4A8",
"*+	c #67CCA2",
"=+	c #53AA87",
"-+	c #518976",
";+	c #9CACB1",
">+	c #9CA4B1",
",+	c #474D5E",
"'+	c #274548",
")+	c #366C60",
"!+	c #4C9780",
"~+	c #52A891",
"{+	c #54AF9A",
"]+	c #4E9D8A",
"^+	c #499482",
"/+	c #4FA99D",
"(+	c #448D87",
"_+	c #3B5361",
":+	c #394B5B",
"<+	c #435368",
"[+	c #394365",
"}+	c #36405F",
"|+	c #35515E",
"1+	c #366861",
"2+	c #376962",
"3+	c #366760",
"4+	c #32615A",
"5+	c #3F7F71",
"6+	c #54AB8E",
"7+	c #60C09B",
"8+	c #4DA282",
"9+	c #395255",
"0+	c #9298A3",
"a+	c #B8C2D0",
"b+	c #636980",
"c+	c #252747",
"d+	c #1D2C38",
"e+	c #51A887",
"f+	c #61C79E",
"g+	c #61C69D",
"h+	c #448A72",
"i+	c #465159",
"j+	c #A7AFBB",
"k+	c #ADB7C5",
"l+	c #525771",
"m+	c #1F2140",
"n+	c #20363E",
"o+	c #49927D",
"p+	c #51A48A",
"q+	c #51A28A",
"r+	c #51A38A",
"s+	c #53A891",
"t+	c #58BDAD",
"u+	c #4EA699",
"v+	c #3C7C78",
"w+	c #3E8087",
"x+	c #3B7580",
"y+	c #364B64",
"z+	c #374162",
"A+	c #374161",
"B+	c #263A46",
"C+	c #3C746A",
"D+	c #4E9E86",
"E+	c #53A88D",
"F+	c #468C77",
"G+	c #263D43",
"H+	c #3A3D50",
"I+	c #4E546E",
"J+	c #40486C",
"K+	c #333A5A",
"L+	c #1E2D3A",
"M+	c #54AB88",
"N+	c #58B292",
"O+	c #386F65",
"P+	c #232D3C",
"Q+	c #43465A",
"R+	c #4D5370",
"S+	c #3E466A",
"T+	c #2D3251",
"U+	c #223840",
"V+	c #51A48B",
"W+	c #52A68E",
"X+	c #53AA95",
"Y+	c #59C1B5",
"Z+	c #60D7E5",
"`+	c #5BCADD",
" @	c #336771",
".@	c #2B364D",
"+@	c #394465",
"@@	c #333F5B",
"#@	c #365A64",
"$@	c #46928C",
"%@	c #4EA091",
"&@	c #4C967E",
"*@	c #3B6F5A",
"=@	c #2A4843",
"-@	c #202240",
";@	c #2C3251",
">@	c #334C54",
",@	c #396C58",
"'@	c #54AA89",
")@	c #5DBC98",
"!@	c #55AB8F",
"~@	c #458772",
"{@	c #376754",
"]@	c #253C40",
"^@	c #232444",
"/@	c #2D3552",
"(@	c #345254",
"_@	c #3C725C",
":@	c #4C9880",
"<@	c #55B29F",
"[@	c #57B9A8",
"}@	c #5BC7B9",
"|@	c #5FD3D5",
"1@	c #5DCED7",
"2@	c #53B5C3",
"3@	c #438A9A",
"4@	c #31445A",
"5@	c #364160",
"6@	c #3E4F62",
"7@	c #376F6B",
"8@	c #57BCAE",
"9@	c #58BBAA",
"0@	c #52A78F",
"a@	c #52A68F",
"b@	c #52AA94",
"c@	c #3F8174",
"d@	c #23434A",
"e@	c #24464C",
"f@	c #38736A",
"g@	c #4E9E89",
"h@	c #4C9883",
"i@	c #4E9D85",
"j@	c #51A48C",
"k@	c #51A691",
"l@	c #377068",
"m@	c #264B4F",
"n@	c #3F8275",
"o@	c #54AC96",
"p@	c #5AC1B2",
"q@	c #5CC8BC",
"r@	c #5CC9BF",
"s@	c #5CC8BF",
"t@	c #5ECECC",
"u@	c #63DDEE",
"v@	c #55BBCD",
"w@	c #2B4C54",
"x@	c #333E5B",
"y@	c #3E4E61",
"z@	c #38716D",
"A@	c #57BCAF",
"B@	c #5AC4B5",
"C@	c #5AC1B1",
"D@	c #5AC0B1",
"E@	c #59C0B1",
"F@	c #5AC2B3",
"G@	c #5AC3B4",
"H@	c #57BDAF",
"I@	c #53B5A9",
"J@	c #55BAAD",
"K@	c #59C1B3",
"L@	c #40877E",
"M@	c #2E5956",
"N@	c #305C56",
"O@	c #4A9D91",
"P@	c #59BFB1",
"Q@	c #56BBAE",
"R@	c #54B5A9",
"S@	c #5BC5B5",
"T@	c #5FD2D2",
"U@	c #63DDED",
"V@	c #63DEEE",
"W@	c #64DFF2",
"X@	c #64E0F5",
"Y@	c #55BCCC",
"Z@	c #2A4D54",
"`@	c #495870",
" #	c #416A70",
".#	c #4FA59B",
"+#	c #50ACA1",
"@#	c #50ABA0",
"##	c #50ACA0",
"$#	c #4FAA9F",
"%#	c #37726E",
"&#	c #264648",
"*#	c #274749",
"=#	c #3D807A",
"-#	c #50AB9F",
";#	c #53B4B8",
">#	c #58C2D4",
",#	c #58C4D6",
"'#	c #58C3D5",
")#	c #58C2D5",
"!#	c #4FA1B1",
"~#	c #3F5567",
"{#	c #52617C",
"]#	c #536580",
"^#	c #375960",
"/#	c #2F5758",
"(#	c #2D5557",
"_#	c #2C5355",
":#	c #2C5456",
"<#	c #2E5657",
"[#	c #2E5557",
"}#	c #2F5759",
"|#	c #2F5658",
"1#	c #2E5556",
"2#	c #2C4D50",
"3#	c #274549",
"4#	c #28464A",
"5#	c #2A4E4F",
"6#	c #2E5456",
"7#	c #2E5658",
"8#	c #2F5657",
"9#	c #30595C",
"0#	c #305960",
"a#	c #305A61",
"b#	c #315C63",
"c#	c #325B63",
"d#	c #445F71",
"e#	c #576784",
"f#	c #4C5A74",
"g#	c #495770",
"h#	c #303C55",
"i#	c #4A5A72",
"j#	c #33445B",
"k#	c #33445C",
"l#	c #313F58",
"m#	c #52607C",
"n#	c #5A6887",
"                                          . . .                   . . .                   . + + ",
"                                          . . .                   . . .                   . + + ",
"                                          . . .                   . . .                   . . + ",
"                                          . . .                   . . .                   . . . ",
"                                          . . .                   . . .                   . . . ",
"                                          . . .                   . . .                   . . . ",
"                    @ # # $               . . .                   . . .                   . . . ",
"                  % & * = - #             . . .                   . . .                   . . . ",
"                ; > , ' ) ! ~ {           . . .                                           . . . ",
"                ] ^ / ( _ : < [           . . .                                           . . . ",
"                } | 1 2 3 4 5 6 %         . . .                                           . . . ",
"                ] 7 8 9 0 a b [           . . .                                           . . . ",
"                ; > c d e f g {           . . .                                           . . . ",
"                  % & * = - #       h i i j k k l m                                       . . . ",
"                    @ # # $   @ ; # n o p q r s t u # # # v %                             . . . ",
"                            @ w x y z A B C D E F G H I I J h                             . . . ",
"                      @ K L M N O P Q R S T U V W X Y Z `  ...+.L @.. .                   . . . ",
"                  % @ #.$.%.&.*.=.-.;.>.,.'.).!.~.{.].^./.(._.:.<.[.}.}.                  . . . ",
"                # |.1.2.3.4.5.6.7.8.9.0.,.a.b.c.d.e.f.g.h.i.j.k.l.m.n.o.] %               . . . ",
"          @ # # p.q.r.s.t.u.v.w.x.y.z.A.R B.C.D.E.F.G.H.I.J.K.L.M.N.O.P.Q.R.# ;           . . . ",
"          S.T.U.V.W.X.Y.Z.`. +.+++@+#+$+%+&+*+=+-+;+>+,+'+)+!+~+{+]+^+/+(+_+:+<+{     . . . . . ",
". . . [+}+|+1+2+3+4+5+6+7+8+9+0+a+b+c+d+e+f+g+h+i+j+k+l+m+n+o+p+q+r+s+t+u+v+w+x+y+z+. . . . . . ",
". . . A+B+C+J.J.J.D+i.p+E+F+G+H+I+J+K+L+M+g+N+O+P+Q+R+S+T+U+o+r+r+r+V+W+X+Y+Z+`+ @.@[+. . . . . ",
". +@@@#@$@%@r+r+r+r+r+r+r+&@*@=@-@;@>@,@'@)@!@~@{@]@^@/@(@_@:@r+r+r+W+<@[@}@|@1@2@3@4@5@. . . . ",
"  ; 6@7@8@9@0@0@0@a@0@0@a@s+b@c@d@e@f@b@g@h@i@j@k@l@d@m@n@o@s+0@a@a@L.p@q@r@s@t@u@v@w@x@. . . . ",
"  ; y@z@A@B@C@D@D@D@D@D@E@F@G@H@I@I@J@K@L@M@N@O@P@Q@I@R@A@G@p@E@D@D@p@S@T@U@V@W@X@Y@Z@w   . . . ",
"  v `@ #.#+#@#+#+#@#+#+#@#+#+###@###+#$#%#&#*#=#$#+#@###+#@#+#+#@###+#-#;#>#,#'#)#!#~#{#  . . . ",
"    v ]#^#/#(#_#:#(#<#[#}#|#1#/#}#[#<#/#2#3#4#5#6#|#}#[#<#}#7#[#}#/#1#8#9#0#a#b#c#d#e#@   . . . ",
"      # f#g#h#h#h#g#g#g#g#g#g#g#g#g#g#g#i#j#k#l#g#g#g#g#g#g#g#g#g#g#g#g#g#g#g#g#g#m#%     . . . ",
"        @ @ }.}.@ n#@ @ @ @ @ @ @ @ @ n#@ . . }.@ @ @ @ @ n#@ @ @ @ @ @ n#@ @ n#@         . . . ",
". . . . . .                               . . .                                           . . . ",
". . . . . .                               . . .                                           . . . ",
". . . . .                                 . . .                                           . . . ",
"+ + . .                                   . . .                                           . . . ",
"+ . .                                     . . .                                           . . . ",
". . .                                     . . .                                           . . . ",
"                                          . . .                                           . . . ",
"                                          . . .                                           . . . ",
"                                          . . .                                           . . . ",
"                                          . . .                                           . . . ",
"                                          . . .                                           . . . ",
"                                          . . .                                           . . . ",
"                                          . . .                                           . . . ",
"                                          . . .                                           . . . ",
"                                        . . . . .                                       . . . . ",
". . . . . . . . . . . . . . . . . . . . . . . . . . . . . . . . . . . . . . . . . . . . . . + + ",
"+ + + + + . . . . . . . . . . . . . . . . . . . . . . . . . . . . . + . . . . . + + + + + + + + ",
"+ + + + + + . . . . . . . . . . . . . . . . . . . . . . . . . . . + + + . . . + + + + + + + + + "};
