/* XPM */
static char * player_b_xpm[] = {
"48 48 297 2",
"  	c #5A6988",
". 	c #3A4466",
"+ 	c #262B44",
"@ 	c #4C5E75",
"# 	c #46596D",
"$ 	c #586785",
"% 	c #54627F",
"& 	c #515F7B",
"* 	c #51607B",
"= 	c #343F5D",
"- 	c #51607C",
"; 	c #576683",
"> 	c #5A6987",
", 	c #46596E",
"' 	c #3E5363",
") 	c #576784",
"! 	c #596887",
"~ 	c #566683",
"{ 	c #39545E",
"] 	c #2F5052",
"^ 	c #2F5051",
"/ 	c #2D4C50",
"( 	c #315050",
"_ 	c #33544F",
": 	c #33544E",
"< 	c #2D534F",
"[ 	c #2F5554",
"} 	c #305655",
"| 	c #495F72",
"1 	c #576684",
"2 	c #3B535E",
"3 	c #51A185",
"4 	c #58B190",
"5 	c #53AB8C",
"6 	c #4AA082",
"7 	c #66B593",
"8 	c #82D0A9",
"9 	c #82CEA8",
"0 	c #73CAA8",
"a 	c #67C7A8",
"b 	c #65C4A6",
"c 	c #508F80",
"d 	c #384A5A",
"e 	c #384859",
"f 	c #52617D",
"g 	c #53617E",
"h 	c #415468",
"i 	c #3A7067",
"j 	c #5DBC97",
"k 	c #63C99F",
"l 	c #66CBA1",
"m 	c #77DBAE",
"n 	c #8AE7B7",
"o 	c #97EFBF",
"p 	c #98EFBF",
"q 	c #A9F3BF",
"r 	c #B5F7BF",
"s 	c #B2F5BE",
"t 	c #85C6A0",
"u 	c #478A77",
"v 	c #568E7A",
"w 	c #507175",
"x 	c #566583",
"y 	c #334653",
"z 	c #386965",
"A 	c #53A68C",
"B 	c #62C69E",
"C 	c #6BCEA3",
"D 	c #91EABA",
"E 	c #97F0BF",
"F 	c #98F0BF",
"G 	c #99F0BF",
"H 	c #B7F8BF",
"I 	c #CDFFC0",
"J 	c #CCFEC0",
"K 	c #B2F6BD",
"L 	c #91EDBC",
"M 	c #97EEBB",
"N 	c #66A389",
"O 	c #324352",
"P 	c #52607C",
"Q 	c #3E5665",
"R 	c #40786F",
"S 	c #55AB8D",
"T 	c #61C69D",
"U 	c #92EBBB",
"V 	c #A2F3BF",
"W 	c #B4F7BF",
"X 	c #CBFEC0",
"Y 	c #BEFAC0",
"Z 	c #9DF1BF",
"` 	c #8BDDB2",
" .	c #73B797",
"..	c #455F65",
"+.	c #4A5872",
"@.	c #2D4E51",
"#.	c #478D7E",
"$.	c #5EBF9A",
"%.	c #69CCA2",
"&.	c #87E2B4",
"*.	c #94ECBB",
"=.	c #BDFABF",
"-.	c #C3FCC0",
";.	c #BBFAC0",
">.	c #9BF1BF",
",.	c #91E7B9",
"'.	c #4D8E78",
").	c #44606D",
"!.	c #53627E",
"~.	c #4A5972",
"{.	c #478C7D",
"].	c #5DBD98",
"^.	c #62C79E",
"/.	c #80DCAF",
"(.	c #96EEBD",
"_.	c #9CF1BF",
":.	c #97EFBE",
"<.	c #90EABA",
"[.	c #67C9A1",
"}.	c #3A7B6A",
"|.	c #293D4C",
"1.	c #3A4465",
"2.	c #4A5871",
"3.	c #2E5051",
"4.	c #4A9481",
"5.	c #54AA8E",
"6.	c #58B191",
"7.	c #62C59D",
"8.	c #69CDA3",
"9.	c #7CD9AD",
"0.	c #95EDBE",
"a.	c #87E2B3",
"b.	c #72D4A8",
"c.	c #65CAA0",
"d.	c #428773",
"e.	c #273D49",
"f.	c #52627E",
"g.	c #466775",
"h.	c #3E7D75",
"i.	c #4E9D88",
"j.	c #51A38A",
"k.	c #51A48B",
"l.	c #5CBA96",
"m.	c #61C59D",
"n.	c #68CCA1",
"o.	c #87E3B4",
"p.	c #8DE7B7",
"q.	c #8CE7B7",
"r.	c #8CE6B7",
"s.	c #73D4A8",
"t.	c #62C69D",
"u.	c #51A285",
"v.	c #396B62",
"w.	c #36475F",
"x.	c #384363",
"y.	c #384C5B",
"z.	c #458E88",
"A.	c #56B9AB",
"B.	c #53AC95",
"C.	c #52A58B",
"D.	c #5AB695",
"E.	c #63C89E",
"F.	c #66CBA0",
"G.	c #67CBA1",
"H.	c #64CAA0",
"I.	c #59B18E",
"J.	c #2C4F50",
"K.	c #323D59",
"L.	c #364B59",
"M.	c #448F88",
"N.	c #58BCAE",
"O.	c #54AC95",
"P.	c #53A88C",
"Q.	c #59B393",
"R.	c #59B491",
"S.	c #2B4F4D",
"T.	c #313D58",
"U.	c #283E4A",
"V.	c #52A68C",
"W.	c #5EBF99",
"X.	c #5FC09A",
"Y.	c #62C89E",
"Z.	c #54A88A",
"`.	c #2A4E4D",
" +	c #449088",
".+	c #54AE98",
"++	c #51A48A",
"@+	c #54A98D",
"#+	c #60C49C",
"$+	c #63C89F",
"%+	c #5CBB97",
"&+	c #478D7D",
"*+	c #284A4B",
"=+	c #448E88",
"-+	c #59C0B2",
";+	c #5AC2B2",
">+	c #56B4A1",
",+	c #52A48B",
"'+	c #55AC8F",
")+	c #5EBE99",
"!+	c #5CBA97",
"~+	c #56AE90",
"{+	c #56AD90",
"]+	c #55AB8E",
"^+	c #48907E",
"/+	c #284B4B",
"(+	c #283E4B",
"_+	c #469395",
":+	c #5DCCC9",
"<+	c #5DCDC4",
"[+	c #56B6A3",
"}+	c #51A38B",
"|+	c #58B292",
"1+	c #54AD96",
"2+	c #4EA08E",
"3+	c #2A4C4D",
"4+	c #4C5A74",
"5+	c #2A3F4D",
"6+	c #4797A4",
"7+	c #60D4E2",
"8+	c #5FD1D4",
"9+	c #56B5A3",
"0+	c #52A68F",
"a+	c #56B7A6",
"b+	c #50A89D",
"c+	c #2E4F54",
"d+	c #4D5C76",
"e+	c #364260",
"f+	c #365E6F",
"g+	c #4896A2",
"h+	c #60D7E6",
"i+	c #5FD3D7",
"j+	c #55B29D",
"k+	c #53AA92",
"l+	c #57B8A8",
"m+	c #4EA59A",
"n+	c #407475",
"o+	c #50627B",
"p+	c #3E5C6E",
"q+	c #50AEC2",
"r+	c #5ED1DB",
"s+	c #5FD3D4",
"t+	c #57B6A7",
"u+	c #54B09B",
"v+	c #55AF9B",
"w+	c #51A58D",
"x+	c #53AB95",
"y+	c #54B09E",
"z+	c #50A89C",
"A+	c #427779",
"B+	c #435168",
"C+	c #324351",
"D+	c #499CAC",
"E+	c #63DDF0",
"F+	c #5CCAC5",
"G+	c #5AC4B5",
"H+	c #5AC3B3",
"I+	c #53AA94",
"J+	c #51A58C",
"K+	c #52A58D",
"L+	c #51A48C",
"M+	c #50A289",
"N+	c #56B7A7",
"O+	c #55B7AB",
"P+	c #335A5D",
"Q+	c #4B5973",
"R+	c #486E80",
"S+	c #408892",
"T+	c #3C7D7C",
"U+	c #4DA499",
"V+	c #5AC3B5",
"W+	c #58BEAE",
"X+	c #58BCAD",
"Y+	c #58BDAD",
"Z+	c #58BDAE",
"`+	c #53AFA1",
" @	c #3C766D",
".@	c #3A736E",
"+@	c #3F7575",
"@@	c #4C5F76",
"#@	c #38495A",
"$@	c #437F7D",
"%@	c #51ACA2",
"&@	c #51AEA4",
"*@	c #52AFA5",
"=@	c #4CA097",
"-@	c #39505E",
";@	c #384759",
">@	c #425166",
",@	c #495D72",
"'@	c #305054",
")@	c #2E5053",
"!@	c #2E4F53",
"~@	c #294B4E",
"{@	c #2E5054",
"]@	c #39535F",
"^@	c #353F5D",
"                                          . . .                   . . .                   . + + ",
"                                          . . .                   . . .                   . + + ",
"                                          . . .                   . . .                   . . + ",
"                                          . . .                   . . .                   . . . ",
"                                          . . .                   . . .                   . . . ",
"                                          . . .                   . . .                   . . . ",
"                                          . . .                   . . .                   . . . ",
"                                          . . .                   . . .                   . . . ",
"                                          . . .           @ # $                           . . . ",
"                                % & & & * = = = & - ;   > , ' )                           . . . ",
"                            ! ~ { ] ^ / ( _ : < [ } | 1 $ ~ )                             . . . ",
"                            & 2 3 4 5 6 7 8 9 0 a b c d e f                               . . . ",
"                        ! g h i j k l m n o p q r s t u v w g !                           . . . ",
"                        x y z A B k C D E F G H I J K L M N O ~                           . . . ",
"                      P Q R S T k k C U F F F V W X X Y Z `  ...&                         . . . ",
"                      +.@.#.$.k k k %.&.*.F F F Z =.-.;.>.F ,.'.).!.                      . . . ",
"                      ~.@.{.].^.k k k l /.(.F F F >._.>.F :.<.[.}.|.1..                   . . . ",
"                      2.3.4.5.6.7.k k k 8.9.0.F F F F F F a.b.c.d.e.. .                   . . . ",
"                    f.g.h.i.j.k.l.m.k k k n.o.p.p.p.p.q.r.s.k t.u.v.w.x.                  . . . ",
"                  ! y.z.A.B.j.j.C.D.E.k k k F.G.G.G.l l l H.k k ^.I.J.K.                  . . . ",
"                  ! L.M.N.O.j.j.j.P.Q.t.k k k k k k k k k k k k k R.S.T..             . . . . . ",
". . . . . . . . . 1.U.M.N.O.j.j.j.j.V.l.W.X.Y.k k k k k k k k k B Z.`.T.. . . . . . . . . . . . ",
". . . . . . . . . 1.U. +N..+k.j.j.j.j.++++@+#+$+k k k k k E.^.^.%+&+*+T.. . . . . . . . . . . . ",
". . . . . . . . . 1.U.=+-+;+>+j.j.j.j.j.j.,+'+)+k k k k k !+~+{+]+^+/+T.. . . . . . . . . . . . ",
"          . . . . . (+_+:+<+[+}+j.j.j.j.j.j.j.|+W.W.W.W.W.'+j.j.1+2+3+4+              . . . . . ",
"            . . . 1.5+6+7+8+9+k.j.j.j.j.j.j.j.,+C.C.C.C.C.++j.0+a+b+c+d+                  . . . ",
"            . . . . e+f+g+h+i+j+k.j.j.j.j.j.j.j.j.j.j.j.j.j.k+l+m+n+o+x                   . . . ",
"            . . . .   & p+q+r+s+t+u+v+w+j.j.j.j.j.j.j.j.j.x+y+z+A+B+!                     . . . ",
"            . . .       x C+D+E+F+G+H+I+J+J+J+J+w+w+K+L+M+N+O+P+Q+>                       . . . ",
"            . .         ! g R+S+T+U+V+W+X+X+X+X+Y+Y+Z+`+ @.@+@@@1                         . . . ",
". . . . . .                 P e #@$@%@&@&@&@&@&@&@&@*@=@-@;@>@$                           . . . ",
". . . . . .                 ! $ 1 ,@'@)@!@~@~@~@)@{@)@]@~ $ $                             . . . ",
". . . . .                         ; - & * ^@^@^@& & & %                                   . . . ",
"+ + . .                                   . . .                                           . . . ",
"+ . .                                     . . .                                           . . . ",
". . .                                     . . .                                           . . . ",
"                                          . . .                                           . . . ",
"                                          . . .                                           . . . ",
"                                          . . .                                           . . . ",
"                                          . . .                                           . . . ",
"                                          . . .                                           . . . ",
"                                          . . .                                           . . . ",
"                                          . . .                                           . . . ",
"                                          . . .                                           . . . ",
"                                        . . . . .                                       . . . . ",
". . . . . . . . . . . . . . . . . . . . . . . . . . . . . . . . . . . . . . . . . . . . . . + + ",
"+ + + + + . . . . . . . . . . . . . . . . . . . . . . . . . . . . . + . . . . . + + + + + + + + ",
"+ + + + + + . . . . . . . . . . . . . . . . . . . . . . . . . . . + + + . . . + + + + + + + + + "};
