/* XPM */
static char * player_r_xpm[] = {
"48 48 297 2",
"  	c #5A6988",
". 	c #3A4466",
"+ 	c #262B44",
"@ 	c #586786",
"# 	c #3E4D61",
"$ 	c #3B4B5E",
"% 	c #4C5B74",
"& 	c #556481",
"* 	c #4A6275",
"= 	c #438973",
"- 	c #61A287",
"; 	c #5B8A81",
"> 	c #4F5D78",
", 	c #495871",
"' 	c #2E5C56",
") 	c #5EC39B",
"! 	c #90EDBD",
"~ 	c #77C09C",
"{ 	c #2A3C48",
"] 	c #4A5871",
"^ 	c #2D5554",
"/ 	c #50A289",
"( 	c #68CDA3",
"_ 	c #55A688",
": 	c #2C3C4B",
"< 	c #566583",
"[ 	c #4D6078",
"} 	c #335E5E",
"| 	c #367365",
"1 	c #426C6F",
"2 	c #52617D",
"3 	c #47566E",
"4 	c #53627E",
"5 	c #435368",
"6 	c #405065",
"7 	c #4E5D77",
"8 	c #53657F",
"9 	c #3E7368",
"0 	c #4B6B76",
"a 	c #566582",
"b 	c #4F5E79",
"c 	c #2C524F",
"d 	c #60C29A",
"e 	c #488F78",
"f 	c #3A4A5D",
"g 	c #596786",
"h 	c #546580",
"i 	c #3D7066",
"j 	c #4B6A76",
"k 	c #2A3D4C",
"l 	c #233442",
"m 	c #2B3D4A",
"n 	c #2C3D4B",
"o 	c #2E3E4C",
"p 	c #2A3D49",
"q 	c #435268",
"r 	c #48576F",
"s 	c #4F5F79",
"t 	c #3F4F62",
"u 	c #2B3B4F",
"v 	c #376866",
"w 	c #4C9880",
"x 	c #51A486",
"y 	c #50A285",
"z 	c #429379",
"A 	c #69B291",
"B 	c #67A18A",
"C 	c #3F4D63",
"D 	c #3F4F63",
"E 	c #546380",
"F 	c #596887",
"G 	c #4E5C77",
"H 	c #466F78",
"I 	c #3E807A",
"J 	c #346360",
"K 	c #52A68A",
"L 	c #63C99F",
"M 	c #65CBA1",
"N 	c #79DCAF",
"O 	c #90EBBB",
"P 	c #81D5AC",
"Q 	c #3E8D7B",
"R 	c #459481",
"S 	c #4B6D78",
"T 	c #53617E",
"U 	c #566683",
"V 	c #2F5758",
"W 	c #2B4D4D",
"X 	c #46968C",
"Y 	c #5AC1B1",
"Z 	c #54AA8E",
"` 	c #61C59D",
" .	c #64C99F",
"..	c #67CCA1",
"+.	c #95EEBD",
"@.	c #98F0BF",
"#.	c #9CF2BF",
"$.	c #A2F5BF",
"%.	c #A3F6BF",
"&.	c #669F85",
"*.	c #425868",
"=.	c #4C5A74",
"-.	c #305458",
";.	c #58C0B2",
">.	c #52A895",
",.	c #50A18A",
"'.	c #55AD91",
").	c #63C89F",
"!.	c #73D3A7",
"~.	c #96EEBD",
"{.	c #B0F7C0",
"].	c #CDFFC0",
"^.	c #B0F5BD",
"/.	c #58B095",
"(.	c #243343",
"_.	c #46536C",
":.	c #43797B",
"<.	c #52AEA2",
"[.	c #54B09C",
"}.	c #52A68F",
"|.	c #57AF91",
"1.	c #5FC09A",
"2.	c #74D4A8",
"3.	c #98F1BF",
"4.	c #8FD6AA",
"5.	c #7E9A77",
"6.	c #7E9B78",
"7.	c #99E2B2",
"8.	c #6EBA99",
"9.	c #20323E",
"0.	c #4B5872",
"a.	c #457C7D",
"b.	c #4EA397",
"c.	c #57B8A5",
"d.	c #51A48B",
"e.	c #51A38A",
"f.	c #5AB694",
"g.	c #71D2A7",
"h.	c #85E1B3",
"i.	c #85D3A9",
"j.	c #80AF9B",
"k.	c #858A96",
"l.	c #22213D",
"m.	c #69A788",
"n.	c #66AC8C",
"o.	c #3F806D",
"p.	c #33435B",
"q.	c #384364",
"r.	c #596886",
"s.	c #556682",
"t.	c #335C5E",
"u.	c #51ABA0",
"v.	c #57B9A6",
"w.	c #53A68C",
"x.	c #5BB996",
"y.	c #84E0B2",
"z.	c #5E957A",
"A.	c #808491",
"B.	c #C0CBD7",
"C.	c #3B4064",
"D.	c #1A1B35",
"E.	c #458F74",
"F.	c #5DBC96",
"G.	c #254346",
"H.	c #364060",
"I.	c #505E79",
"J.	c #2B5152",
"K.	c #58BFB1",
"L.	c #55B19D",
"M.	c #5EBF99",
"N.	c #5F967B",
"O.	c #1E1E3A",
"P.	c #363B5F",
"Q.	c #3E476B",
"R.	c #232543",
"S.	c #478F75",
"T.	c #5CBB95",
"U.	c #254345",
"V.	c #364160",
"W.	c #333E5B",
"X.	c #274647",
"Y.	c #55B19E",
"Z.	c #6BCEA3",
"`.	c #7FDCAF",
" +	c #8FE2B4",
".+	c #6DAC8B",
"++	c #1A1A34",
"@+	c #222340",
"#+	c #4E9C80",
"$+	c #5EBF97",
"%+	c #34405C",
"&+	c #3A6D7D",
"*+	c #4FB0BF",
"=+	c #5BC6BC",
"-+	c #54AD98",
";+	c #6CCFA4",
">+	c #82DEB0",
",+	c #81DEB0",
"'+	c #70C69D",
")+	c #469075",
"!+	c #489277",
"~+	c #5DBE97",
"{+	c #2C3B4F",
"]+	c #418A92",
"^+	c #63DEED",
"/+	c #52A790",
"(+	c #62C99F",
"_+	c #63C79E",
":+	c #5AB792",
"<+	c #61C59C",
"[+	c #2D3F53",
"}+	c #3E827D",
"|+	c #5BC6B6",
"1+	c #52A68E",
"2+	c #59B594",
"3+	c #5FC29A",
"4+	c #294C4B",
"5+	c #58B38F",
"6+	c #5CBA95",
"7+	c #263444",
"8+	c #4DA8B9",
"9+	c #60D8E6",
"0+	c #5BC4B5",
"a+	c #51A48C",
"b+	c #52A58B",
"c+	c #57AF90",
"d+	c #63C89E",
"e+	c #5FC099",
"f+	c #40806B",
"g+	c #316057",
"h+	c #2F5C54",
"i+	c #264447",
"j+	c #556581",
"k+	c #233440",
"l+	c #4DA6A9",
"m+	c #5ECECD",
"n+	c #55B09B",
"o+	c #51A38B",
"p+	c #52A68B",
"q+	c #59B393",
"r+	c #61C69D",
"s+	c #4D9C81",
"t+	c #479587",
"u+	c #46978E",
"v+	c #243440",
"w+	c #4DA5A6",
"x+	c #5DCCC8",
"y+	c #54AE99",
"z+	c #5EBE98",
"A+	c #5EBE99",
"B+	c #55AB8E",
"C+	c #52A997",
"D+	c #4C9E97",
"E+	c #3D5262",
"F+	c #334251",
"G+	c #4FADBD",
"H+	c #62DCEA",
"I+	c #5AC4B5",
"J+	c #52A78F",
"K+	c #51A58D",
"L+	c #427E71",
"M+	c #313E4F",
"N+	c #42596C",
"O+	c #418784",
"P+	c #5BC7B7",
"Q+	c #5BC5B7",
"R+	c #53A992",
"S+	c #5BC5B6",
"T+	c #40847C",
"U+	c #415467",
"V+	c #415166",
"W+	c #41888F",
"X+	c #63DCE9",
"Y+	c #5DCBC1",
"Z+	c #59C0B1",
"`+	c #58BDAC",
" @	c #58BDAD",
".@	c #4A937F",
"+@	c #3A7168",
"@@	c #3F847D",
"#@	c #496877",
"$@	c #487B8B",
"%@	c #53B7C7",
"&@	c #4CA49E",
"*@	c #4CA197",
"=@	c #468D7E",
"-@	c #458877",
";@	c #458878",
">@	c #437670",
",@	c #404D63",
"'@	c #2B3B46",
")@	c #2C3D48",
"!@	c #23343E",
"~@	c #243642",
"{@	c #243843",
"]@	c #2D404C",
"^@	c #44546A",
"                                          . . .                   . . .                   . + + ",
"                                          . . .                   . . .                   . + + ",
"                                          . . .                   . . .                   . . + ",
"                                          . . .                   . . .                   . . . ",
"                                @ # $ %   . . .                   . . .                   . . . ",
"                              & * = - ; > . . .                   . . .                   . . . ",
"                              , ' ) ! ~ { . . .                   . . .                   . . . ",
"                              ] ^ / ( _ : . . .                   . . .                   . . . ",
"                              < [ } | 1 2 . . .                                           . . . ",
"                          3 4   @ 5 6 7   . . .                                           . . . ",
"                      @ 8 9 0 a           . . .                                           . . . ",
"                      b c d e f           . . .                                           . . . ",
"                      g h i j <           . k l m n o p q                                 . . . ",
"                          r 4         s t u v w x y z A B C D E                           . . . ",
"                                F 7 G H I J K L L M N O P Q R S T                         . . . ",
"                              F U V W X Y Z ` L  ...+.@.#.$.%.&.*.F                       . . . ",
"                              =.-.;.>.,.'.).L L !.~.@.@.{.].].^./.(.. .                   . . . ",
"                            _.:.<.[.}.|.1.L L L 2.@.@.3.4.5.6.7.8.9.. .                   . . . ",
"                          0.a.b.c.d.e.f.L L L g.h.@.@.i.j.k.l.m.n.o.p.q.                  . . . ",
"                      r.s.t.u.v.e.e.w.x.L L L y.@.@.@.z.A.B.C.D.E.F.G.H.                  . . . ",
"                      I.J.K.L.e.e.e.M.L L L L y.@.@.@.N.O.P.Q.R.S.T.U.V..             . . . . . ",
". . . . . . . . . . . W.X.K.Y.e.e.e.1.L L L L Z.`.@.@. +.+++@+#+$+T.U.V.. . . . . . . . . . . . ",
". . . . . . . . . . %+&+*+=+-+e.e.e.1.L L L L L ;+>+,+,+'+)+!+~+L T.U.V.. . . . . . . . . . . . ",
". . . . . . . . . . {+]+^+=+/+e.e.e.x.` L L L L L L L L (+_+:+<+L T.U.V.. . . . . . . . . . . . ",
"          . . . . . [+}+|+1+e.e.e.e.e.2+L L L L L L L L L 3+4+5+).6+U.E               . . . . . ",
"            . . . 7+8+9+0+a+e.e.e.e.e.b+c+L L L L L L L L d+e+f+g+h+i+j+                  . . . ",
"            . . . k+l+m+n+o+e.e.e.e.e.e.p+q+r+L L L L L L L L s+t+u+G.E                   . . . ",
"            . . . v+w+x+y+e.e.e.e.e.e.e.e.e.x.z+z+z+z+z+z+z+A+B+C+D+E+a                   . . . ",
"            . . . F+G+H+I+J+d.e.e.e.e.e.e.e.e.e.e.e.e.e.e.e.K+,.L+M+                      . . . ",
"            . .   F N+O+P+Q+n+e.e.e.e.e.e.e.e.e.e.e.e.e.e.R+S+T+U+F                       . . . ",
". . . . . .         V+W+X+Y+Z+`+ @ @ @ @ @ @R+e.e.e.e.e..@+@@@#@T                         . . . ",
". . . . . .         7 $@%@&@*@*@*@*@*@*@*@*@=@-@-@-@-@;@>@,@D E                           . . . ",
". . . . .             2 '@)@)@)@)@)@)@)@)@!@~@{@]@]@]@]@^@                                . . . ",
"+ + . .                                   . . .                                           . . . ",
"+ . .                                     . . .                                           . . . ",
". . .                                     . . .                                           . . . ",
"                                          . . .                                           . . . ",
"                                          . . .                                           . . . ",
"                                          . . .                                           . . . ",
"                                          . . .                                           . . . ",
"                                          . . .                                           . . . ",
"                                          . . .                                           . . . ",
"                                          . . .                                           . . . ",
"                                          . . .                                           . . . ",
"                                        . . . . .                                       . . . . ",
". . . . . . . . . . . . . . . . . . . . . . . . . . . . . . . . . . . . . . . . . . . . . . + + ",
"+ + + + + . . . . . . . . . . . . . . . . . . . . . . . . . . . . . + . . . . . + + + + + + + + ",
"+ + + + + + . . . . . . . . . . . . . . . . . . . . . . . . . . . + + + . . . + + + + + + + + + "};
