/* XPM */
static char * player_xpm[] = {
"48 48 480 2",
"  	c #5A6988",
". 	c #3A4466",
"+ 	c #262B44",
"@ 	c #596887",
"# 	c #576785",
"$ 	c #596886",
"% 	c #51617C",
"& 	c #39505D",
"* 	c #4B5D74",
"= 	c #50617B",
"- 	c #384F5C",
"; 	c #4A5D73",
"> 	c #53617E",
", 	c #505F7A",
"' 	c #343F5C",
") 	c #556482",
"! 	c #576784",
"~ 	c #586886",
"{ 	c #576683",
"] 	c #364657",
"^ 	c #253941",
"/ 	c #253B41",
"( 	c #1F363B",
"_ 	c #253B42",
": 	c #263B46",
"< 	c #283B46",
"[ 	c #273B45",
"} 	c #263B45",
"| 	c #263845",
"1 	c #485771",
"2 	c #52617D",
"3 	c #48576E",
"4 	c #48576F",
"5 	c #486372",
"6 	c #4B9584",
"7 	c #4EA58D",
"8 	c #4CA38C",
"9 	c #5AA68C",
"0 	c #69A98C",
"a 	c #66A68A",
"b 	c #4B8D76",
"c 	c #3C836F",
"d 	c #478F78",
"e 	c #499179",
"f 	c #4A937A",
"g 	c #497A75",
"h 	c #495771",
"i 	c #546280",
"j 	c #46596E",
"k 	c #244144",
"l 	c #223E41",
"m 	c #416D61",
"n 	c #86D6AE",
"o 	c #97F1BF",
"p 	c #95EEBF",
"q 	c #96EEBF",
"r 	c #97EFBF",
"s 	c #98F0BF",
"t 	c #95EEBD",
"u 	c #74D3A7",
"v 	c #5FC69C",
"w 	c #62C89E",
"x 	c #63C99F",
"y 	c #4D9A7F",
"z 	c #223841",
"A 	c #4C5A74",
"B 	c #52607C",
"C 	c #425066",
"D 	c #619585",
"E 	c #77BF9C",
"F 	c #66BA9A",
"G 	c #73C4A0",
"H 	c #B3EFB9",
"I 	c #C5FDC0",
"J 	c #C5FCC0",
"K 	c #B3F7BF",
"L 	c #97F0BF",
"M 	c #8FEBBB",
"N 	c #82E2B3",
"O 	c #68CDA2",
"P 	c #56AD8E",
"Q 	c #3A706B",
"R 	c #3C5665",
"S 	c #45526A",
"T 	c #566582",
"U 	c #596786",
"V 	c #4C5E73",
"W 	c #315452",
"X 	c #77BE9B",
"Y 	c #9BF3BF",
"Z 	c #9FF4BF",
"` 	c #AAF7C0",
" .	c #C7FDC0",
"..	c #CEFFC0",
"+.	c #CCFFC0",
"@.	c #B8F8C0",
"#.	c #90E9B9",
"$.	c #6ACEA3",
"%.	c #60C39C",
"&.	c #52A58B",
"*.	c #3B736A",
"=.	c #304D53",
"-.	c #556481",
";.	c #3C475D",
">.	c #598A7B",
",.	c #82CDA6",
"'.	c #8FE2B5",
").	c #9AF1BF",
"!.	c #B9F9C0",
"~.	c #CBFEC0",
"{.	c #CDFFC0",
"].	c #C6FCC0",
"^.	c #AEF6BF",
"/.	c #A2F3BF",
"(.	c #60C49C",
"_.	c #55AA8D",
":.	c #438175",
"<.	c #3B5B64",
"[.	c #45556B",
"}.	c #4D6278",
"|.	c #34615D",
"1.	c #6BB393",
"2.	c #97EEBE",
"3.	c #99F0BF",
"4.	c #B6F8C0",
"5.	c #C6FDC0",
"6.	c #BAF9C0",
"7.	c #9BF1BF",
"8.	c #93ECBC",
"9.	c #88E3B4",
"0.	c #69CDA2",
"a.	c #5DBC98",
"b.	c #4A9381",
"c.	c #315B5A",
"d.	c #283A49",
"e.	c #3E4E62",
"f.	c #35645F",
"g.	c #4EA788",
"h.	c #7DD9AE",
"i.	c #9DF1BF",
"j.	c #A0F2BF",
"k.	c #9EF1BF",
"l.	c #96EEBE",
"m.	c #7BD9AC",
"n.	c #64CA9F",
"o.	c #5CBB97",
"p.	c #49917F",
"q.	c #305A59",
"r.	c #283A4A",
"s.	c #374758",
"t.	c #356C60",
"u.	c #58B792",
"v.	c #77DAAD",
"w.	c #87E3B4",
"x.	c #90EABA",
"y.	c #85E1B3",
"z.	c #6ED0A5",
"A.	c #58B393",
"B.	c #4A9481",
"C.	c #325E5B",
"D.	c #283949",
"E.	c #364557",
"F.	c #386C62",
"G.	c #5CBB95",
"H.	c #64CBA0",
"I.	c #64C99F",
"J.	c #82DFB1",
"K.	c #7FDCAF",
"L.	c #65CBA1",
"M.	c #63CAA0",
"N.	c #5BB895",
"O.	c #51A48A",
"P.	c #52A48B",
"Q.	c #4C9983",
"R.	c #335F59",
"S.	c #263546",
"T.	c #4F5E78",
"U.	c #465F6E",
"V.	c #498776",
"W.	c #53A787",
"X.	c #61C49C",
"Y.	c #63CA9F",
"Z.	c #69BE98",
"`.	c #70B18F",
" +	c #6FB08F",
".+	c #74BA96",
"++	c #84DDB0",
"@+	c #87E5B6",
"#+	c #81DEB0",
"$+	c #71D2A7",
"%+	c #60C49B",
"&+	c #51A585",
"*+	c #489277",
"=+	c #52A786",
"-+	c #5FC09A",
";+	c #58B292",
">+	c #51A38A",
",+	c #50A28C",
"'+	c #4A9D90",
")+	c #408380",
"!+	c #334E5D",
"~+	c #2C3A4F",
"{+	c #2F5A55",
"]+	c #58B290",
"^+	c #4D947A",
"/+	c #25263A",
"(+	c #1D1E34",
"_+	c #244644",
":+	c #53AD8A",
"<+	c #60C69D",
"[+	c #61C79E",
"}+	c #61C89E",
"|+	c #61C79D",
"1+	c #5EBD96",
"2+	c #407062",
"3+	c #232438",
"4+	c #191931",
"5+	c #32625A",
"6+	c #4D9B84",
"7+	c #50A088",
"8+	c #51A28A",
"9+	c #53AA92",
"0+	c #5AC1B2",
"a+	c #52AFA4",
"b+	c #2E5A59",
"c+	c #2C3B50",
"d+	c #2F5854",
"e+	c #58B18F",
"f+	c #59B590",
"g+	c #3B8169",
"h+	c #849E9D",
"i+	c #AEB6C1",
"j+	c #727887",
"k+	c #1E2D3D",
"l+	c #255B50",
"m+	c #418F74",
"n+	c #61C59C",
"o+	c #50A484",
"p+	c #4F8171",
"q+	c #9BACB1",
"r+	c #9FA6B2",
"s+	c #464A5F",
"t+	c #223843",
"u+	c #2B5051",
"v+	c #428474",
"w+	c #52A891",
"x+	c #59C1B2",
"y+	c #51AEA3",
"z+	c #2E5758",
"A+	c #2E5753",
"B+	c #55AB8B",
"C+	c #62C79E",
"D+	c #52A886",
"E+	c #1B2836",
"F+	c #9095A1",
"G+	c #C6D0DC",
"H+	c #858C9F",
"I+	c #25274A",
"J+	c #1A1B35",
"K+	c #376D5D",
"L+	c #43876F",
"M+	c #393A4A",
"N+	c #AEB6C2",
"O+	c #B6BFCD",
"P+	c #575D7A",
"Q+	c #232244",
"R+	c #171730",
"S+	c #3C7869",
"T+	c #2B5050",
"U+	c #488E7C",
"V+	c #5BB996",
"W+	c #63C89F",
"X+	c #53A987",
"Y+	c #494D5E",
"Z+	c #686E85",
"`+	c #565D7A",
" @	c #333961",
".@	c #201F3D",
"+@	c #366C5C",
"@@	c #448970",
"#@	c #212237",
"$@	c #595E71",
"%@	c #646A84",
"&@	c #495172",
"*@	c #2F3256",
"=@	c #171731",
"-@	c #51A48B",
";@	c #59C1B1",
">@	c #415166",
",@	c #2B4F4F",
"'@	c #458779",
")@	c #56AE90",
"!@	c #5EBF99",
"~@	c #52A788",
"{@	c #34665B",
"]@	c #274748",
"^@	c #20203F",
"/@	c #2C3056",
"(@	c #364B5F",
"_@	c #38695F",
":@	c #499478",
"<@	c #61C59D",
"[@	c #49937A",
"}@	c #2D5652",
"|@	c #233842",
"1@	c #242547",
"2@	c #32365B",
"3@	c #344D5C",
"4@	c #305C56",
"5@	c #448875",
"6@	c #52A58C",
"7@	c #53AA94",
"8@	c #55B39F",
"9@	c #5AC3B4",
"0@	c #2C5250",
"a@	c #488E7B",
"b@	c #52A68B",
"c@	c #3A7466",
"d@	c #191933",
"e@	c #284848",
"f@	c #58B28E",
"g@	c #62C79D",
"h@	c #5DBC97",
"i@	c #52A68C",
"j@	c #50A188",
"k@	c #2C5550",
"l@	c #181831",
"m@	c #34645C",
"n@	c #4F9F87",
"o@	c #50A289",
"p@	c #52A58D",
"q@	c #57BAA8",
"r@	c #5BC5B6",
"s@	c #5BC7B7",
"t@	c #50ACA0",
"u@	c #2E5757",
"v@	c #2D5554",
"w@	c #4C9E90",
"x@	c #56B39F",
"y@	c #478E7A",
"z@	c #397265",
"A@	c #41826F",
"B@	c #59B491",
"C@	c #5FC19A",
"D@	c #5CBA97",
"E@	c #57B091",
"F@	c #418372",
"G@	c #397164",
"H@	c #57B7A5",
"I@	c #5DCBC2",
"J@	c #61D6D8",
"K@	c #54B8BD",
"L@	c #2E595B",
"M@	c #2D5857",
"N@	c #52A892",
"O@	c #50A189",
"P@	c #56B4A0",
"Q@	c #5ED0CC",
"R@	c #64E1F3",
"S@	c #59C6D8",
"T@	c #2F5B60",
"U@	c #35415E",
"V@	c #4A6175",
"W@	c #457F7F",
"X@	c #4A9C92",
"Y@	c #55B5A5",
"Z@	c #4F9E86",
"`@	c #3B756A",
" #	c #3D7A6D",
".#	c #468C78",
"+#	c #3D796A",
"@#	c #4C9982",
"##	c #56B4A2",
"$#	c #5ECED0",
"%#	c #5FD3DF",
"&#	c #52B3C0",
"*#	c #488D9C",
"=#	c #4A6277",
"-#	c #51607C",
";#	c #3A465B",
">#	c #366566",
",#	c #54B4A9",
"'#	c #56B8A8",
")#	c #52A790",
"!#	c #51A58C",
"~#	c #4E9D85",
"{#	c #35665B",
"]#	c #36685D",
"^#	c #4D9A83",
"/#	c #4E9E86",
"(#	c #3C7667",
"_#	c #2E554F",
":#	c #48917B",
"<#	c #52A68D",
"[#	c #52A68E",
"}#	c #52A68F",
"|#	c #56B5A5",
"1#	c #5ED1CB",
"2#	c #62DCE9",
"3#	c #5CCDE1",
"4#	c #386E78",
"5#	c #3A465A",
"6#	c #53627F",
"7#	c #4B6176",
"8#	c #3B6E6E",
"9#	c #4A9B91",
"0#	c #58BEAE",
"a#	c #51A389",
"b#	c #509F86",
"c#	c #499078",
"d#	c #417F6B",
"e#	c #35675D",
"f#	c #33645B",
"g#	c #3F7A68",
"h#	c #488D75",
"i#	c #4E9B81",
"j#	c #53A993",
"k#	c #58BCAB",
"l#	c #59BFAF",
"m#	c #59BFAE",
"n#	c #5FD1D3",
"o#	c #64DFEF",
"p#	c #3D7884",
"q#	c #4C647B",
"r#	c #556381",
"s#	c #394458",
"t#	c #42797A",
"u#	c #53B2A6",
"v#	c #4FA596",
"w#	c #4A947F",
"x#	c #50A48F",
"y#	c #54AF9A",
"z#	c #56B59F",
"A#	c #4FA695",
"B#	c #3B7C75",
"C#	c #387570",
"D#	c #4B9E8E",
"E#	c #57B6A1",
"F#	c #54AF99",
"G#	c #55B3A0",
"H#	c #5AC4B5",
"I#	c #58C0B2",
"J#	c #53B3A6",
"K#	c #57C0C6",
"L#	c #5BCADE",
"M#	c #458695",
"N#	c #384357",
"O#	c #586685",
"P#	c #4C6478",
"Q#	c #326160",
"R#	c #305E5B",
"S#	c #31605B",
"T#	c #4EA89B",
"U#	c #5BC4B6",
"V#	c #5BC5B7",
"W#	c #5AC4B6",
"X#	c #59C1B3",
"Y#	c #58C0B3",
"Z#	c #5AC3B5",
"`#	c #5BC6B8",
" $	c #4FACA0",
".$	c #336865",
"+$	c #336467",
"@$	c #34666D",
"#$	c #4C657C",
"$$	c #3F4F63",
"%$	c #3E4E61",
"&$	c #3E5163",
"*$	c #488C88",
"=$	c #4EA79C",
"-$	c #4DA49A",
";$	c #488B88",
">$	c #5A6987",
",$	c #3F5565",
"'$	c #28494B",
")$	c #274749",
"!$	c #4E5D77",
"~$	c #45546A",
"{$	c #46556C",
"]$	c #2E3B53",
"                                          . . .                   . . .                   . + + ",
"                                          . . .                   . . .                   . + + ",
"                                          . . .                   . . .                   . . + ",
"                                          . . .                   . . .                   . . . ",
"                                          . . .                   . . .                   . . . ",
"                                          . . .                   . . .                   . . . ",
"                                          . . .                   . . .                   . . . ",
"                        @ # $             . . .                   . . .                   . . . ",
"                        % & *             . . .                                           . . . ",
"                        = - ;     @ > , , ' ' ' , , , , , , )                             . . . ",
"                        @ ! ~     { ] ^ / ( ( ( _ : < [ } | 1                             . . . ",
"                            2 3 4 5 6 7 8 9 0 0 a b c d e f g h i                         . . . ",
"                            j k l m n o p q r s t u v w x x y z A                         . . . ",
"                        B C D E F G H I J K s s L M N O x x P Q R S T                     . . . ",
"                      U V W X Y Z `  ...+.@.s s s s #.$.x x %.&.*.=.% @                   . . . ",
"                    -.;.>.,.'.).!.~.{.].^./.s s s s #.$.x x x (._.:.<.[.@                 . . . ",
"                  ) }.|.1.2.s 3.4. .5.6.7.s s s s 8.9.0.x x x x a.b.c.d.U                 . . . ",
"                $ e.f.g.h.L s s i.j.j.k.s s s s l.m.0.n.x x x x o.p.q.r.U                 . . . ",
"                U s.t.u.v.w.x.s s s s s s s s #.y.z.x x x x %.a.A.B.C.D.U                 . . . ",
"                U E.F.G.H.I.J.s s s s s s s s K.x L.M.x x x N.O.P.Q.R.S.U                 . . . ",
"              T.U.V.W.X.x Y.Z.`. +.+++@+J.#+#+$+%+&+*+*+=+-+;+>+>+,+'+)+!+T.          . . . . . ",
". . . . . . . ~+{+]+x x x w ^+/+(+_+:+<+[+x }+|+1+2+3+4+5+6+7+>+8+9+0+a+b+~+. . . . . . . . . . ",
". . . . . . . c+d+e+x x f+g+h+i+j+k+l+m+n+x x o+p+q+r+s+t+u+v+>+>+w+x+y+z+c+. . . . . . . . . . ",
". . . . . . . c+A+B+C+x D+E+F+G+H+I+J+K+%+x x L+M+N+O+P+Q+R+S+>+>+w+x+y+z+c+. . . . . . . . . . ",
"          . . c+T+U+V+W+X+E+Y+Z+`+ @.@+@%+x x @@#@$@%@&@*@=@S+-@>+w+;@y+z+>@          . . . . . ",
"            . c+,@'@)@!@~@{@]@^@/@(@_@:@n+<@!@[@}@|@1@2@3@4@5@6@7@8@9@y+z+>@              . . . ",
"            . c+0@a@&.b@>+7+c@R+d@e@f@g@x h@i@j@6+k@l@d@m@n@o@p@q@r@s@t@u@>@              . . . ",
"            . c+v@w@x@p@>+>+y@z@z@A@B@C@D@E@>+>+j@F@G@G@5@>+>+-@H@I@J@K@L@>@              . . . ",
"            . c+M@y+x+N@>+>+>+>+>+>+o@O@8+>+>+>+>+>+>+>+>+>+>+>+P@Q@R@S@T@>@              . . . ",
"            . U@V@W@X@Y@8@-@>+>+>+Z@`@ #7+>+>+.#+#@#>+>+>+>+>+##$#%#&#*#=#-#              . . . ",
". . . . . .     $ ;#>#,#'#)#!#>+>+~#{#]#^#/#/#(#_#:#<#[#}#[#|#1#2#3#4#5#$                 . . . ",
". . . . . .       6#7#8#9#0#x@P.a#b#c#d#e#f#f#g#h#i#j#k#l#m#n#o#&#p#q#6#                  . . . ",
". . . . .           r#s#t#u#v#w#x#y#z#A#B#C#C#D#E#F#G#H#I#J#K#L#M#N#r#                    . . . ",
"+ + . .             @ O#P#Q#R#S#T#U#V#W#X#Y#Y#Z#V#W#W#`# $.$+$@$#$O#@                     . . . ",
"+ . .                   2 $$%$&$*$=$-$-$-$-$-$-$-$-$-$=$;$&$%$$$2                         . . . ",
". . .                         >$,$'$)$)$)$)$)$)$)$)$)$'$,$>$                              . . . ",
"                                !$~${${${$]$]$]${${${$~$!$                                . . . ",
"                                          . . .                                           . . . ",
"                                          . . .                                           . . . ",
"                                          . . .                                           . . . ",
"                                          . . .                                           . . . ",
"                                          . . .                                           . . . ",
"                                          . . .                                           . . . ",
"                                          . . .                                           . . . ",
"                                        . . . . .                                       . . . . ",
". . . . . . . . . . . . . . . . . . . . . . . . . . . . . . . . . . . . . . . . . . . . . . + + ",
"+ + + + + . . . . . . . . . . . . . . . . . . . . . . . . . . . . . + . . . . . + + + + + + + + ",
"+ + + + + + . . . . . . . . . . . . . . . . . . . . . . . . . . . + + + . . . + + + + + + + + + "};
