/* XPM */
static char * player2_xpm[] = {
"48 48 455 2",
"  	c #5A6988",
". 	c #3A4466",
"+ 	c #262B44",
"@ 	c #596887",
"# 	c #51607B",
"$ 	c #4F5E79",
"% 	c #505E7A",
"& 	c #576684",
"* 	c #2E434D",
"= 	c #223D40",
"- 	c #253C44",
"; 	c #51617C",
"> 	c #4B5873",
", 	c #47646B",
"' 	c #74B897",
") 	c #70BE9A",
"! 	c #4FA184",
"~ 	c #416B6E",
"{ 	c #495871",
"] 	c #54627F",
"^ 	c #546380",
"/ 	c #364160",
"( 	c #3D4F61",
"_ 	c #477B6C",
": 	c #8BE0B3",
"< 	c #87E7B8",
"[ 	c #5FC39B",
"} 	c #357264",
"| 	c #374758",
"1 	c #4A5B73",
"2 	c #283B46",
"3 	c #253A41",
"4 	c #1F353B",
"5 	c #243940",
"6 	c #2F5F5F",
"7 	c #50A288",
"8 	c #68CAA0",
"9 	c #67CAA1",
"0 	c #53A88D",
"a 	c #356661",
"b 	c #38495A",
"c 	c #4E5D78",
"d 	c #435268",
"e 	c #445169",
"f 	c #396567",
"g 	c #439179",
"h 	c #55AC91",
"i 	c #56B195",
"j 	c #56B095",
"k 	c #69B495",
"l 	c #72B695",
"m 	c #71B594",
"n 	c #77C5A2",
"o 	c #7EDBB1",
"p 	c #6CD2A6",
"q 	c #51AA8A",
"r 	c #376A64",
"s 	c #405869",
"t 	c #445469",
"u 	c #435369",
"v 	c #52617D",
"w 	c #586785",
"x 	c #405A68",
"y 	c #315C56",
"z 	c #375A58",
"A 	c #4B967A",
"B 	c #74DAAC",
"C 	c #9DF3BE",
"D 	c #A5F6BF",
"E 	c #A4F6BF",
"F 	c #9EF4BF",
"G 	c #99F1BF",
"H 	c #98F0BF",
"I 	c #96EFBE",
"J 	c #77DAAD",
"K 	c #4D9D81",
"L 	c #2C504D",
"M 	c #4E5E77",
"N 	c #4E6479",
"O 	c #315E57",
"P 	c #4B6375",
"Q 	c #586786",
"R 	c #52607C",
"S 	c #303D4E",
"T 	c #39806F",
"U 	c #63BF99",
"V 	c #89DCB1",
"W 	c #8FE4B6",
"X 	c #9AF3BE",
"Y 	c #C1FCC0",
"Z 	c #CCFEC0",
"` 	c #CBFEC0",
" .	c #AAF5BF",
"..	c #93ECBC",
"+.	c #82DEB1",
"@.	c #55B18D",
"#.	c #31605A",
"$.	c #427A6C",
"%.	c #5DBB96",
"&.	c #498978",
"*.	c #39485C",
"=.	c #4E5C77",
"-.	c #405B69",
";.	c #357867",
">.	c #69BF9A",
",.	c #85E3B5",
"'.	c #7DC9A1",
").	c #7BC29C",
"!.	c #82C69F",
"~.	c #C0F4B9",
"{.	c #CEFFC0",
"].	c #BBF9C0",
"^.	c #ADF5BF",
"/.	c #9CF2BF",
"(.	c #82D7AD",
"_.	c #7AC19B",
":.	c #7BC19C",
"<.	c #76CCA3",
"[.	c #60C69D",
"}.	c #418774",
"|.	c #407C6F",
"1.	c #52A686",
"2.	c #487E75",
"3.	c #44536B",
"4.	c #596786",
"5.	c #384A5B",
"6.	c #377666",
"7.	c #61C69D",
"8.	c #8BE9B9",
"9.	c #8FE2B4",
"0.	c #395550",
"a.	c #1A1A32",
"b.	c #303A3D",
"c.	c #B9E4AD",
"d.	c #CAFEC0",
"e.	c #A1F4BF",
"f.	c #4EA38A",
"g.	c #1C1C33",
"h.	c #181831",
"i.	c #42876F",
"j.	c #63C89F",
"k.	c #5BB896",
"l.	c #448778",
"m.	c #274749",
"n.	c #495770",
"o.	c #4F5D78",
"p.	c #3B535F",
"q.	c #46907A",
"r.	c #6EC8A1",
"s.	c #8FECBB",
"t.	c #77C29C",
"u.	c #6B9082",
"v.	c #AFBCC4",
"w.	c #8B929F",
"x.	c #262E40",
"y.	c #667F66",
"z.	c #9EC495",
"A.	c #96E0B3",
"B.	c #5B9377",
"C.	c #8FA9A9",
"D.	c #ADB5C1",
"E.	c #4D5266",
"F.	c #2C514E",
"G.	c #3C7A65",
"H.	c #5AB892",
"I.	c #5CBA96",
"J.	c #48917C",
"K.	c #3C6368",
"L.	c #415266",
"M.	c #284A4A",
"N.	c #4BA485",
"O.	c #7CDFB1",
"P.	c #67A485",
"Q.	c #494B59",
"R.	c #B0B9C6",
"S.	c #9098AA",
"T.	c #2B3055",
"U.	c #1C1E38",
"V.	c #759A79",
"W.	c #C1FBC0",
"X.	c #B1F7C0",
"Y.	c #78D1AC",
"Z.	c #1E353D",
"`.	c #8C919E",
" +	c #B1BBC9",
".+	c #59607C",
"++	c #242746",
"@+	c #1A2535",
"#+	c #57B18D",
"$+	c #53A68C",
"%+	c #386B66",
"&+	c #2F434F",
"*+	c #586685",
"=+	c #254246",
"-+	c #4AA283",
";+	c #7BDEB0",
">+	c #1A1933",
",+	c #2E3052",
"'+	c #3E4568",
")+	c #3B4368",
"!+	c #20233F",
"~+	c #5E9479",
"{+	c #9AF0BF",
"]+	c #86D6AC",
"^+	c #25363D",
"/+	c #242341",
"(+	c #383C61",
"_+	c #40486C",
":+	c #303256",
"<+	c #61C59D",
"[+	c #52A58B",
"}+	c #376864",
"|+	c #233642",
"1+	c #394364",
"2+	c #596886",
"3+	c #45546C",
"4+	c #487C74",
"5+	c #59BA94",
"6+	c #77D8AB",
"7+	c #97F0BF",
"8+	c #88D7AC",
"9+	c #6FAF8E",
"0+	c #2F454A",
"a+	c #252946",
"b+	c #344255",
"c+	c #6BA98B",
"d+	c #86D3A9",
"e+	c #92E7B8",
"f+	c #7DC69F",
"g+	c #558770",
"h+	c #1C1D38",
"i+	c #28264A",
"j+	c #3D7167",
"k+	c #51A483",
"l+	c #5FC098",
"m+	c #5FC19B",
"n+	c #52A48B",
"o+	c #48907D",
"p+	c #407C6E",
"q+	c #314E58",
"r+	c #4D5D77",
"s+	c #2D3D4C",
"t+	c #49917A",
"u+	c #63C99F",
"v+	c #62C99F",
"w+	c #74D4A8",
"x+	c #97EFBE",
"y+	c #92E6B7",
"z+	c #53846E",
"A+	c #436A5C",
"B+	c #4A7564",
"C+	c #8DDFB2",
"D+	c #77BD98",
"E+	c #3F6558",
"F+	c #315950",
"G+	c #4C9A7C",
"H+	c #5EBE99",
"I+	c #51A38A",
"J+	c #4D9A84",
"K+	c #2F5855",
"L+	c #425267",
"M+	c #2D3E4D",
"N+	c #488F78",
"O+	c #97EFBF",
"P+	c #94EABA",
"Q+	c #94E9BA",
"R+	c #96ECBC",
"S+	c #8FE5B6",
"T+	c #69C69E",
"U+	c #61C59C",
"V+	c #5EBF99",
"W+	c #4C9680",
"X+	c #2E5653",
"Y+	c #435368",
"Z+	c #6BCEA3",
"`+	c #7FDCAF",
" @	c #8FE8B9",
".@	c #8CE6B7",
"+@	c #7DDAAD",
"@@	c #67CCA1",
"#@	c #5DBD98",
"$@	c #57B191",
"%@	c #54AF9B",
"&@	c #50A898",
"*@	c #2F5A58",
"=@	c #2D3B51",
"-@	c #223442",
";@	c #478D77",
">@	c #81DEB0",
",@	c #95EEBD",
"'@	c #95EBBB",
")@	c #95ECBC",
"!@	c #7AD6AA",
"~@	c #63C79D",
"{@	c #56AD8F",
"]@	c #56B6A5",
"^@	c #53B3A7",
"/@	c #305B5C",
"(@	c #2E3C54",
"_@	c #384363",
":@	c #243844",
"<@	c #3D776C",
"[@	c #59B594",
"}@	c #62C89E",
"|@	c #69CDA2",
"1@	c #6ED0A5",
"2@	c #6DCFA4",
"3@	c #85E1B2",
"4@	c #96EDBD",
"5@	c #629D81",
"6@	c #6EB08F",
"7@	c #89ECBC",
"8@	c #67C199",
"9@	c #4A7C69",
"0@	c #59AB89",
"a@	c #64CA9F",
"b@	c #56AD90",
"c@	c #44897B",
"d@	c #325F62",
"e@	c #374862",
"f@	c #394365",
"g@	c #304056",
"h@	c #31505B",
"i@	c #3E7B6F",
"j@	c #74D5A8",
"k@	c #84DEB0",
"l@	c #59A586",
"m@	c #5BA183",
"n@	c #7AC39D",
"o@	c #61AE8C",
"p@	c #3A8B71",
"q@	c #438A72",
"r@	c #3E796C",
"s@	c #243643",
"t@	c #303C56",
"u@	c #57B08E",
"v@	c #63C89E",
"w@	c #64C99F",
"x@	c #54AC8A",
"y@	c #274849",
"z@	c #3B7564",
"A@	c #62C69D",
"B@	c #52A58C",
"C@	c #3E7A6D",
"D@	c #2E414E",
"E@	c #303C55",
"F@	c #4D9982",
"G@	c #5FC29A",
"H@	c #58B28E",
"I@	c #57B18E",
"J@	c #52A68C",
"K@	c #54AC96",
"L@	c #59BEAD",
"M@	c #438981",
"N@	c #2E3E4B",
"O@	c #333F5B",
"P@	c #2D4552",
"Q@	c #376866",
"R@	c #4D9B83",
"S@	c #62C79E",
"T@	c #58B393",
"U@	c #51A792",
"V@	c #50AEA2",
"W@	c #45807F",
"X@	c #404E64",
"Y@	c #384B5A",
"Z@	c #34625F",
"`@	c #4F9E86",
" #	c #60C39B",
".#	c #54A98D",
"+#	c #49907D",
"@#	c #2A4F4E",
"##	c #495970",
"$#	c #3A746F",
"%#	c #56B6A6",
"&#	c #5ABA9E",
"*#	c #5AB694",
"=#	c #59B493",
"-#	c #58B392",
";#	c #51A38B",
">#	c #56B6A2",
",#	c #4EA396",
"'#	c #284A4B",
")#	c #495870",
"!#	c #404F64",
"~#	c #407878",
"{#	c #55B7AB",
"]#	c #53AC9A",
"^#	c #53A78C",
"/#	c #5FC09A",
"(#	c #60C39C",
"_#	c #5DBC98",
":#	c #52A68E",
"<#	c #53AA94",
"[#	c #55B6A8",
"}#	c #4EA299",
"|#	c #345058",
"1#	c #4D5C76",
"2#	c #4D6078",
"3#	c #2E5758",
"4#	c #488F7E",
"5#	c #55B29E",
"6#	c #5AC3B5",
"7#	c #428982",
"8#	c #395360",
"9#	c #556380",
"0#	c #45536A",
"a#	c #43706F",
"b#	c #478F7F",
"c#	c #55B2A0",
"d#	c #54AE99",
"e#	c #53A992",
"f#	c #54AF9A",
"g#	c #52AC9D",
"h#	c #47968E",
"i#	c #446A74",
"j#	c #4B5772",
"k#	c #424F66",
"l#	c #346264",
"m#	c #55B9AC",
"n#	c #56B5A4",
"o#	c #58BDB0",
"p#	c #5DCDC5",
"q#	c #5AC3B8",
"r#	c #4A9B92",
"s#	c #26333F",
"t#	c #515F7B",
"u#	c #576583",
"v#	c #4F617A",
"w#	c #356163",
"x#	c #4CA095",
"y#	c #5AC2B3",
"z#	c #5AC2B2",
"A#	c #5AC2B1",
"B#	c #61D6DA",
"C#	c #62DBEC",
"D#	c #438F91",
"E#	c #41616C",
"F#	c #424E65",
"G#	c #478182",
"H#	c #4EA59B",
"I#	c #4DA399",
"J#	c #4CA297",
"K#	c #50AFB6",
"L#	c #51B1C2",
"M#	c #426677",
"N#	c #4A5771",
"O#	c #485970",
"P#	c #253D41",
"Q#	c #243D40",
"R#	c #233C3F",
"S#	c #2C414A",
"T#	c #566582",
"U#	c #556481",
"V#	c #333E5B",
"                                          . . .                   . . .                   . + + ",
"                                          . . .                   . . .                   . + + ",
"                                          . . .                   . . .                   . . + ",
"                                          . . .                   . . .                   . . . ",
"                                          . . .     @ # $ % &     . . .                   . . . ",
"                                          . . .     & * = - ;     . . .                   . . . ",
"                                          . . .   > , ' ) ! ~ {   . . .                   . . . ",
"                                  & ] ^ ^ / / / ^ ( _ : < [ } |   . . .                   . . . ",
"                                  1 2 3 3 4 4 4 5 6 7 8 9 0 a b                           . . . ",
"                            c d e f g h i j k l m n o p q r s t u v                       . . . ",
"                        @ w x y z A B C D E F G H H I J K L M N O P Q                     . . . ",
"                        R S T U V W X Y Z `  .H H H H ..+.@.#.$.%.&.*.w                   . . . ",
"                      =.-.;.>.,.'.).!.~.{.{.].^./.(._.:.<.[.}.|.1.2.3.4.                  . . . ",
"                      5.6.7.8.9.0.a.b.c.{.{.{.d.e.f.g.h.i.j.k.l.m.n.                      . . . ",
"                  o.p.q.r.s.t.u.v.w.x.y.z.{.Y A.B.C.D.E.F.G.H.I.J.K.L.Q                   . . . ",
"                  n.M.N.O.H P.Q.R.S.T.U.V.W.X.Y.Z.`. +.+++@+#+7.$+%+&+*+                  . . . ",
"                  { =+-+;+H P.>+,+'+)+!+~+{+G ]+^+/+(+_+:+@+#+<+[+}+|+1+                  . . . ",
"              2+3+4+1.5+6+7+8+9+0+a+b+c+d+H H e+f+g+h+i+j+k+l+m+n+o+p+q+r+                . . . ",
"              *+s+t+u+v+w+x+H y+z+A+B+C+H H H H H D+E+F+G+u+u+H+I+I+J+K+L+                . . . ",
"              w M+N+u+u+w+O+H x+P+Q+Q+x+H H H H H R+S+T+U+u+u+V+I+I+W+X+Y+                . . . ",
"              w M+N+u+u+Z+`+ @H H H H H H H H H H .@+@@@u+u+#@$@I+%@&@*@=@            . . . . . ",
". . . . . . . 1+-@;@j.u+u+u+>@,@,@x+H '@)@H 7+,@P+!@~@u+u+j.{@I+I+]@^@/@(@. . . . . . . . . . . ",
". . . . . . . _@:@<@[@}@u+u+|@1@2@3@4@5@6@H 7@8@9@0@a@u+u+j.b@I+I+c@d@e@_@. . . . . . . . . . . ",
". . . . . . . f@g@h@i@I.u+u+u+u+u+j@k@l@m@n@o@p@q@#+u+u+u+j.b@I+I+r@s@1+. . . . . . . . . . . . ",
"          . . . . t@m.u@u+u+u+u+u+u+v@w@x@y@y@z@A@u+u+u+u+v@{@I+B@C@D@w               . . . . . ",
"            . . . E@M.F@<+u+u+u+u+u+u+u+G@H@I@H.v@u+u+u+V+b@J@K@L@M@N@*+                  . . . ",
"            . . . O@P@Q@R@#@S@u+u+u+u+u+u+u+u+u+u+u+v@m+T@I+I+U@V@W@X@Q                   . . . ",
"            . . . .   Y@Z@`@ #u+u+u+u+u+u+u+u+u+u+u+A@.#I+I+n++#@###                      . . . ",
"            . . .     | $#%#&#*#S@u+u+u+u+u+u+<+=#-#$@[+I+;#>#,#'#)#                      . . . ",
"            . .       !#~#{#]#^#/#(#(#(#(#(#(#_#n+I+I+I+:#<#[#}#|#1#                      . . . ",
". . . . . .           2+2#3#4#^#[+[+[+[+[+[+[+[+I+I+I+I+5#6#7#8#w @                       . . . ",
". . . . . .             9#0#a#b#c#d#I+I+I+I+I+I+I+e#f#>#g#h#i#j#                          . . . ",
". . . . .                   k#l#m#n#:#:#:#:#:#:#:#o#p#q#r#s#t#                            . . . ",
"+ + . .                     u#v#w#x#y#z#z#z#z#z#A#B#C#D#E#9#Q                             . . . ",
"+ . .                         u#F#G#H#I#I#I#I#I#J#K#L#M#N#                                . . . ",
". . .                             O#P#Q#Q#R#R#R#Q#Q#S#T#                                  . . . ",
"                                  U#o.$ $ V#V#V#$ $ t#2+                                  . . . ",
"                                          . . .                                           . . . ",
"                                          . . .                                           . . . ",
"                                          . . .                                           . . . ",
"                                          . . .                                           . . . ",
"                                          . . .                                           . . . ",
"                                          . . .                                           . . . ",
"                                          . . .                                           . . . ",
"                                        . . . . .                                       . . . . ",
". . . . . . . . . . . . . . . . . . . . . . . . . . . . . . . . . . . . . . . . . . . . . . + + ",
"+ + + + + . . . . . . . . . . . . . . . . . . . . . . . . . . . . . + . . . . . + + + + + + + + ",
"+ + + + + + . . . . . . . . . . . . . . . . . . . . . . . . . . . + + + . . . + + + + + + + + + "};
