/* XPM */
static char * player4_xpm[] = {
"48 48 542 2",
"  	c #5A6988",
". 	c #3A4466",
"+ 	c #596887",
"@ 	c #384463",
"# 	c #344C5C",
"$ 	c #324C59",
"% 	c #546580",
"& 	c #596886",
"* 	c #262B44",
"= 	c #384363",
"- 	c #384262",
"; 	c #5A6987",
"> 	c #576784",
", 	c #556581",
"' 	c #566582",
") 	c #52637D",
"! 	c #4B5D74",
"~ 	c #4D5E77",
"{ 	c #566683",
"] 	c #546480",
"^ 	c #4F607A",
"/ 	c #50617B",
"( 	c #586785",
"_ 	c #586685",
": 	c #394364",
"< 	c #505F7B",
"[ 	c #3E4D61",
"} 	c #3B4B5D",
"| 	c #293849",
"1 	c #28384A",
"2 	c #3B4C5D",
"3 	c #3C4C5D",
"4 	c #3D4C60",
"5 	c #3C4B5F",
"6 	c #3F4E64",
"7 	c #505F7A",
"8 	c #566482",
"9 	c #4F5E79",
"0 	c #4A5972",
"a 	c #496E77",
"b 	c #438579",
"c 	c #42897A",
"d 	c #42897D",
"e 	c #448B7D",
"f 	c #50907D",
"g 	c #59927C",
"h 	c #59917A",
"i 	c #477E6B",
"j 	c #3C7867",
"k 	c #3A7468",
"l 	c #41666A",
"m 	c #4E5D78",
"n 	c #556480",
"o 	c #576684",
"p 	c #4A5E70",
"q 	c #3B5B5E",
"r 	c #386561",
"s 	c #5D9A86",
"t 	c #87DBB4",
"u 	c #8DE2B7",
"v 	c #90E3B7",
"w 	c #93E4B7",
"x 	c #91E4B7",
"y 	c #90E4B7",
"z 	c #8EE3B6",
"A 	c #78D0A8",
"B 	c #65C6A0",
"C 	c #5BBA97",
"D 	c #4C967E",
"E 	c #345C59",
"F 	c #324D54",
"G 	c #425468",
"H 	c #53627E",
"I 	c #45556A",
"J 	c #425764",
"K 	c #588B7C",
"L 	c #65AE91",
"M 	c #71BF9E",
"N 	c #92D8AE",
"O 	c #BEF8BE",
"P 	c #C2FCBF",
"Q 	c #C1FBBF",
"R 	c #BBF9BF",
"S 	c #A8F3BF",
"T 	c #98EFBF",
"U 	c #97EFBE",
"V 	c #92ECBC",
"W 	c #83E2B4",
"X 	c #6ED2A6",
"Y 	c #5EBC96",
"Z 	c #52A487",
"` 	c #468677",
" .	c #375F60",
"..	c #3F5163",
"+.	c #44556A",
"@.	c #4B5B73",
"#.	c #586786",
"$.	c #596786",
"%.	c #38555F",
"&.	c #396C63",
"*.	c #578E79",
"=.	c #7CC8A3",
"-.	c #97EAB8",
";.	c #ACF2BC",
">.	c #BDF7BD",
",.	c #CBFEBF",
"'.	c #CCFFC0",
").	c #CAFEC0",
"!.	c #BFFAC0",
"~.	c #A7F3C0",
"{.	c #99F0BF",
"].	c #98F0BF",
"^.	c #97F0BF",
"/.	c #8DE8B9",
"(.	c #70D3A7",
"_.	c #64C89E",
":.	c #60C29A",
"<.	c #5CB996",
"[.	c #4A927E",
"}.	c #396C65",
"|.	c #3A6C6B",
"1.	c #406E73",
"2.	c #4D5F77",
"3.	c #38575C",
"4.	c #47917B",
"5.	c #6EC59F",
"6.	c #84D6AB",
"7.	c #92E8BA",
"8.	c #A3F5BF",
"9.	c #C0FCC0",
"0.	c #CBFEC0",
"a.	c #C2FCC0",
"b.	c #AAF4BF",
"c.	c #9CF1BF",
"d.	c #8EE8B8",
"e.	c #6FD1A5",
"f.	c #65CAA0",
"g.	c #63C99F",
"h.	c #61C79D",
"i.	c #58B491",
"j.	c #4D9B87",
"k.	c #4D9F90",
"l.	c #4A9C92",
"m.	c #3E676D",
"n.	c #4E5F78",
"o.	c #51617C",
"p.	c #3D5E63",
"q.	c #4B9981",
"r.	c #76D1A8",
"s.	c #8EEBBB",
"t.	c #94F0BF",
"u.	c #99F0BE",
"v.	c #A4F2BE",
"w.	c #B9F9BF",
"x.	c #C0FBC0",
"y.	c #BBF9C0",
"z.	c #BAF8C0",
"A.	c #ADF5BF",
"B.	c #9DF1BF",
"C.	c #93EDBD",
"D.	c #82E1B4",
"E.	c #6CCFA4",
"F.	c #64CAA0",
"G.	c #62C89E",
"H.	c #5DBD98",
"I.	c #53A990",
"J.	c #53AE99",
"K.	c #54B3A2",
"L.	c #4B9C94",
"M.	c #457479",
"N.	c #4C5F77",
"O.	c #5A6887",
"P.	c #3D4F61",
"Q.	c #397467",
"R.	c #60C19C",
"S.	c #83E1B3",
"T.	c #91ECBC",
"U.	c #94EEBD",
"V.	c #95EBBA",
"W.	c #91E1B4",
"X.	c #94E2B4",
"Y.	c #98EAB9",
"Z.	c #9DF2BE",
"`.	c #9EF2C0",
" +	c #7BD8AC",
".+	c #63C39B",
"++	c #5CBC96",
"@+	c #62C59D",
"#+	c #5DBE98",
"$+	c #53A88E",
"%+	c #52A891",
"&+	c #55B2A0",
"*+	c #57B7AA",
"=+	c #47918A",
"-+	c #3C5965",
";+	c #52617D",
">+	c #546380",
",+	c #39515D",
"'+	c #438974",
")+	c #62C39C",
"!+	c #78D9AC",
"~+	c #8BE6B6",
"{+	c #8FE7B6",
"]+	c #81CAA3",
"^+	c #5B9681",
"/+	c #50907F",
"(+	c #72BF9E",
"_+	c #95EBBB",
":+	c #95EEBE",
"<+	c #80E2B3",
"[+	c #55967B",
"}+	c #39695B",
"|+	c #3D7A64",
"1+	c #51AA86",
"2+	c #61C59D",
"3+	c #62C79E",
"4+	c #53A88C",
"5+	c #51A58C",
"6+	c #54AF9B",
"7+	c #58BAAC",
"8+	c #489890",
"9+	c #3A5D64",
"0+	c #50607A",
"a+	c #556582",
"b+	c #4D6577",
"c+	c #457D71",
"d+	c #53AB8A",
"e+	c #61C49B",
"f+	c #65CBA0",
"g+	c #6AC89E",
"h+	c #79C5A1",
"i+	c #84AF9D",
"j+	c #708083",
"k+	c #54636B",
"l+	c #51816F",
"m+	c #84D0A7",
"n+	c #95EABA",
"o+	c #95EDBC",
"p+	c #90EABA",
"q+	c #8BE5B6",
"r+	c #81D9AE",
"s+	c #60B08F",
"t+	c #6F8B87",
"u+	c #68737C",
"v+	c #4F5B65",
"w+	c #3F7766",
"x+	c #51A685",
"y+	c #59B593",
"z+	c #52A68B",
"A+	c #51A48A",
"B+	c #53AA94",
"C+	c #57B5A6",
"D+	c #4DA49A",
"E+	c #407D7A",
"F+	c #496577",
"G+	c #4A5A72",
"H+	c #3A6460",
"I+	c #53A88A",
"J+	c #63C89E",
"K+	c #61C69C",
"L+	c #55AD8A",
"M+	c #58877C",
"N+	c #939DA6",
"O+	c #9EA5B2",
"P+	c #7B8393",
"Q+	c #2F3B50",
"R+	c #51826D",
"S+	c #85D4A9",
"T+	c #82DAAE",
"U+	c #72D6AA",
"V+	c #68CBA1",
"W+	c #5EB591",
"X+	c #4A756A",
"Y+	c #9AA2AE",
"Z+	c #9EA4B2",
"`+	c #71788A",
" @	c #304150",
".@	c #2E5A53",
"+@	c #4B967F",
"@@	c #52A58A",
"#@	c #51A38A",
"$@	c #51A38B",
"%@	c #53A994",
"&@	c #56B7A8",
"*@	c #50AA9E",
"=@	c #3C7372",
"-@	c #46596E",
";@	c #2F3E55",
">@	c #2F5856",
",@	c #4F9C86",
"'@	c #60C29B",
")@	c #63C79E",
"!@	c #62C69D",
"~@	c #52AC88",
"{@	c #466A64",
"]@	c #67687A",
"^@	c #71768E",
"/@	c #606880",
"(@	c #2C3450",
"_@	c #3C665A",
":@	c #67BA94",
"<@	c #6BCBA1",
"[@	c #67CBA1",
"}@	c #61C89E",
"|@	c #58B18D",
"1@	c #3C645D",
"2@	c #6D7484",
"3@	c #747C91",
"4@	c #5E637D",
"5@	c #2E3D50",
"6@	c #29484C",
"7@	c #478D78",
"8@	c #50A288",
"9@	c #51A790",
"0@	c #58BBAA",
"a@	c #53AFA1",
"b@	c #3A7673",
"c@	c #2D4053",
"d@	c #2E5456",
"e@	c #48907F",
"f@	c #58B393",
"g@	c #60C19B",
"h@	c #61C49C",
"i@	c #58B591",
"j@	c #4A8974",
"k@	c #365154",
"l@	c #323C52",
"m@	c #313652",
"n@	c #2E4456",
"o@	c #458470",
"p@	c #5FBC96",
"q@	c #64C89F",
"r@	c #64C99F",
"s@	c #5CBA94",
"t@	c #3F7768",
"u@	c #2F3F4A",
"v@	c #31354F",
"w@	c #313655",
"x@	c #2E4157",
"y@	c #396D63",
"z@	c #49937D",
"A@	c #51A189",
"B@	c #52AFA1",
"C@	c #397673",
"D@	c #303E56",
"E@	c #2F5756",
"F@	c #499281",
"G@	c #52A58B",
"H@	c #58B191",
"I@	c #5EBF99",
"J@	c #56B38D",
"K@	c #42856D",
"L@	c #304F51",
"M@	c #2F4C51",
"N@	c #417B6E",
"O@	c #5BB794",
"P@	c #61C59C",
"Q@	c #5DBD97",
"R@	c #4E9D83",
"S@	c #325957",
"T@	c #2B3C4B",
"U@	c #2C4150",
"V@	c #3A6B68",
"W@	c #49937E",
"X@	c #4E9F87",
"Y@	c #52AFA2",
"Z@	c #3A7774",
"`@	c #325B59",
" #	c #4B9783",
".#	c #50A28A",
"+#	c #52A68C",
"@#	c #56AF8F",
"##	c #5EBE98",
"$#	c #56B18C",
"%#	c #4A997A",
"&#	c #499778",
"*#	c #56AF8C",
"=#	c #60C39B",
"-#	c #60C49D",
";#	c #5CBC98",
">#	c #5BB996",
",#	c #5BB695",
"'#	c #52A389",
")#	c #438775",
"!#	c #3B7869",
"~#	c #3D7B6A",
"{#	c #47907B",
"]#	c #4FA188",
"^#	c #51A289",
"/#	c #58BDAC",
"(#	c #53B1A4",
"_#	c #3D7A78",
":#	c #425668",
"<#	c #576583",
"[#	c #335F5E",
"}#	c #4E9F8D",
"|#	c #51A690",
"1#	c #57B291",
"2#	c #5DBC98",
"3#	c #59B592",
"4#	c #5BBB95",
"5#	c #5FC39B",
"6#	c #5CBB97",
"7#	c #55AC90",
"8#	c #53A78D",
"9#	c #53A48B",
"0#	c #4D9982",
"a#	c #4B9681",
"b#	c #4D9C84",
"c#	c #4E9D85",
"d#	c #4FA087",
"e#	c #54AB95",
"f#	c #5AC3B9",
"g#	c #55B7B2",
"h#	c #3E7D7F",
"i#	c #425669",
"j#	c #303F56",
"k#	c #346262",
"l#	c #50A799",
"m#	c #53AF9B",
"n#	c #52A78F",
"o#	c #56AD8F",
"p#	c #59B392",
"q#	c #58B292",
"r#	c #4F9F82",
"s#	c #488E75",
"t#	c #53A689",
"u#	c #53A88B",
"v#	c #50A289",
"w#	c #4E9C85",
"x#	c #407D6C",
"y#	c #48927D",
"z#	c #51A48C",
"A#	c #51A38C",
"B#	c #52A890",
"C#	c #58B9AB",
"D#	c #5ECFD5",
"E#	c #57BFC6",
"F#	c #3E7C87",
"G#	c #44576D",
"H#	c #394365",
"I#	c #34415D",
"J#	c #345C63",
"K#	c #47958E",
"L#	c #53AE9E",
"M#	c #54AF9C",
"N#	c #52A78E",
"O#	c #51A48B",
"P#	c #488F79",
"Q#	c #3D7765",
"R#	c #3D796A",
"S#	c #3E7D6E",
"T#	c #428573",
"U#	c #438774",
"V#	c #40806E",
"W#	c #3D7764",
"X#	c #478F79",
"Y#	c #50A189",
"Z#	c #53AB94",
"`#	c #54AC96",
" $	c #54AC94",
".$	c #54AE96",
"+$	c #58BDAF",
"@$	c #5ED0DE",
"#$	c #54B5C3",
"$$	c #406F7F",
"%$	c #4E617B",
"&$	c #394465",
"*$	c #364662",
"=$	c #3F5E6A",
"-$	c #46928A",
";$	c #54B0A0",
">$	c #54AE9C",
",$	c #52A790",
"'$	c #51A68E",
")$	c #52A68F",
"!$	c #51A58E",
"~$	c #4C9C86",
"{$	c #3D7B6F",
"]$	c #356D67",
"^$	c #356C67",
"/$	c #356E67",
"($	c #3C7C70",
"_$	c #53AB96",
":$	c #58BFAE",
"<$	c #5CC6BA",
"[$	c #5BC6BB",
"}$	c #5AC2B8",
"|$	c #5AC4C1",
"1$	c #5DCCD9",
"2$	c #4FA8B7",
"3$	c #3F6D7D",
"4$	c #516580",
"5$	c #515F7B",
"6$	c #456B77",
"7$	c #438880",
"8$	c #57B8A9",
"9$	c #57B9A9",
"0$	c #58BAAB",
"a$	c #58BEAE",
"b$	c #51ADA1",
"c$	c #4DA79C",
"d$	c #4DA69B",
"e$	c #50ADA1",
"f$	c #57BAAA",
"g$	c #57B9AA",
"h$	c #58BCAD",
"i$	c #5AC4B6",
"j$	c #5ECECE",
"k$	c #5ECFDC",
"l$	c #53B6C0",
"m$	c #469295",
"n$	c #458F9C",
"o$	c #436878",
"p$	c #505E7A",
"q$	c #42616E",
"r$	c #47928D",
"s$	c #51ACA2",
"t$	c #52AEA4",
"u$	c #53AFA4",
"v$	c #52AFA4",
"w$	c #53AFA5",
"x$	c #53AEA4",
"y$	c #52ACA3",
"z$	c #53B2A7",
"A$	c #56BABB",
"B$	c #56B9C7",
"C$	c #4A94A5",
"D$	c #3B5363",
"E$	c #405467",
"F$	c #52647E",
"G$	c #51627D",
"H$	c #426670",
"I$	c #366566",
"J$	c #336362",
"K$	c #366666",
"L$	c #37686D",
"M$	c #3B6A74",
"N$	c #49677E",
"O$	c #556481",
"P$	c #485870",
"Q$	c #47576E",
"                                          . . .                 + @ # $ % &               . * * ",
"                                          . . .                   . = - +                 . * * ",
"                                          . . .                   . . .       ; ;         . . * ",
"                                          . . .                   . . .     > , ' &       . . . ",
"                                          . . .                   . . .     ) ! ~ {       . . . ",
"                                          . . .                   . . .     ] ^ / >       . . . ",
"                                          . . .                   . . .     + ( ( ;       . . . ",
"                                          . . .                   . . .                   . . . ",
"                                          . . .                                           . . . ",
"                                    + ( _ : : : _ _ ( _ ( +                               . . . ",
"                                  + < [ } | 1 | 2 3 4 5 6 7 +                             . . . ",
"                              8 9 0 a b c d e f g h i j k l 0 m n                         . . . ",
"                        & o , p q r s t u v w x y z A B C D E F G H o _                   . . . ",
"                      ( 9 I J K L M N O P Q R S T U V W X Y Z `  ...+.@.#.                . . . ",
"                    $.m %.&.*.=.-.;.>.,.'.).!.~.{.].^./.(._.:.<.[.}.|.1.2.o               . . . ",
"                  + 9 3.4.5.6.7.8.9.0.'.'.a.b.c.].].^.d.e.f.g.h.i.j.k.l.m.n.o             . . . ",
"                & o.p.q.r.s.t.u.v.w.x.y.z.A.B.].].].C.D.E.F.g.G.H.I.J.K.L.M.N.o O.        . . . ",
"                ' P.Q.R.S.T.U.V.W.X.Y.Z.`.c.{.].].U. +.+++@+G.G.#+$+%+&+*+=+-+;++         . . . ",
"              ; >+,+'+)+!+~+{+]+^+/+(+_+{.].].].:+<+[+}+|+1+2+3+H.4+5+6+7+8+9+0+&         . . . ",
"            ; a+b+c+d+e+f+g+h+i+j+k+l+m+n+o+p+q+r+s+t+u+v+w+x+<.y+z+A+B+C+D+E+F+] +       . . . ",
"            #.G+H+I+2+J+K+L+M+N+O+P+Q+R+S+T+U+V+W+X+Y+Z+`+ @.@+@@@A+#@$@%@&@*@=@-@o   . . . . . ",
". . . . . . : ;@>@,@'@)@!@~@{@]@^@/@(@_@:@<@[@}@|@1@2@3@4@5@6@7@8@#@#@#@9@0@a@b@c@- . . . . . . ",
". . . . . . : ;@d@e@f@g@h@i@j@k@l@m@n@o@p@q@r@G.s@t@u@v@w@x@y@z@A@#@#@#@9@0@B@C@c@- . . . . . . ",
". . . . . . : D@E@F@G@H@I@#+J@K@L@M@N@O@2+3+!@P@Q@R@S@T@U@V@W@X@#@#@#@#@9@0@Y@Z@c@- . . . . . . ",
"          . : D@`@ #.#+#@#H.##$#%#&#*#=#3+-#;#>#,#'#)#!#~#{#]#^##@#@#@#@%+/#(#_#:#<#  . . . . . ",
"            : D@[#}#|#$@z+1#2#<.3#3#3#4#5#6#7#8#9#0#a#b#c#d##@#@#@#@#@#@e#f#g#h#i#<#      . . . ",
"            : j#k#l#m#n##@G@o#p#y+q#r#s#t#u#v#w#W@x#y#v##@#@#@z#A#$@A+B#C#D#E#F#G#<#      . . . ",
"            H#I#J#K#L#M#N##@A+A+O#.#P#Q#R#S#T#U#V#W#X#Y##@#@5+Z#`# $.$+$D#@$#$$$%$(       . . . ",
"            . &$*$=$-$;$>$,$'$'$)$,$!$~${$]$^$/$($~$!$)$'$)$_$:$<$[$}$|$1$2$3$4$#.        . . . ",
"            . . ; 5$6$7$a@8$8$9$9$0$a$+$b$c$d$c$e$+$a$f$9$g$h$i$j$k$l$m$n$o$o.+           . . . ",
". . . . . .         p$q$r$s$t$u$u$t$v$w$x$y$y$y$x$w$v$t$u$u$v$z$A$B$C$D$E$F$&             . . . ",
". . . . . .         + G$H$I$I$I$I$I$I$I$I$J$J$J$I$I$I$I$I$I$I$K$L$M$N$>+O$(               . . . ",
". . . . .             & 9 P$Q$Q$Q$Q$Q$Q$Q$;@;@;@Q$Q$Q$Q$Q$Q$Q$Q$Q$G+>+;                   . . . ",
"* * . .                 + #.#.#.#.#.#.#.#.: : : #.#.#.#.#.#.#.#.#.#.;                     . . . ",
"* . .                                     . . .                                           . . . ",
". . .                                     . . .                                           . . . ",
"                                          . . .                                           . . . ",
"                                          . . .                                           . . . ",
"                                          . . .                                           . . . ",
"                                          . . .                                           . . . ",
"                                          . . .                                           . . . ",
"                                          . . .                                           . . . ",
"                                          . . .                                           . . . ",
"                                          . . .                                           . . . ",
"                                        . . . . .                                       . . . . ",
". . . . . . . . . . . . . . . . . . . . . . . . . . . . . . . . . . . . . . . . . . . . . . * * ",
"* * * * * . . . . . . . . . . . . . . . . . . . . . . . . . . . . . * . . . . . * * * * * * * * ",
"* * * * * * . . . . . . . . . . . . . . . . . . . . . . . . . . . * * * . . . * * * * * * * * * "};
