/* XPM */
static char * portal_of_xpm[] = {
"48 48 786 2",
"  	c #5A6988",
". 	c #3A4466",
"+ 	c #262B44",
"@ 	c #5C6986",
"# 	c #606B86",
"$ 	c #747A8B",
"% 	c #908C8B",
"& 	c #94908C",
"* 	c #697085",
"= 	c #5A6987",
"- 	c #5B6986",
"; 	c #5B6988",
"> 	c #808592",
", 	c #AAA6A1",
"' 	c #919090",
") 	c #7E7A7F",
"! 	c #989591",
"~ 	c #5A6784",
"{ 	c #5C6A87",
"] 	c #88898F",
"^ 	c #8F8B8C",
"/ 	c #5F6B85",
"( 	c #3B4466",
"_ 	c #757989",
": 	c #ACA6A0",
"< 	c #88878C",
"[ 	c #5E667F",
"} 	c #6D6871",
"| 	c #7A7D87",
"1 	c #5A6886",
"2 	c #5B6987",
"3 	c #7F7F86",
"4 	c #979391",
"5 	c #736E76",
"6 	c #62657B",
"7 	c #515368",
"8 	c #B0ACA2",
"9 	c #807C7E",
"0 	c #5A6887",
"a 	c #5B6885",
"b 	c #636E88",
"c 	c #898990",
"d 	c #898689",
"e 	c #74757F",
"f 	c #9F978D",
"g 	c #656B81",
"h 	c #5A6480",
"i 	c #5A6785",
"j 	c #3C4566",
"k 	c #858080",
"l 	c #B3ADA0",
"m 	c #76757E",
"n 	c #817F85",
"o 	c #696F82",
"p 	c #5D6A85",
"q 	c #979594",
"r 	c #A09C9A",
"s 	c #8A8485",
"t 	c #958F87",
"u 	c #A59C8E",
"v 	c #727382",
"w 	c #454A64",
"x 	c #B4ADA3",
"y 	c #857F80",
"z 	c #8D8787",
"A 	c #97908C",
"B 	c #787881",
"C 	c #636C85",
"D 	c #626A81",
"E 	c #636C83",
"F 	c #A39E96",
"G 	c #6A6A77",
"H 	c #5B6683",
"I 	c #5C6782",
"J 	c #92897F",
"K 	c #80797A",
"L 	c #454962",
"M 	c #B1A99E",
"N 	c #726F78",
"O 	c #81797B",
"P 	c #646B80",
"Q 	c #646A7F",
"R 	c #86868D",
"S 	c #898B94",
"T 	c #616B85",
"U 	c #5A6681",
"V 	c #908B8D",
"W 	c #A39C93",
"X 	c #5C637B",
"Y 	c #727381",
"Z 	c #6D6A76",
"` 	c #696C7C",
" .	c #97918A",
"..	c #5A6580",
"+.	c #596582",
"@.	c #474A63",
"#.	c #AFA899",
"$.	c #7E7571",
"%.	c #65697B",
"&.	c #939297",
"*.	c #9E9891",
"=.	c #8E8786",
"-.	c #9D9693",
";.	c #99938F",
">.	c #707484",
",.	c #5A6683",
"'.	c #5B5E75",
").	c #5A627D",
"!.	c #6F7283",
"~.	c #A5A196",
"{.	c #918981",
"].	c #828289",
"^.	c #5D6A86",
"/.	c #676B7E",
"(.	c #90877F",
"_.	c #777376",
":.	c #A7A198",
"<.	c #6B6F7F",
"[.	c #474A62",
"}.	c #B2AA9C",
"|.	c #716C72",
"1.	c #909094",
"2.	c #A8A298",
"3.	c #6C7080",
"4.	c #5C6987",
"5.	c #5D6A87",
"6.	c #6C6C79",
"7.	c #645D66",
"8.	c #5A6684",
"9.	c #5B515D",
"0.	c #5B637E",
"a.	c #5B6784",
"b.	c #7E797F",
"c.	c #A1988A",
"d.	c #9C958A",
"e.	c #89827F",
"f.	c #858388",
"g.	c #888687",
"h.	c #9C9286",
"i.	c #7D787A",
"j.	c #6C6B78",
"k.	c #6B6771",
"l.	c #747685",
"m.	c #9D9792",
"n.	c #807E82",
"o.	c #454B68",
"p.	c #A69E92",
"q.	c #827F81",
"r.	c #B7B0A2",
"s.	c #A39C94",
"t.	c #606A83",
"u.	c #5A5C72",
"v.	c #5A6079",
"w.	c #787071",
"x.	c #6E7487",
"y.	c #7D7372",
"z.	c #6D6C76",
"A.	c #5A6581",
"B.	c #595D75",
"C.	c #898687",
"D.	c #A39D8F",
"E.	c #6E6F7C",
"F.	c #58607A",
"G.	c #676372",
"H.	c #6D7082",
"I.	c #979190",
"J.	c #6B6976",
"K.	c #ADA697",
"L.	c #A59E8F",
"M.	c #938E89",
"N.	c #837D7F",
"O.	c #5E6A87",
"P.	c #5F6984",
"Q.	c #837E81",
"R.	c #918E8B",
"S.	c #6F6C75",
"T.	c #817770",
"U.	c #5E6883",
"V.	c #7F7D82",
"W.	c #A69F94",
"X.	c #58617A",
"Y.	c #606B85",
"Z.	c #938D8A",
"`.	c #6A6873",
" +	c #4A4C63",
".+	c #B8B1A2",
"++	c #99938B",
"@+	c #5A647F",
"#+	c #5A627C",
"$+	c #58627D",
"%+	c #5B6886",
"&+	c #7B777F",
"*+	c #8D8A8B",
"=+	c #616A82",
"-+	c #9E978C",
";+	c #9E9788",
">+	c #6C6871",
",+	c #5B6783",
"'+	c #5C647B",
")+	c #5A6682",
"!+	c #666C81",
"~+	c #AAA49A",
"{+	c #59617A",
"]+	c #707486",
"^+	c #948C88",
"/+	c #51546A",
"(+	c #6B646A",
"_+	c #B0A99A",
":+	c #6B6A75",
"<+	c #5A6582",
"[+	c #74737D",
"}+	c #948D8A",
"|+	c #686E84",
"1+	c #414866",
"2+	c #978D83",
"3+	c #9F9385",
"4+	c #5D6278",
"5+	c #5F6A85",
"6+	c #938C86",
"7+	c #BEBAB3",
"8+	c #A49E95",
"9+	c #6E707F",
"0+	c #8C8A8F",
"a+	c #958D89",
"b+	c #837E7F",
"c+	c #B0ACA3",
"d+	c #7B7B84",
"e+	c #97928E",
"f+	c #645F68",
"g+	c #948A7F",
"h+	c #625B62",
"i+	c #5D6985",
"j+	c #8A8A90",
"k+	c #979496",
"l+	c #3F4665",
"m+	c #897E74",
"n+	c #877F78",
"o+	c #676A7A",
"p+	c #8E8785",
"q+	c #9F9996",
"r+	c #686F85",
"s+	c #60667E",
"t+	c #646374",
"u+	c #5B6681",
"v+	c #6D7183",
"w+	c #8E8782",
"x+	c #66697B",
"y+	c #8E8C8E",
"z+	c #88868A",
"A+	c #B3AB9E",
"B+	c #B6B1A4",
"C+	c #59627B",
"D+	c #88817D",
"E+	c #A8A499",
"F+	c #A59F91",
"G+	c #716B6D",
"H+	c #404664",
"I+	c #7E7E85",
"J+	c #716F7A",
"K+	c #666F86",
"L+	c #9B968F",
"M+	c #95908F",
"N+	c #4A4B63",
"O+	c #8D8074",
"P+	c #948A7D",
"Q+	c #A49D91",
"R+	c #8E8B8D",
"S+	c #8E8D93",
"T+	c #807A7F",
"U+	c #596480",
"V+	c #6B6B78",
"W+	c #7D7574",
"X+	c #646B81",
"Y+	c #5B637D",
"Z+	c #837E7E",
"`+	c #C1BDAF",
" @	c #5F667B",
".@	c #5D6680",
"+@	c #989186",
"@@	c #B9B3A3",
"#@	c #A29A8C",
"$@	c #7C7776",
"%@	c #5A5968",
"&@	c #B3B0A9",
"*@	c #5F6073",
"=@	c #5C647E",
"-@	c #97908A",
";@	c #918D8A",
">@	c #635E67",
",@	c #A19888",
"'@	c #9E9687",
")@	c #777781",
"!@	c #5C6078",
"~@	c #5C6783",
"{@	c #7B7373",
"]@	c #6D6E7B",
"^@	c #919194",
"/@	c #716E76",
"(@	c #596079",
"_@	c #6C6B76",
":@	c #C8C3B4",
"<@	c #9D9C9A",
"[@	c #67636C",
"}@	c #A59C8C",
"|@	c #AFA697",
"1@	c #787272",
"2@	c #8C8279",
"3@	c #5B5864",
"4@	c #ACA69D",
"5@	c #474861",
"6@	c #6C6973",
"7@	c #89807A",
"8@	c #3F4664",
"9@	c #A29A8F",
"0@	c #A69D8C",
"a@	c #6D676B",
"b@	c #3D4566",
"c@	c #3D4463",
"d@	c #695E5D",
"e@	c #948C82",
"f@	c #9E978E",
"g@	c #47435B",
"h@	c #434761",
"i@	c #A9A397",
"j@	c #C8C4B8",
"k@	c #5F6072",
"l@	c #3C4565",
"m@	c #665C5C",
"n@	c #9C9282",
"o@	c #3D3745",
"p@	c #3D3847",
"q@	c #403C49",
"r@	c #A59E94",
"s@	c #7F7A78",
"t@	c #9B958C",
"u@	c #555464",
"v@	c #3B4566",
"w@	c #777579",
"x@	c #C6C1B2",
"y@	c #756C68",
"z@	c #3E4563",
"A@	c #3B4465",
"B@	c #66646F",
"C@	c #A9A294",
"D@	c #B3AD9D",
"E@	c #AFA99C",
"F@	c #4A4C64",
"G@	c #625C64",
"H@	c #D4CFBE",
"I@	c #CECABF",
"J@	c #5E5F70",
"K@	c #6A605F",
"L@	c #6C6360",
"M@	c #282C44",
"N@	c #292D44",
"O@	c #756D68",
"P@	c #9F9688",
"Q@	c #B1AB9C",
"R@	c #505265",
"S@	c #404766",
"T@	c #757378",
"U@	c #C9C3B4",
"V@	c #9B9185",
"W@	c #4A495E",
"X@	c #554D5B",
"Y@	c #7A7171",
"Z@	c #404665",
"`@	c #3A4465",
" #	c #6C6B73",
".#	c #A39D97",
"+#	c #625D69",
"@#	c #6D666C",
"##	c #AFAA9D",
"$#	c #BAB5A5",
"%#	c #3F4766",
"&#	c #414663",
"*#	c #7C716C",
"=#	c #D4D0C0",
"-#	c #C7C3B3",
";#	c #958B7D",
">#	c #A49B8B",
",#	c #716B6E",
"'#	c #272B44",
")#	c #4F5068",
"!#	c #A59F93",
"~#	c #CFCABC",
"{#	c #6A6469",
"]#	c #3E4666",
"^#	c #666573",
"/#	c #A5A099",
"(#	c #CBC6B6",
"_#	c #A9A090",
":#	c #5B5762",
"<#	c #4F5269",
"[#	c #4B506A",
"}#	c #3F4767",
"|#	c #434562",
"1#	c #4F4F64",
"2#	c #A59E95",
"3#	c #524C5C",
"4#	c #586683",
"5#	c #AFACA3",
"6#	c #70717B",
"7#	c #424661",
"8#	c #9B958B",
"9#	c #BEB8AA",
"0#	c #7E7C81",
"a#	c #5C657F",
"b#	c #7C7679",
"c#	c #C0B9A9",
"d#	c #B8B1A0",
"e#	c #AEA696",
"f#	c #A29D95",
"g#	c #464C68",
"h#	c #494E69",
"i#	c #BAB6AD",
"j#	c #D2CDBE",
"k#	c #7A726E",
"l#	c #A8A7A8",
"m#	c #D8D4C7",
"n#	c #DDD9CA",
"o#	c #C4BFAD",
"p#	c #BFBBAA",
"q#	c #C1BBAE",
"r#	c #CCC6BA",
"s#	c #C4BFB6",
"t#	c #A5A4A2",
"u#	c #858690",
"v#	c #6F7181",
"w#	c #73717B",
"x#	c #807C80",
"y#	c #908C8C",
"z#	c #827E85",
"A#	c #777884",
"B#	c #766F71",
"C#	c #585D75",
"D#	c #434763",
"E#	c #9C968B",
"F#	c #B9B5A9",
"G#	c #8C8B8D",
"H#	c #424865",
"I#	c #5A6885",
"J#	c #696B79",
"K#	c #A89E8E",
"L#	c #C3BDAC",
"M#	c #D0CBBD",
"N#	c #6D6C77",
"O#	c #484D68",
"P#	c #B7B4AB",
"Q#	c #BDB7A7",
"R#	c #B9B3A7",
"S#	c #DFDCCD",
"T#	c #D9D5C5",
"U#	c #C3BEAC",
"V#	c #AAA294",
"W#	c #A79F93",
"X#	c #AAA196",
"Y#	c #B2ACA1",
"Z#	c #C4BEB0",
"`#	c #CCC7B8",
" $	c #9C9489",
".$	c #7B716D",
"+$	c #797174",
"@$	c #7D7A83",
"#$	c #7E7E89",
"$$	c #5E6B87",
"%$	c #5C6683",
"&$	c #525165",
"*$	c #4C465A",
"=$	c #434764",
"-$	c #7B7778",
";$	c #B8B4A7",
">$	c #7E7C84",
",$	c #7D7C85",
"'$	c #83838A",
")$	c #727687",
"!$	c #6D686D",
"~$	c #B6AE9C",
"{$	c #E1DECD",
"]$	c #C6C3B9",
"^$	c #4C5068",
"/$	c #6F7385",
"($	c #A49E92",
"_$	c #B8B2A1",
":$	c #DCD9C7",
"<$	c #C4BFAE",
"[$	c #8C837B",
"}$	c #6C6972",
"|$	c #5D657D",
"1$	c #62677B",
"2$	c #948C84",
"3$	c #7E7779",
"4$	c #5C6680",
"5$	c #5B647D",
"6$	c #8D8888",
"7$	c #968E87",
"8$	c #6C676E",
"9$	c #545568",
"0$	c #7C7777",
"a$	c #B0AA9E",
"b$	c #C2BEAD",
"c$	c #BAB4A4",
"d$	c #A29B90",
"e$	c #9E9690",
"f$	c #B7B1A6",
"g$	c #C2BDB2",
"h$	c #C2BFB7",
"i$	c #767377",
"j$	c #847A6F",
"k$	c #BFB8A7",
"l$	c #E3E1D2",
"m$	c #8B8888",
"n$	c #989088",
"o$	c #BDB6A5",
"p$	c #C8C3B2",
"q$	c #BFBAA9",
"r$	c #756F72",
"s$	c #5C6885",
"t$	c #5D6883",
"u$	c #837A78",
"v$	c #6D686E",
"w$	c #5F677F",
"x$	c #5E6882",
"y$	c #928A82",
"z$	c #615B64",
"A$	c #A49D90",
"B$	c #B8B2A5",
"C$	c #B0ADA6",
"D$	c #878282",
"E$	c #5E6276",
"F$	c #586078",
"G$	c #5B6580",
"H$	c #6B6871",
"I$	c #AAA598",
"J$	c #CECABA",
"K$	c #C7C2B5",
"L$	c #A9A292",
"M$	c #CCC6B6",
"N$	c #C1BCAE",
"O$	c #5A545E",
"P$	c #BAB4A3",
"Q$	c #ABA392",
"R$	c #756E6D",
"S$	c #5D6984",
"T$	c #5D6986",
"U$	c #67697B",
"V$	c #78757D",
"W$	c #5B6581",
"X$	c #8F8579",
"Y$	c #988E81",
"Z$	c #9F988E",
"`$	c #9B958F",
" %	c #9A948C",
".%	c #837F7E",
"+%	c #736862",
"@%	c #777275",
"#%	c #596581",
"$%	c #606172",
"%%	c #998F82",
"&%	c #CFCBBA",
"*%	c #BFBAAB",
"=%	c #AAA291",
"-%	c #C7C2B0",
";%	c #877D71",
">%	c #B2AB9A",
",%	c #A9A08F",
"'%	c #9A9181",
")%	c #8B8886",
"!%	c #A2A09B",
"~%	c #99958F",
"{%	c #98938D",
"]%	c #8C8B8E",
"^%	c #7A7E8B",
"/%	c #787780",
"(%	c #9E9791",
"_%	c #6D6B7A",
":%	c #616377",
"<%	c #726867",
"[%	c #86807C",
"}%	c #757987",
"|%	c #878488",
"1%	c #777071",
"2%	c #6A7184",
"3%	c #596583",
"4%	c #888078",
"5%	c #5E5D6E",
"6%	c #636B83",
"7%	c #8B8887",
"8%	c #B8B5AC",
"9%	c #C2C0B8",
"0%	c #C0BEB5",
"a%	c #BFBCAE",
"b%	c #CDCAB8",
"c%	c #B2AC9C",
"d%	c #A59D8C",
"e%	c #988F7D",
"f%	c #AFA795",
"g%	c #B5B0A1",
"h%	c #B3AC9E",
"i%	c #91887F",
"j%	c #8E857D",
"k%	c #8B837D",
"l%	c #8F8B86",
"m%	c #A19D98",
"n%	c #8B8686",
"o%	c #7E7E86",
"p%	c #756E70",
"q%	c #A19C93",
"r%	c #818085",
"s%	c #737380",
"t%	c #898384",
"u%	c #3E4665",
"v%	c #61687D",
"w%	c #645E68",
"x%	c #5A5F77",
"y%	c #8F847D",
"z%	c #A49B8D",
"A%	c #ACA496",
"B%	c #8F8985",
"C%	c #94908B",
"D%	c #A19D97",
"E%	c #BEB8AB",
"F%	c #D3CEBE",
"G%	c #C6C2B1",
"H%	c #968D7C",
"I%	c #9D9483",
"J%	c #BCB7A7",
"K%	c #BBB4A5",
"L%	c #7B7677",
"M%	c #5E657C",
"N%	c #5A6783",
"O%	c #606A82",
"P%	c #82828A",
"Q%	c #9B9590",
"R%	c #7A7C86",
"S%	c #5D6781",
"T%	c #686D7F",
"U%	c #5C5F75",
"V%	c #636375",
"W%	c #3C4465",
"X%	c #5C667F",
"Y%	c #867C76",
"Z%	c #646473",
"`%	c #847D78",
" &	c #7F7C80",
".&	c #5B6A85",
"+&	c #626D82",
"@&	c #7F847F",
"#&	c #C9C4B3",
"$&	c #9D9384",
"%&	c #988F7E",
"&&	c #9D9484",
"*&	c #A9A291",
"=&	c #717776",
"-&	c #5A6B82",
";&	c #5A6A86",
">&	c #6E7587",
",&	c #928B87",
"'&	c #6E7385",
")&	c #868181",
"!&	c #626B84",
"~&	c #96928D",
"{&	c #656472",
"]&	c #586C81",
"^&	c #567D67",
"/&	c #537F68",
"(&	c #5A7A50",
"_&	c #A8A391",
":&	c #B0A898",
"<&	c #968D7D",
"[&	c #A39A8B",
"}&	c #8C8973",
"|&	c #5F854E",
"1&	c #517B5E",
"2&	c #557E63",
"3&	c #58737B",
"4&	c #989693",
"5&	c #807E81",
"6&	c #948E8A",
"7&	c #686879",
"8&	c #666E84",
"9&	c #696D7F",
"0&	c #597673",
"a&	c #507C55",
"b&	c #659750",
"c&	c #6A895F",
"d&	c #949A80",
"e&	c #A39B8B",
"f&	c #ABA291",
"g&	c #958B7C",
"h&	c #B9B1A1",
"i&	c #8C8A74",
"j&	c #698153",
"k&	c #5C8B4C",
"l&	c #5E904E",
"m&	c #537E5E",
"n&	c #5A747D",
"o&	c #5A6A87",
"p&	c #5E6279",
"q&	c #878283",
"r&	c #747580",
"s&	c #60667C",
"t&	c #5C5A6D",
"u&	c #597A75",
"v&	c #52854D",
"w&	c #678D51",
"x&	c #8A9578",
"y&	c #879172",
"z&	c #948E7B",
"A&	c #A49B8A",
"B&	c #978C7D",
"C&	c #B3AB9A",
"D&	c #B7AF9E",
"E&	c #AAA594",
"F&	c #708457",
"G&	c #588A4B",
"H&	c #54894F",
"I&	c #587F6B",
"J&	c #5A6B86",
"K&	c #5C6784",
"L&	c #606880",
"M&	c #5A6D84",
"N&	c #58865F",
"O&	c #54894C",
"P&	c #4B7A47",
"Q&	c #587E4F",
"R&	c #808F68",
"S&	c #B5B09E",
"T&	c #B1A998",
"U&	c #CCC8B9",
"V&	c #B9B3A4",
"W&	c #5B7B4E",
"X&	c #55884A",
"Y&	c #568750",
"Z&	c #597878",
"`&	c #587D6F",
" *	c #53874D",
".*	c #69974E",
"+*	c #709059",
"@*	c #B6ACA1",
"#*	c #BBB9A7",
"$*	c #ADA794",
"%*	c #CECCBB",
"&*	c #A9A393",
"**	c #959881",
"=*	c #B5BAA4",
"-*	c #8D8F76",
";*	c #67974E",
">*	c #528251",
",*	c #597779",
"'*	c #59727E",
")*	c #56855C",
"!*	c #548651",
"~*	c #6D8E55",
"{*	c #707F58",
"]*	c #597D4E",
"^*	c #6D8858",
"/*	c #7A9964",
"(*	c #A5A693",
"_*	c #5D7F4B",
":*	c #628E4E",
"<*	c #777F64",
"[*	c #517C4F",
"}*	c #5A6D83",
"|*	c #59737D",
"1*	c #567D62",
"2*	c #5B8654",
"3*	c #53864C",
"4*	c #62954C",
"5*	c #6E885A",
"6*	c #81836A",
"7*	c #55844D",
"8*	c #598D51",
"9*	c #547E66",
"0*	c #59777A",
"a*	c #596E83",
"b*	c #57767A",
"c*	c #4B7457",
"d*	c #57894E",
"e*	c #5C7A54",
"f*	c #5B7766",
"g*	c #587A72",
"h*	c #58737C",
"i*	c #3C4A65",
"j*	c #3E5263",
"k*	c #3E5163",
"                                          . . .                   . . .                   . + + ",
"                                          . . .                   . . .                   . + + ",
"                                          . . .                   . . .                   . . + ",
"                                          . . .       @ #         . . .                   . . . ",
"                                          . . .     $ % & *       . . .                   . . . ",
"                            = -           . . . ; > , ' ) ! ~     . . .                   . . . ",
"                          { ] ^ /         . . ( _ : < [ } | 1     . . .                   . . . ",
"                      2 2 3 4 5 6         . . 7 8 9 @ 0 a 2       . . .                   . . . ",
"                  b c d e f g h i         . j k l m n o                                   . . . ",
"                p q r s t u v =           . w x y z A B 0               C D               . . . ",
"                E F G H I J K =           . L M N O P Q R S T       = U V W X             . . . ",
"                2 Y Z ~ = `  ...+.0       . @.#.$.%.&.*.=.-.;.>.= ,.'.).!.~.{.].^.        . . . ",
"                    2     /.(._.:.<.2 # @ . [.}.|.1.2.3.4.5.6.7.8.9.0.a.b.c.d.e.f.2       . . . ",
"                        2 g.h.i.j.k.l.m.n.o.@.p.q.r.s.t.  1 u.v.1 w.x.,.y.z.A.+.B.i       . . . ",
"                        = C.D.E.F.~ G.H.I.J.@.K.L.M.N.N = O.P.= = Q.R.S.T.U.  8.h         . . . ",
"                          V.W.X.    ,.Y.Z.`. +.+++@+#+$+%+&+*+T   =+-+;+>+0               . . . ",
"  ,+'+)+                0 !+~+{+      ]+^+/+(+_+:+0 1   <+[+}+|+  1+2+3+4+0 =             . . . ",
"5+6+7+8+9+2         5.0+a+b+c+X.      d+e+f+g+h+a.0     i+j+k+5.  l+m+n+o+p+q+r+          . . . ",
"s+t+u+v+w+6.0       x+y+z+A+B+C+    1 D+E+F+G+H+I+J+i K+L+M+^.    N+O+P+Q+R+S+T+~         . . . ",
"  U+1 0 V+W+U.0 X+0 a.Y+i Z+`+ @    .@+@@@#@$@%@&@*@=@-@;@%+      >@,@'@)@- 1 !@,.        . . . ",
"        ~@{@]@^@/@(@  i 0 _@:@<@- = [@}@|@1@2@3@4@5@6@7@~       8@9@0@a@b@  0 )+      . . . . . ",
". . . . c@d@e@f@N+g@( . . h@i@j@k@l@m@n@J o@p@q@r@s@t@u@. . . v@w@x@y@z@. . . . . A@A@. . . . . ",
". . j B@f C@D@E@F@A@. . . A@G@H@I@J@K@}@L@M@+ N@O@P@Q@R@. . S@T@U@V@W@. . . . . A@X@Y@Z@. . . . ",
". `@ #.#+#@###$#;@%#. . . . &#*#=#-#;#>#,#M@+ '#)#!#~#{#]#^#/#(#_#:#<#[#}#( . ( |#1#2#3#. . . . ",
"  4#5#6#= ( 7#8#9#0#v@. . .   a#b#c#d#e#f#g#+ . h#i#j#k#l#m#n#o#p#q#r#s#t#u#v#w#x#y#z#b@. . . . ",
"  0 A#B#C#= . D#E#F#G#H#=       I#J#K#L#M#N#v@. O#P#Q#R#S#T#U#V#W#X#Y#Z#`# $.$+$@$#$$$2   . . . ",
"    ; %$8.= &$*$=$-$;$4@>$,$'$)$)+A.!$~${$]$^$( /$($_$:$<$[$}$|$,+,+I 1$2$3$4$a ; 2 5$6$a . . . ",
"          a 7$8$9$0$a$b$c$d$e$f$g$h$i$j$k$l$m$&#n$o$p$q$r$s$=         = t$u$v$w$x$t$[ y$3.. . . ",
"          0 z$A$B$C$D$E$F$~ 0 G$H$I$J$K$L$M$N$O$D@P$Q$R$S$@ T$2   0 U$V$5+W$X$Y$Z$`$ %.%1 . . . ",
"            c@+%@%T$0       i #%h $%%%&%*%=%-%;%>%,%'%)%!%~%{%]%^%@+/%(%_%:%<%[% @}%|%1%2%( . . ",
". . . . . . 3%4%5%1 1     6%7%8%9%0%a%_$b%c%d%e%f%>#`+g%h%i%j%k%l%m%n%o%w$p%q%r%0   1 s%t%u%. . ",
". . . . . . = v%w%x%i   4$y%z%A%B%C%D%E%F%G%H%I%=%J%K%L%M%~ ~ N%O%P%Q%R%= S%T%a     @+U%V%W%. . ",
". . . . .       1 0   X%Y%Z%`% &~ %+.&+&@&#&$&%&&&*&=&-&;&=       2 >&,&'&          0 <+0 . . . ",
"+ + . .             1 )&!$!&~&{&)+]&^&/&(&_&:&<&[&}&|&1&2&3&        ~@4&5&=               . . . ",
"+ . .               a.6&7&,.8&9&0&a&b&c&d&e&f&g&h&i&j&k&l&m&n&o&  0 p&q&r&=               . . . ",
". . .                 s&t&,.  = u&v&w&x&y&z&A&B&C&D&E&F&G&H&I&J&    K&L&{                 . . . ",
"                        1     M&N&O&P&Q&R&S&A&T&Q$U&V&W&X&Y&Z&=                           . . . ",
"                              o&`& *.*+*@*#*$*%*&***=*-*;*>*,*                            . . . ",
"                                '*)*!*~*{*]*^*/*(*_*:*<*[*Z&                              . . . ",
"                                  }*|*1*2*3*4*5*6*7*8*9*0*                                . . . ",
"                                      a*b*c*d*e*f*g*h*J&                                  . . . ",
"                                          i*j*k*J&o&                                      . . . ",
"                                          . . .                                           . . . ",
"                                          . . .                                           . . . ",
"                                        . . . . .                                       . . . . ",
". . . . . . . . . . . . . . . . . . . . . . . . . . . . . . . . . . . . . . . . . . . . . . + + ",
"+ + + + + . . . . . . . . . . . . . . . . . . . . . . . . . . . . . + . . . . . + + + + + + + + ",
"+ + + + + + . . . . . . . . . . . . . . . . . . . . . . . . . . . + + + . . . + + + + + + + + + "};
