/* XPM */
static char * portal_on_xpm[] = {
"48 48 683 2",
"  	c #5A6988",
". 	c #3A4466",
"+ 	c #262B44",
"@ 	c #394365",
"# 	c #576684",
"$ 	c #4D5D77",
"% 	c #4F5E79",
"& 	c #2D3C54",
"* 	c #364160",
"= 	c #26404D",
"- 	c #495972",
"; 	c #364C5A",
"> 	c #1C4A44",
", 	c #1D5246",
"' 	c #24484A",
") 	c #596886",
"! 	c #364A59",
"~ 	c #174A41",
"{ 	c #1B4C44",
"] 	c #1A5C47",
"^ 	c #1F5847",
"/ 	c #1E6B46",
"( 	c #206E49",
"_ 	c #1E6B49",
": 	c #184F42",
"< 	c #3F5165",
"[ 	c #556482",
"} 	c #37545D",
"| 	c #1C4F45",
"1 	c #345159",
"2 	c #344C58",
"3 	c #185144",
"4 	c #1B5D44",
"5 	c #1F6C49",
"6 	c #247C49",
"7 	c #247A49",
"8 	c #2A8B4A",
"9 	c #2E964B",
"0 	c #207149",
"a 	c #1A5B47",
"b 	c #1D5447",
"c 	c #374F5D",
"d 	c #54637F",
"e 	c #244549",
"f 	c #344D58",
"g 	c #304452",
"h 	c #1C4943",
"i 	c #1D6443",
"j 	c #1E6A49",
"k 	c #1C6244",
"l 	c #174D41",
"m 	c #206F48",
"n 	c #258049",
"o 	c #207049",
"p 	c #28884A",
"q 	c #2D944B",
"r 	c #2B8E4A",
"s 	c #2A8D4A",
"t 	c #268149",
"u 	c #217349",
"v 	c #1B5E48",
"w 	c #174C44",
"x 	c #39505F",
"y 	c #2A4D4C",
"z 	c #374D5C",
"A 	c #204445",
"B 	c #16483D",
"C 	c #1C6248",
"D 	c #15413C",
"E 	c #185042",
"F 	c #217248",
"G 	c #247D49",
"H 	c #227749",
"I 	c #1D6549",
"J 	c #206E48",
"K 	c #278649",
"L 	c #2B8F4A",
"M 	c #28874A",
"N 	c #227649",
"O 	c #1D6749",
"P 	c #174941",
"Q 	c #3D5062",
"R 	c #32425A",
"S 	c #16473D",
"T 	c #1B5C47",
"U 	c #1D6748",
"V 	c #217449",
"W 	c #1C6449",
"X 	c #1B5D48",
"Y 	c #1A5D47",
"Z 	c #237A49",
"` 	c #257F49",
" .	c #227549",
"..	c #1B6048",
"+.	c #257E49",
"@.	c #1E6848",
"#.	c #1C5E47",
"$.	c #237748",
"%.	c #1C6249",
"&.	c #1C4F46",
"*.	c #244749",
"=.	c #313F59",
"-.	c #204345",
";.	c #185046",
">.	c #1E6748",
",.	c #237849",
"'.	c #257E4A",
").	c #1D6548",
"!.	c #195547",
"~.	c #1D6448",
"{.	c #1F6F49",
"].	c #1B5F48",
"^.	c #217549",
"/.	c #195346",
"(.	c #217249",
"_.	c #1C6649",
":.	c #1A5B48",
"<.	c #214949",
"[.	c #314C55",
"}.	c #1E6747",
"|.	c #257C4A",
"1.	c #298A4A",
"2.	c #1C6148",
"3.	c #1A5947",
"4.	c #1C6348",
"5.	c #1A5D48",
"6.	c #29894A",
"7.	c #2A8C4A",
"8.	c #237B49",
"9.	c #204243",
"0.	c #39515F",
"a.	c #195946",
"b.	c #247B49",
"c.	c #2C904A",
"d.	c #268349",
"e.	c #206F49",
"f.	c #1B6148",
"g.	c #1F6D49",
"h.	c #1B6049",
"i.	c #195747",
"j.	c #185146",
"k.	c #195447",
"l.	c #184D45",
"m.	c #195145",
"n.	c #1A5C48",
"o.	c #174B44",
"p.	c #314A56",
"q.	c #184943",
"r.	c #1A5847",
"s.	c #195347",
"t.	c #1A5A48",
"u.	c #1D6648",
"v.	c #1B5B46",
"w.	c #1E6949",
"x.	c #1F6D48",
"y.	c #184E45",
"z.	c #153F3B",
"A.	c #204745",
"B.	c #3F5064",
"C.	c #46566D",
"D.	c #163B3B",
"E.	c #17433F",
"F.	c #1D6649",
"G.	c #184E44",
"H.	c #1F6B48",
"I.	c #26814A",
"J.	c #1B5B47",
"K.	c #195246",
"L.	c #184C44",
"M.	c #1C5F46",
"N.	c #1B5E47",
"O.	c #1F6E49",
"P.	c #1C6147",
"Q.	c #195645",
"R.	c #203D42",
"S.	c #174641",
"T.	c #1A5A47",
"U.	c #1A5948",
"V.	c #184D44",
"W.	c #2D934B",
"X.	c #2A8C4B",
"Y.	c #2C914B",
"Z.	c #2B8E4B",
"`.	c #237848",
" +	c #1A5946",
".+	c #1E6B48",
"++	c #268249",
"@+	c #214C49",
"#+	c #4B5B74",
"$+	c #344756",
"%+	c #163D3B",
"&+	c #195146",
"*+	c #1C6047",
"=+	c #1A5747",
"-+	c #1C6549",
";+	c #1E6948",
">+	c #2C914A",
",+	c #288849",
"'+	c #2C924B",
")+	c #185043",
"!+	c #44536A",
"~+	c #163839",
"{+	c #174440",
"]+	c #195044",
"^+	c #237949",
"/+	c #309B4C",
"(+	c #288649",
"_+	c #278549",
":+	c #1B5F46",
"<+	c #374E5C",
"[+	c #304351",
"}+	c #16463F",
"|+	c #1C6448",
"1+	c #227448",
"2+	c #288749",
"3+	c #2B8F4B",
"4+	c #267F4A",
"5+	c #278449",
"6+	c #1C6349",
"7+	c #195546",
"8+	c #314A55",
"9+	c #244147",
"0+	c #17413F",
"a+	c #1A5846",
"b+	c #28864A",
"c+	c #2C674B",
"d+	c #1D6348",
"e+	c #195647",
"f+	c #174D42",
"g+	c #243D45",
"h+	c #394B5D",
"i+	c #314453",
"j+	c #194D41",
"k+	c #26804A",
"l+	c #597855",
"m+	c #2B5E4A",
"n+	c #195446",
"o+	c #2C904B",
"p+	c #27834A",
"q+	c #3C694D",
"r+	c #7C7B60",
"s+	c #1E6648",
"t+	c #1B6149",
"u+	c #204042",
"v+	c #4B5A74",
"w+	c #214C47",
"x+	c #1F6B49",
"y+	c #1E6C49",
"z+	c #3B6D4F",
"A+	c #C3C290",
"B+	c #83926C",
"C+	c #1A5746",
"D+	c #83926D",
"E+	c #C8C7A1",
"F+	c #3C754F",
"G+	c #576653",
"H+	c #2A5749",
"I+	c #16433F",
"J+	c #214245",
"K+	c #203C3F",
"L+	c #184942",
"M+	c #828768",
"N+	c #4C614F",
"O+	c #184641",
"P+	c #566D51",
"Q+	c #2F714A",
"R+	c #206D48",
"S+	c #4D7051",
"T+	c #828767",
"U+	c #395F4E",
"V+	c #C7C6A0",
"W+	c #838B6C",
"X+	c #184A43",
"Y+	c #293F3D",
"Z+	c #5A515A",
"`+	c #263E4C",
" @	c #1A4542",
".@	c #1A5C46",
"+@	c #1A5141",
"@@	c #2A5648",
"#@	c #184B42",
"$@	c #174742",
"%@	c #184842",
"&@	c #173C3C",
"*@	c #908C6A",
"=@	c #3F5D4C",
"-@	c #184E46",
";@	c #184C45",
">@	c #828667",
",@	c #4C5B4C",
"'@	c #153B3A",
")@	c #424552",
"!@	c #826E6D",
"~@	c #384263",
"{@	c #224048",
"]@	c #1B5C48",
"^@	c #3E734D",
"/@	c #7D7F60",
"(@	c #194B40",
"_@	c #173D3D",
":@	c #17393A",
"<@	c #17383A",
"[@	c #173A3B",
"}@	c #184742",
"|@	c #184F44",
"1@	c #8B9471",
"2@	c #EBE6C0",
"3@	c #8B8F6E",
"4@	c #184F45",
"5@	c #184B44",
"6@	c #17423F",
"7@	c #283B3A",
"8@	c #584E51",
"9@	c #4E4E65",
"0@	c #8B7771",
"a@	c #263A4A",
"b@	c #195245",
"c@	c #84A06D",
"d@	c #C4C890",
"e@	c #408850",
"f@	c #153737",
"g@	c #223444",
"h@	c #213543",
"i@	c #173E3D",
"j@	c #8B8E6D",
"k@	c #E8E4BF",
"l@	c #8B8B6B",
"m@	c #17403E",
"n@	c #1C3738",
"o@	c #173D3C",
"p@	c #213744",
"q@	c #213644",
"r@	c #585C55",
"s@	c #A19782",
"t@	c #505068",
"u@	c #283A4D",
"v@	c #4F7A53",
"w@	c #83936A",
"x@	c #1F3D41",
"y@	c #4D5C77",
"z@	c #1A363C",
"A@	c #213334",
"B@	c #173739",
"C@	c #163739",
"D@	c #4B5547",
"E@	c #283938",
"F@	c #1B3334",
"G@	c #48382F",
"H@	c #686152",
"I@	c #92958D",
"J@	c #CBC9AF",
"K@	c #707689",
"L@	c #9C8E88",
"M@	c #1C3A3F",
"N@	c #174741",
"O@	c #21373A",
"P@	c #525A73",
"Q@	c #4E5A74",
"R@	c #553829",
"S@	c #2C3633",
"T@	c #3C3833",
"U@	c #403832",
"V@	c #7A5E4D",
"W@	c #6E5444",
"X@	c #5F5045",
"Y@	c #A29169",
"Z@	c #EBE6C1",
"`@	c #9A9C94",
" #	c #44556A",
".#	c #294E4E",
"+#	c #596676",
"@#	c #9A9C92",
"##	c #ECE7C3",
"$#	c #253848",
"%#	c #143535",
"&#	c #184440",
"*#	c #1B3A37",
"=#	c #553B2A",
"-#	c #6F5139",
";#	c #595665",
">#	c #56627F",
",#	c #59484C",
"'#	c #A3956B",
")#	c #A49470",
"!#	c #89654C",
"~#	c #B39D75",
"{#	c #9A7B5E",
"]#	c #8D6A52",
"^#	c #A5936A",
"/#	c #EAE5C0",
"(#	c #989B90",
"_#	c #364B59",
":#	c #195844",
"<#	c #205F48",
"[#	c #1D6849",
"}#	c #1E5546",
"|#	c #8C8E6E",
"1#	c #E9E5C1",
"2#	c #3E494E",
"3#	c #18373A",
"4#	c #173E3C",
"5#	c #1C4041",
"6#	c #1E3232",
"7#	c #3D4335",
"8#	c #524C37",
"9#	c #876636",
"0#	c #8E7143",
"a#	c #836C48",
"b#	c #EAE4BF",
"c#	c #EBE5BF",
"d#	c #AC8F67",
"e#	c #D5CAA0",
"f#	c #B49C77",
"g#	c #A7845D",
"h#	c #735133",
"i#	c #6F5A42",
"j#	c #364B58",
"k#	c #195745",
"l#	c #5D686C",
"m#	c #4C526A",
"n#	c #C7C3A5",
"o#	c #8D8F83",
"p#	c #37495A",
"q#	c #293A3A",
"r#	c #213C42",
"s#	c #38495B",
"t#	c #1B4240",
"u#	c #195743",
"v#	c #35553D",
"w#	c #72603A",
"x#	c #866A3B",
"y#	c #A39268",
"z#	c #A19167",
"A#	c #B49262",
"B#	c #8C6B43",
"C#	c #8E6A50",
"D#	c #AD8A62",
"E#	c #6F4E33",
"F#	c #544348",
"G#	c #2F4951",
"H#	c #1B6249",
"I#	c #217148",
"J#	c #214A49",
"K#	c #949792",
"L#	c #6F798B",
"M#	c #5B6783",
"N#	c #5A5455",
"O#	c #756564",
"P#	c #4D5464",
"Q#	c #4E4937",
"R#	c #7D5930",
"S#	c #6E4B2A",
"T#	c #AA875F",
"U#	c #7A5837",
"V#	c #A1805C",
"W#	c #A98864",
"X#	c #735235",
"Y#	c #796039",
"Z#	c #2A473E",
"`#	c #1B4341",
" $	c #656D87",
".$	c #8A7B7E",
"+$	c #8B7D80",
"@$	c #585F73",
"#$	c #1C4946",
"$$	c #2F423A",
"%$	c #69462A",
"&$	c #734F2B",
"*$	c #9C7D5D",
"=$	c #977541",
"-$	c #AA8961",
";$	c #D1C490",
">$	c #A89364",
",$	c #78532E",
"'$	c #453D3A",
")$	c #16453F",
"!$	c #9E9F94",
"~$	c #ADA693",
"{$	c #928382",
"]$	c #4B545A",
"^$	c #164741",
"/$	c #184F46",
"($	c #19443E",
"_$	c #5F432B",
":$	c #6D4F34",
"<$	c #D2C79E",
"[$	c #A69164",
"}$	c #98775A",
"|$	c #A18E66",
"1$	c #765C3E",
"2$	c #5C3B2C",
"3$	c #4E4857",
"4$	c #564635",
"5$	c #264541",
"6$	c #344D59",
"7$	c #EAE6C5",
"8$	c #9F9087",
"9$	c #5A6173",
"0$	c #373735",
"a$	c #5C3825",
"b$	c #674127",
"c$	c #A89264",
"d$	c #71583D",
"e$	c #977659",
"f$	c #7C572F",
"g$	c #65422E",
"h$	c #5D3F34",
"i$	c #605156",
"j$	c #4A5971",
"k$	c #314C56",
"l$	c #938484",
"m$	c #676E87",
"n$	c #333D36",
"o$	c #384D55",
"p$	c #4B4D5B",
"q$	c #563221",
"r$	c #6F482B",
"s$	c #664327",
"t$	c #6E472A",
"u$	c #A68864",
"v$	c #7D5A38",
"w$	c #603D2C",
"x$	c #515A6E",
"y$	c #546976",
"z$	c #596786",
"A$	c #686573",
"B$	c #958986",
"C$	c #647087",
"D$	c #A9AA97",
"E$	c #465445",
"F$	c #643F27",
"G$	c #635C39",
"H$	c #585735",
"I$	c #5D3823",
"J$	c #674128",
"K$	c #5C3724",
"L$	c #A79468",
"M$	c #EEE7C0",
"N$	c #A69368",
"O$	c #55342A",
"P$	c #577057",
"Q$	c #5E8954",
"R$	c #586984",
"S$	c #657189",
"T$	c #CECAAE",
"U$	c #5A6C85",
"V$	c #93A37E",
"W$	c #5E874E",
"X$	c #5C6334",
"Y$	c #7F5D32",
"Z$	c #9B783B",
"`$	c #7F5A30",
" %	c #5B3723",
".%	c #694228",
"+%	c #AF9A6A",
"@%	c #ECE6BF",
"#%	c #9C8D66",
"$%	c #6E482A",
"%%	c #876936",
"&%	c #6E6639",
"*%	c #515A72",
"=%	c #596986",
"-%	c #928482",
";%	c #5A6A86",
">%	c #577F67",
",%	c #4F7B58",
"'%	c #578649",
")%	c #62773C",
"!%	c #5F4227",
"~%	c #5C3823",
"{%	c #6B4629",
"]%	c #724D2B",
"^%	c #684228",
"/%	c #926E3A",
"(%	c #907146",
"_%	c #633E26",
":%	c #8B733C",
"<%	c #73964B",
"[%	c #415D40",
"}%	c #597E5D",
"|%	c #989270",
"1%	c #59737C",
"2%	c #54894F",
"3%	c #5D8C4B",
"4%	c #62783E",
"5%	c #A68442",
"6%	c #8C6837",
"7%	c #664128",
"8%	c #5F3824",
"9%	c #79532E",
"0%	c #7C562F",
"a%	c #5F3924",
"b%	c #636637",
"c%	c #68984E",
"d%	c #5F914B",
"e%	c #A0B574",
"f%	c #ECE7C1",
"g%	c #597679",
"h%	c #53864E",
"i%	c #4C7C46",
"j%	c #4A6335",
"k%	c #767E41",
"l%	c #5F5830",
"m%	c #546937",
"n%	c #5D3924",
"o%	c #77512E",
"p%	c #634027",
"q%	c #836B39",
"r%	c #A08440",
"s%	c #597C44",
"t%	c #5F944E",
"u%	c #99AF74",
"v%	c #EAE7C2",
"w%	c #58737B",
"x%	c #5C8C4F",
"y%	c #74A451",
"z%	c #4F7C43",
"A%	c #6B9B4E",
"B%	c #568546",
"C%	c #5E8342",
"D%	c #886736",
"E%	c #A07D3E",
"F%	c #634428",
"G%	c #624E2D",
"H%	c #A38240",
"I%	c #6F6032",
"J%	c #6C9148",
"K%	c #826D39",
"L%	c #626235",
"M%	c #55894F",
"N%	c #57865D",
"O%	c #6E8777",
"P%	c #558065",
"Q%	c #56884A",
"R%	c #5E924D",
"S%	c #588C4C",
"T%	c #5A8F4D",
"U%	c #4E673A",
"V%	c #8B6937",
"W%	c #827039",
"X%	c #506739",
"Y%	c #69944A",
"Z%	c #8F7E40",
"`%	c #826C39",
" &	c #63944C",
".&	c #537441",
"+&	c #5B623B",
"@&	c #558A4C",
"#&	c #587B71",
"$&	c #578065",
"%&	c #578B53",
"&&	c #57875B",
"*&	c #568C4D",
"=&	c #53844C",
"-&	c #624C2B",
";&	c #608342",
">&	c #528449",
",&	c #63954C",
"'&	c #62522D",
")&	c #576D3C",
"!&	c #578D4D",
"~&	c #568B50",
"{&	c #56825F",
"]&	c #59747B",
"^&	c #578167",
"/&	c #578265",
"(&	c #587576",
"_&	c #515839",
":&	c #558144",
"<&	c #507F54",
"[&	c #53784E",
"}&	c #567F5E",
"|&	c #425C5F",
"1&	c #476C5B",
"2&	c #3D4C64",
"3&	c #5A6E83",
"4&	c #34465B",
"5&	c #384363",
"6&	c #394364",
"7&	c #2A683E",
"8&	c #2E4650",
"9&	c #31664A",
"0&	c #295E3D",
"                                          . . .                   . . .                   . + + ",
"                                          . . @   # $ % #         . . .                   . + + ",
"                                        # & * = - ; > , ' $       . . .                   . . + ",
"                                ) % # # ! ~ { ] ^ / ( _ : < )     . . .                   . . . ",
"                      % [ ) # $ } | 1 2 3 4 5 6 7 8 9 0 a b c #   . . .                   @ . . ",
"                  ) d e ' f g h i j k l m n o p q r s t u v w x ) . . .                 ) y . . ",
"                # z A B C a D E F G H I J H 0 n K L M N 6 O P Q # . . .                   R . . ",
"              # c S T U V W X Y Z `  .0 v ..j +.G n @.#.t $.%.&.*.=.. .                   . . . ",
"              % -.;.>.,.s '.).!.~._ {.N ].@.^.` 0 _ /.].5 (.0 _.:.<.%                     . . . ",
"              # [.}.|.q L 1.V 2.3.!...j ).4.U 4.5.!.X N 6.7.8.].;.9.d                     . . . ",
"            ) 0.a.W b.s c.d.e.o f.g.2.h.i.:.j.k.l.m.n.g.t s (.I k.o.2 $                   . . . ",
"            # p.q.i.j n G V Z n b.+.,.r.s.t.i.u.v.X i.:.w.x...3.y.z.l A.B.$               . . . ",
"            C.D.E.i.u.V _ F.g.0 n o ).i.G.H.,.9 I.Z g.C J.t.K.L.M.N.O.P.Q.f )             . . . ",
"            [ R.S.m.:.T.t.U.J.3._ ].:.V.] I.W.W.X.Y.Z.V t `. +.+G ,.++Z u.@+#+            . . . ",
"            ) $+%+K.&+*+=+).g.-+n.;+_ n.g.G s >+,+c.K +.6 x.F.(.d.q '+` O.)+z )           . . . ",
"              !+~+{+]+_ ^+d.M 8 ;+v T v V t r /+>+>+(+d.0 v ).G W._+d.G O.:+<+)           . . . ",
"              # [+}+T.,.s 9 ,+W. .|+1+`.,.t _+2+(+3+M O.^+N.=+( 4+5+Z V 6+7+8+)           . . . ",
"              # 9+0+a+u s 9 _+_+V 5.K.H.+.Y.` b+t G o c+b.Z ].F.~.u d+W e+f+g+#           . . . ",
"              ) h+i+j+-+^+k+6 o l+m+n+e.5+o+u I.p+N q+r+>.s+X >.t+j v /.l.u+v+            . . . ",
"                ) [ w+=+x+y+(.z+A+B+C+v g.O.Z e.w.@.D+E+F+C t.G+H+5.k.I+J+v+              . . . ",
"                ) d K+L+n.v =+r.M+N+O+s.2.j $.P+Q+R+S+T+7+3.U+V+W+K.X+Y+Z+            . . . . . ",
". . . . . . . @ `+ @.@+@@@5.=+#@$@%@&@%@;.n.).*@=@R+I y.-@-@;@>@,@$@'@)@!@. . . . . . . . . . . ",
". . . . . . . ~@{@ +]@^@/@e.H.(@_@:@<@[@}@|@1@2@3@4@k.O+5@{+6@0+<@7@8@9@0@. . . . . . . . . . . ",
". . . . . . @ a@b@j H c@d@e@(.a+f@g@h@<@:@i@j@k@l@m@}@n@o@p@h@~+q@r@s@t@0@. . . . . . . . . . . ",
"          . . u@V.U.V v@w@Z 4.y.x@[ y@z@A@B@C@D@E@F@~+G@H@y@y@h+# I@J@K@L@            . . . . . ",
"            ~@M@{+;.-+u.>.).~.N@O@P@  Q@R@S@T@U@V@W@X@Y@Z@`@#  #- .#+#@###`@              . . . ",
"            @ $#%#&#K.K.C+s.4@*#=#-#;#>#,#'#)#!#~#{#]#^#/#(#_#:#<#[#}#|#1#`@              . . . ",
"            . ~@2#3#4#m@0+5@5#6#7#8#9#0#a#b#c#d#e#f#g#h#i#j#k#F.,.` O.a.l#                . . . ",
"            . m#n#o#p#B@q#r#s#t#u#C+v#w#x#y#z#A#B#C#D#E#F#G#7+H#I#b.(.k.J#$               . . . ",
"            . . K#L#M#N#O#P#J#:.O.G H.3 Q#R#S#T#U#V#W#X#Y#Z#-@j.F.U 5.i.`#$               . . . ",
". . . . . .          $.$+$@$#$j.v e.(.X $$%$&$*$=$-$;$>$,$'$)$4@U.:.;.y.e #               . . . ",
". . . . . .         !$~${$]$^$/$i.e+U.i.($_$:$<$[$}$|$1$2$3$4$5$y.y.w 6$$                 . . . ",
". . . . .         L#7$7$8$9$-.l.-@-@y.o.0$a$b$c$d$e$X#f$g$h$i$j$<.k$x #                   . . . ",
"+ + . .             `@`@l$m$#+2 J#w n$o$p$q$r$s$t$u$v$w$x$y$z$  A$M#)                     . . . ",
"+ . .                   B$m$  C$D$E$F$G$H$I$J$K$L$M$N$O$P$Q$R$  +$ $                      . . . ",
". . .                 S$T$K#  U$V$W$X$Y$Z$`$ %.%+%@%#%$%%%&%*%=%-%m$                      . . . ",
"                        K#L#;%>%,%'%)%!%~%{%]%^%/%(%_%f$:%<%[%}%|%m$                      . . . ",
"                            1%2%3%4%5%6%7%8%t$F$9%0%a%{%b%c%d%e%f%`@                      . . . ",
"                            g%h%i%j%k%l%m%n%o%.%t$9%p%q%r%s%t%u%v%`@                      . . . ",
"                            w%x%y%z%A%B%C%D%E%F%G%H%I%J%K%L%M%N%O%                        . . . ",
"                            ;%P%Q%R%S%T%U%V%W%X%Y%Z%`% &.&+&@&#&;%                        . . . ",
"                              U$$&%&&&*&=&-&;&>&,&'&)&!&~&{&#&U$                          . . . ",
"                                U$]&^&/&(&_&:&<&%&[&}&/&g%]&                              . . . ",
"                                    ;%;%  |&1&2&1%3&;%;%                                  . . . ",
"                                        . . . . .                                       . . . . ",
". . . . . . . . . . . . . . . . . . . . . . . . . . . . . . . . . . . . . . . . . . . . . . + + ",
"+ + + + + . . . . . . . . . . . . . . 4&5&. 6&5&. . . . . . . . . . + . . . . . + + + + + + + + ",
"+ + + + + + . . . . . . . . . . . . 5&7&8&5&9&0&5&. . . . . . . . + + + . . . + + + + + + + + + "};
