/* XPM */
static char * wall_xpm[] = {
"48 48 5 1",
" 	c #3A4466",
".	c #5A6988",
"+	c #181425",
"@	c #8B9BB4",
"#	c #C0CBDC",
"+ .@#######################################@@. +",
"+ .@#######################################@@. +",
"+ .@#######################################@@. +",
"+ .@#######################################@@. +",
"+ .@#######################################@@. +",
"+ .@#######################################@@. +",
"+ .@#######################################@@. +",
"+ .@#######################################@@. +",
"+ .@#######################################@@. +",
"+ .@#######################################@@. +",
"+ .@#######################################@@. +",
"+ .@########################################@. +",
"+ .@########################################@. +",
"+ .@########################################@. +",
"+ .@########################################@. +",
"+ .@########################################@. +",
"+ .@########################################@. +",
"+ .@########################################@. +",
"+ .@########################################@. +",
"+ .@########################################@. +",
"+ .@########################################@. +",
"+ .@########################################@. +",
"+ .@####################@@@#################@. +",
"+ .@####################@@@#################@. +",
"+ .@@##################@@@@@###############@@. +",
"+ ..@@@@@@@@@@@@@@@@@@@@@@@@@@@@@@@@@@@@@@@@@. +",
"+ ..@@@@@@@@@@@@@@@@@@@@@@@@@@@@@@@@@@@@@@@@.. +",
"+ ..@@@@@@@@@@@@@@@@@@@@@@@@@@@@@@@@@@@@@@@@.. +",
"+ ..@@@@@@@@@@@@@@@@@@@@@.@@@@@@@@@@@@@@@@@@.. +",
"+ ..@@@@@@@@@@@@@@@@@@@@...@@@@@@@@@@@@@@@@@.. +",
"+ ..@@@@@@@@@@@@@@@@@@@@...@@@@@@@@@@@@@@@@@.. +",
"+ ..@@@@@@@@@@@@@@@@@@@@...@@@@@@@@@@@@@@@@@.. +",
"+ ..@@@@@@@@@@@@@@@@@@@@...@@@@@@@@@@@@@@@@@.. +",
"+ ..@@@@@@@@@@@@@@@@@@@@...@@@@@@@@@@@@@@@@@.. +",
"+ ..@@@@@@@@@@@@@@@@@@@@...@@@@@@@@@@@@@@@@@.. +",
"+ ..@@@@@@@@@@@@@@@@@@@@@.@@@@@@@@@@@@@@@@@@.. +",
"+ ..@@@@@@@@@@@@@@...@@@@@@@@@@@@@@@@@@@@@@@.. +",
"+  .@@@@@@@@@@@@@.....@@@@@@@@@@@@@@@@@@@@@@.  +",
"+  .@@@@@@@@@@@@@.....@@@@@@@@@@@@@@@@@@@@@@.  +",
"+  .@@@@@@@@@@@@@.....@@@@@@@@@@@@@@@@@@@@@@.  +",
"+  .@@@@@@@@@@@@@.....@@@@@@@@@@@@@@@@@@@@@@.  +",
"+  .@@@@@@@@@@@@@.....@@@@@@@@@@@@@@@@@@@@@@.  +",
"+  .@@@@@@@@@@@@@.....@@@@@@@@@@@@@@@@@@@@@@.  +",
"+  .@@@@@@@@@@@@@.....@@@@@@@@@@@@@@@@@@@@@@.  +",
"+  .@@@@@@@@@@@@@.....@@@@@@@@@@@@@@@@@@@@@@.  +",
"+  .@@@@@@@@@@@@@.....@@@@@@@@@@@@@@@@@@@@@@.  +",
"+  .@@@@@@@@@@@@@.....@@@@@@@@@@@@@@@@@@@@@@.  +",
"+  .@@@@@@@@@@@@@.....@@@@@@@@@@@@@@@@@@@@@@.  +"};
